StreetStamps/cinematic_natural_v3.cube
TITLE "Cinematic Natural v3"
LUT_3D_SIZE 33
0.000000 0.000000 0.009301
0.019509 0.000740 0.009316
0.046750 0.001480 0.009361
0.074292 0.002221 0.009435
0.102113 0.002962 0.009539
0.130190 0.003703 0.009672
0.158504 0.004444 0.009835
0.187032 0.005186 0.010028
0.215754 0.005928 0.010250
0.244648 0.006670 0.010502
0.273693 0.007412 0.010784
0.302869 0.008155 0.011096
0.332155 0.008898 0.011437
0.361529 0.009641 0.011807
0.390973 0.010385 0.012208
0.420464 0.011128 0.012638
0.449983 0.011872 0.013098
0.479511 0.012617 0.013588
0.509025 0.013361 0.014107
0.538507 0.014106 0.014657
0.567937 0.014851 0.015236
0.597295 0.015597 0.015845
0.626561 0.016342 0.016484
0.655716 0.017088 0.017153
0.684740 0.017834 0.017852
0.713613 0.018581 0.018581
0.742328 0.019328 0.019328
0.770880 0.020075 0.020075
0.799250 0.020822 0.020822
0.827416 0.021569 0.021569
0.855362 0.022317 0.022317
0.883065 0.023065 0.023065
0.910508 0.023813 0.023813
0.000000 0.028202 0.010940
0.022689 0.028952 0.010990
0.049941 0.029702 0.011070
0.077490 0.030453 0.011179
0.105315 0.031203 0.011318
0.133394 0.031955 0.011487
0.161706 0.032706 0.011686
0.190230 0.033458 0.011914
0.218944 0.034209 0.012172
0.247828 0.034961 0.012459
0.276861 0.035714 0.012776
0.306022 0.036466 0.013123
0.335290 0.037219 0.013500
0.364645 0.037972 0.013906
0.394066 0.038726 0.014343
0.423533 0.039479 0.014809
0.453025 0.040233 0.015304
0.482523 0.040987 0.015830
0.512007 0.041742 0.016386
0.541456 0.042496 0.016971
0.570851 0.043251 0.017586
0.600172 0.044006 0.018231
0.629399 0.044762 0.018906
0.658514 0.045517 0.019612
0.687496 0.046273 0.020347
0.716342 0.047029 0.021094
0.745042 0.047786 0.021841
0.773577 0.048542 0.022589
0.801928 0.049299 0.023337
0.830075 0.050056 0.024086
0.857998 0.050814 0.024834
0.885678 0.051571 0.025583
0.913095 0.052329 0.026333
0.000000 0.056773 0.012621
0.025841 0.057533 0.012707
0.053102 0.058292 0.012822
0.080658 0.059052 0.012967
0.108486 0.059813 0.013141
0.136566 0.060573 0.013346
0.164876 0.061334 0.013580
0.193395 0.062095 0.013843
0.222101 0.062856 0.014137
0.250975 0.063617 0.014460
0.279995 0.064379 0.014812
0.309140 0.065141 0.015195
0.338390 0.065903 0.015607
0.367724 0.066665 0.016050
0.397123 0.067428 0.016522
0.426565 0.068191 0.017023
0.456030 0.068954 0.017555
0.485499 0.069717 0.018117
0.514951 0.070481 0.018708
0.544367 0.071245 0.019330
0.573727 0.072009 0.019981
0.603011 0.072773 0.020662
0.632200 0.073537 0.021374
0.661275 0.074302 0.022114
0.690236 0.075067 0.022862
0.719068 0.075832 0.023610
0.747754 0.076597 0.024358
0.776273 0.077363 0.025107
0.804605 0.078129 0.025856
0.832731 0.078895 0.026605
0.860632 0.079661 0.027355
0.888288 0.080428 0.028105
0.915679 0.081195 0.028855
0.002005 0.085691 0.014346
0.028963 0.086459 0.014467
0.056233 0.087228 0.014618
0.083795 0.087996 0.014798
0.111626 0.088765 0.015008
0.139706 0.089535 0.015248
0.168013 0.090304 0.015517
0.196526 0.091074 0.015816
0.225224 0.091844 0.016145
0.254087 0.092614 0.016504
0.283093 0.093384 0.016893
0.312223 0.094154 0.017311
0.341454 0.094925 0.017759
0.370768 0.095696 0.018237
0.400143 0.096467 0.018745
0.429560 0.097239 0.019283
0.458998 0.098011 0.019850
0.488438 0.098782 0.020448
0.517859 0.099554 0.021076
0.547241 0.100327 0.021733
0.576566 0.101099 0.022421
0.605813 0.101872 0.023138
0.634966 0.102645 0.023882
0.664025 0.103418 0.024631
0.692974 0.104191 0.025380
0.721794 0.104965 0.026129
0.750464 0.105739 0.026878
0.778966 0.106513 0.027628
0.807280 0.107287 0.028378
0.835386 0.108062 0.029128
0.863264 0.108836 0.029878
0.890896 0.109611 0.030629
0.918261 0.110386 0.031380
0.005086 0.114930 0.016114
0.032055 0.115707 0.016271
0.059334 0.116484 0.016457
0.086901 0.117261 0.016673
0.114734 0.118038 0.016918
0.142813 0.118815 0.017193
0.171117 0.119593 0.017499
0.199624 0.120370 0.017833
0.228314 0.121148 0.018198
0.257165 0.121927 0.018593
0.286157 0.122705 0.019017
0.315270 0.123483 0.019471
0.344483 0.124262 0.019955
0.373776 0.125041 0.020469
0.403128 0.125820 0.021013
0.432519 0.126600 0.021587
0.461929 0.127379 0.022190
0.491339 0.128159 0.022824
0.520728 0.128939 0.023488
0.550078 0.129719 0.024181
0.579367 0.130500 0.024905
0.608583 0.131280 0.025652
0.637724 0.132061 0.026402
0.666774 0.132842 0.027151
0.695711 0.133623 0.027901
0.724518 0.134405 0.028651
0.753173 0.135186 0.029401
0.781658 0.135968 0.030151
0.809953 0.136750 0.030902
0.838038 0.137532 0.031653
0.865894 0.138314 0.032404
0.893501 0.139097 0.033156
0.920840 0.139880 0.033908
0.008139 0.144469 0.017926
0.035118 0.145253 0.018118
0.062404 0.146037 0.018340
0.089976 0.146822 0.018591
0.117811 0.147606 0.018872
0.145889 0.148391 0.019183
0.174188 0.149176 0.019524
0.202689 0.149961 0.019895
0.231369 0.150747 0.020295
0.260208 0.151532 0.020725
0.289186 0.152318 0.021185
0.318282 0.153104 0.021675
0.347476 0.153890 0.022195
0.376747 0.154677 0.022745
0.406075 0.155463 0.023325
0.435441 0.156250 0.023935
0.464823 0.157037 0.024575
0.494203 0.157824 0.025245
0.523561 0.158611 0.025945
0.552876 0.159398 0.026675
0.582140 0.160186 0.027424
0.611348 0.160974 0.028174
0.640482 0.161762 0.028924
0.669522 0.162550 0.029674
0.698448 0.163338 0.030425
0.727241 0.164127 0.031175
0.755881 0.164916 0.031927
0.784348 0.165705 0.032678
0.812624 0.166494 0.033429
0.840688 0.167283 0.034181
0.868522 0.168072 0.034933
0.896104 0.168862 0.035686
0.923416 0.169652 0.036438
0.011162 0.174282 0.019782
0.038152 0.175073 0.020009
0.065444 0.175864 0.020266
0.093020 0.176655 0.020553
0.120856 0.177447 0.020870
0.148932 0.178239 0.021217
0.177227 0.179030 0.021593
0.205720 0.179822 0.022000
0.234390 0.180615 0.022436
0.263217 0.181407 0.022902
0.292180 0.182200 0.023398
0.321259 0.182992 0.023924
0.350433 0.183785 0.024480
0.379682 0.184578 0.025066
0.408987 0.185372 0.025682
0.438326 0.186165 0.026328
0.467681 0.186959 0.027004
0.497030 0.187752 0.027711
0.526356 0.188546 0.028447
0.555652 0.189340 0.029197
0.584911 0.190135 0.029947
0.614113 0.190929 0.030698
0.643239 0.191724 0.031449
0.672268 0.192518 0.032200
0.701183 0.193313 0.032951
0.729962 0.194108 0.033703
0.758587 0.194904 0.034455
0.787037 0.195699 0.035207
0.815294 0.196495 0.035960
0.843337 0.197290 0.036712
0.871147 0.198086 0.037465
0.898705 0.198882 0.038219
0.925990 0.199679 0.038972
0.014157 0.204346 0.021681
0.041155 0.205143 0.021944
0.068454 0.205941 0.022237
0.096032 0.206738 0.022560
0.123868 0.207536 0.022912
0.151942 0.208334 0.023295
0.180232 0.209132 0.023707
0.208717 0.209930 0.024149
0.237377 0.210729 0.024622
0.266191 0.211527 0.025124
0.295139 0.212326 0.025656
0.324200 0.213125 0.026218
0.353354 0.213924 0.026810
0.382581 0.214723 0.027432
0.411861 0.215522 0.028084
0.441174 0.216322 0.028766
0.470501 0.217122 0.029479
0.499821 0.217921 0.030221
0.529134 0.218721 0.030971
0.558427 0.219521 0.031722
0.587681 0.220322 0.032474
0.616877 0.221122 0.033225
0.645994 0.221923 0.033977
0.675014 0.222723 0.034729
0.703916 0.223524 0.035481
0.732682 0.224325 0.036234
0.761291 0.225126 0.036987
0.789724 0.225928 0.037740
0.817961 0.226729 0.038493
0.845983 0.227531 0.039246
0.873770 0.228332 0.040000
0.901303 0.229134 0.040754
0.928562 0.229936 0.041509
0.017122 0.234637 0.023624
0.044128 0.235440 0.023923
0.071433 0.236243 0.024252
0.099013 0.237047 0.024610
0.126849 0.237850 0.024998
0.154919 0.238653 0.025417
0.183203 0.239457 0.025865
0.211680 0.240261 0.026343
0.240329 0.241065 0.026851
0.269130 0.241869 0.027390
0.298062 0.242673 0.027958
0.327105 0.243478 0.028556
0.356239 0.244282 0.029184
0.385444 0.245087 0.029843
0.414700 0.245892 0.030531
0.443986 0.246697 0.031250
0.473286 0.247502 0.031996
0.502600 0.248307 0.032747
0.531911 0.249112 0.033499
0.561202 0.249918 0.034251
0.590451 0.250723 0.035003
0.619640 0.251529 0.035755
0.648749 0.252335 0.036508
0.677759 0.253141 0.037261
0.706649 0.253947 0.038014
0.735400 0.254754 0.038767
0.763994 0.255560 0.039521
0.792409 0.256366 0.040275
0.820626 0.257173 0.041029
0.848627 0.257980 0.041783
0.876391 0.258787 0.042538
0.903898 0.259594 0.043293
0.931130 0.260401 0.044048
0.020057 0.265132 0.025611
0.047071 0.265940 0.025946
0.074380 0.266748 0.026310
0.101963 0.267556 0.026705
0.129798 0.268365 0.027129
0.157864 0.269173 0.027583
0.186142 0.269982 0.028067
0.214610 0.270791 0.028582
0.243247 0.271600 0.029126
0.272034 0.272409 0.029700
0.300950 0.273218 0.030304
0.329975 0.274027 0.030939
0.359088 0.274837 0.031603
0.388270 0.275646 0.032298
0.417501 0.276456 0.033023
0.446766 0.277266 0.033772
0.476064 0.278075 0.034524
0.505378 0.278885 0.035277
0.534689 0.279696 0.036029
0.563976 0.280506 0.036782
0.593221 0.281316 0.037535
0.622403 0.282127 0.038288
0.651503 0.282937 0.039041
0.680502 0.283748 0.039795
0.709380 0.284559 0.040549
0.738118 0.285370 0.041303
0.766695 0.286181 0.042058
0.795092 0.286992 0.042813
0.823290 0.287803 0.043568
0.851269 0.288615 0.044323
0.879009 0.289426 0.045078
0.906492 0.290238 0.045834
0.933696 0.291049 0.046590
0.022963 0.295806 0.027642
0.049984 0.296619 0.028013
0.077297 0.297431 0.028413
0.104880 0.298244 0.028843
0.132714 0.299057 0.029304
0.160776 0.299870 0.029794
0.189047 0.300683 0.030314
0.217505 0.301496 0.030865
0.246131 0.302309 0.031445
0.274904 0.303123 0.032055
0.303803 0.303936 0.032696
0.332809 0.304750 0.033367
0.361902 0.305563 0.034068
0.391061 0.306377 0.034799
0.420275 0.307191 0.035551
0.449541 0.308005 0.036303
0.478842 0.308819 0.037056
0.508157 0.309633 0.037809
0.537466 0.310447 0.038562
0.566750 0.311262 0.039316
0.595990 0.312076 0.040070
0.625165 0.312891 0.040824
0.654257 0.313705 0.041578
0.683245 0.314520 0.042333
0.712110 0.315335 0.043087
0.740833 0.316150 0.043843
0.769394 0.316965 0.044598
0.797773 0.317780 0.045353
0.825951 0.318595 0.046109
0.853909 0.319411 0.046865
0.881625 0.320226 0.047622
0.909082 0.321042 0.048378
0.936260 0.321857 0.049135
0.025839 0.326637 0.029718
0.052866 0.327453 0.030124
0.080182 0.328269 0.030560
0.107766 0.329086 0.031027
0.135597 0.329902 0.031523
0.163655 0.330719 0.032049
0.191918 0.331536 0.032606
0.220367 0.332353 0.033192
0.248980 0.333170 0.033809
0.277738 0.333987 0.034456
0.306621 0.334804 0.035133
0.335608 0.335621 0.035840
0.364679 0.336438 0.036577
0.393827 0.337255 0.037330
0.423047 0.338073 0.038083
0.452317 0.338890 0.038837
0.481620 0.339708 0.039590
0.510935 0.340526 0.040344
0.540243 0.341344 0.041098
0.569524 0.342161 0.041853
0.598758 0.342979 0.042607
0.627926 0.343797 0.043362
0.657009 0.344615 0.044118
0.685986 0.345434 0.044873
0.714839 0.346252 0.045629
0.743548 0.347070 0.046384
0.772092 0.347889 0.047141
0.800453 0.348707 0.047897
0.828611 0.349526 0.048654
0.856546 0.350345 0.049411
0.884239 0.351163 0.050168
0.911670 0.351982 0.050925
0.938820 0.352801 0.051683
0.028685 0.357600 0.031837
0.055718 0.358419 0.032280
0.083036 0.359239 0.032752
0.110620 0.360058 0.033254
0.138448 0.360878 0.033787
0.166500 0.361698 0.034349
0.194756 0.362517 0.034942
0.223194 0.363337 0.035565
0.251795 0.364157 0.036218
0.280538 0.364977 0.036901
0.309403 0.365797 0.037614
0.338371 0.366618 0.038357
0.367438 0.367438 0.039111
0.396594 0.368258 0.039865
0.425819 0.369079 0.040619
0.455094 0.369899 0.041373
0.484398 0.370719 0.042127
0.513713 0.371540 0.042882
0.543019 0.372361 0.043637
0.572297 0.373181 0.044392
0.601526 0.374002 0.045148
0.630687 0.374823 0.045904
0.659760 0.375644 0.046660
0.688727 0.376465 0.047416
0.717567 0.377286 0.048172
0.746260 0.378107 0.048929
0.774788 0.378929 0.049686
0.803131 0.379750 0.050443
0.831268 0.380571 0.051201
0.859182 0.381392 0.051959
0.886851 0.382214 0.052717
0.914256 0.383035 0.053475
0.941378 0.383857 0.054233
0.031501 0.388671 0.034001
0.058538 0.389493 0.034480
0.085859 0.390315 0.034988
0.113442 0.391137 0.035527
0.141267 0.391959 0.036095
0.169313 0.392781 0.036694
0.197560 0.393604 0.037323
0.225987 0.394426 0.037982
0.254574 0.395248 0.038672
0.283302 0.396071 0.039391
0.312151 0.396893 0.040139
0.341121 0.397716 0.040893
0.370198 0.398538 0.041648
0.399361 0.399361 0.042402
0.428592 0.400184 0.043157
0.457870 0.401007 0.043912
0.487177 0.401829 0.044668
0.516492 0.402652 0.045423
0.545796 0.403475 0.046179
0.575069 0.404298 0.046935
0.604293 0.405121 0.047691
0.633446 0.405944 0.048448
0.662511 0.406767 0.049205
0.691466 0.407591 0.049962
0.720293 0.408414 0.050719
0.748972 0.409237 0.051477
0.777483 0.410060 0.052235
0.805807 0.410884 0.052993
0.833924 0.411707 0.053751
0.861815 0.412531 0.054509
0.889460 0.413354 0.055268
0.916839 0.414178 0.056027
0.943933 0.415001 0.056787
0.034287 0.419827 0.036210
0.061328 0.420651 0.036725
0.088650 0.421474 0.037269
0.116231 0.422298 0.037844
0.144052 0.423123 0.038449
0.172092 0.423947 0.039084
0.200330 0.424771 0.039749
0.228746 0.425595 0.040445
0.257319 0.426419 0.041171
0.286035 0.427243 0.041922
0.314892 0.428068 0.042677
0.343873 0.428892 0.043432
0.372958 0.429716 0.044187
0.402129 0.430541 0.044943
0.431365 0.431365 0.045698
0.460647 0.432189 0.046454
0.489955 0.433014 0.047210
0.519270 0.433838 0.047967
0.548572 0.434663 0.048723
0.577842 0.435488 0.049480
0.607059 0.436312 0.050238
0.636205 0.437137 0.050995
0.665260 0.437962 0.051753
0.694204 0.438786 0.052511
0.723018 0.439611 0.053269
0.751681 0.440436 0.054027
0.780176 0.441261 0.054786
0.808481 0.442086 0.055545
0.836577 0.442910 0.056304
0.864446 0.443735 0.057063
0.892066 0.444560 0.057823
0.919420 0.445385 0.058582
0.946486 0.446210 0.059343
0.037042 0.451043 0.038463
0.064086 0.451869 0.039014
0.091409 0.452694 0.039595
0.118988 0.453519 0.040206
0.146805 0.454344 0.040847
0.174837 0.455170 0.041519
0.203066 0.455995 0.042221
0.231470 0.456820 0.042953
0.260037 0.457646 0.043707
0.288764 0.458471 0.044462
0.317634 0.459297 0.045218
0.346625 0.460122 0.045973
0.375720 0.460947 0.046729
0.404897 0.461773 0.047486
0.434139 0.462598 0.048242
0.463424 0.463424 0.048999
0.492734 0.464249 0.049756
0.522048 0.465075 0.050513
0.551348 0.465901 0.051271
0.580613 0.466726 0.052029
0.609825 0.467552 0.052786
0.638963 0.468377 0.053545
0.668008 0.469203 0.054303
0.696941 0.470029 0.055062
0.725741 0.470854 0.055821
0.754390 0.471680 0.056580
0.782867 0.472506 0.057340
0.811153 0.473331 0.058099
0.839229 0.474157 0.058859
0.867075 0.474983 0.059619
0.894671 0.475809 0.060380
0.921998 0.476634 0.061140
0.949036 0.477460 0.061901
0.039767 0.482298 0.040761
0.066814 0.483123 0.041348
0.094136 0.483949 0.041965
0.121713 0.484775 0.042613
0.149524 0.485601 0.043291
0.177549 0.486427 0.043999
0.205767 0.487253 0.044737
0.234171 0.488079 0.045493
0.262753 0.488905 0.046249
0.291495 0.489731 0.047005
0.320376 0.490556 0.047761
0.349379 0.491382 0.048518
0.378482 0.492208 0.049275
0.407666 0.493034 0.050032
0.436913 0.493860 0.050789
0.466201 0.494686 0.051547
0.495512 0.495512 0.052304
0.524826 0.496338 0.053063
0.554123 0.497164 0.053821
0.583385 0.497990 0.054579
0.612590 0.498816 0.055338
0.641720 0.499642 0.056097
0.670756 0.500468 0.056857
0.699676 0.501294 0.057616
0.728463 0.502120 0.058376
0.757096 0.502946 0.059136
0.785556 0.503772 0.059896
0.813823 0.504597 0.060657
0.841878 0.505423 0.061417
0.869701 0.506249 0.062178
0.897273 0.507075 0.062939
0.924573 0.507901 0.063701
0.951583 0.508727 0.064463
0.042461 0.513565 0.043104
0.069510 0.514391 0.043727
0.096831 0.515217 0.044381
0.124405 0.516043 0.045065
0.152210 0.516869 0.045779
0.180227 0.517694 0.046524
0.208451 0.518520 0.047280
0.236872 0.519346 0.048037
0.265470 0.520172 0.048793
0.294226 0.520998 0.049550
0.323120 0.521824 0.050307
0.352133 0.522649 0.051065
0.381245 0.523475 0.051822
0.410436 0.524301 0.052580
0.439687 0.525127 0.053339
0.468979 0.525952 0.054097
0.498291 0.526778 0.054856
0.527604 0.527604 0.055615
0.556899 0.528430 0.056374
0.586155 0.529255 0.057133
0.615355 0.530081 0.057893
0.644477 0.530907 0.058652
0.673502 0.531732 0.059413
0.702411 0.532558 0.060173
0.731184 0.533383 0.060934
0.759801 0.534209 0.061694
0.788244 0.535035 0.062455
0.816492 0.535860 0.063217
0.844526 0.536686 0.063978
0.872326 0.537511 0.064740
0.899872 0.538337 0.065502
0.927146 0.539162 0.066264
0.954127 0.539988 0.067027
0.045124 0.544822 0.045492
0.072174 0.545648 0.046152
0.099494 0.546473 0.046842
0.127064 0.547298 0.047563
0.154865 0.548123 0.048312
0.182893 0.548948 0.049069
0.211137 0.549774 0.049826
0.239575 0.550599 0.050583
0.268189 0.551424 0.051341
0.296959 0.552249 0.052098
0.325865 0.553074 0.052856
0.354888 0.553899 0.053615
0.384009 0.554724 0.054373
0.413206 0.555549 0.055132
0.442462 0.556374 0.055891
0.471756 0.557199 0.056650
0.501069 0.558024 0.057410
0.530381 0.558849 0.058169
0.559673 0.559673 0.058929
0.588926 0.560498 0.059689
0.618118 0.561323 0.060450
0.647232 0.562148 0.061210
0.676247 0.562972 0.061971
0.705144 0.563797 0.062733
0.733903 0.564622 0.063494
0.762505 0.565446 0.064256
0.790930 0.566271 0.065017
0.819158 0.567095 0.065779
0.847171 0.567920 0.066542
0.874948 0.568744 0.067304
0.902469 0.569569 0.068067
0.929716 0.570393 0.068830
0.956668 0.571217 0.069593
0.047756 0.576045 0.047925
0.074807 0.576869 0.048621
0.102125 0.577694 0.049348
0.129694 0.578518 0.050101
0.157511 0.579341 0.050859
0.185561 0.580165 0.051616
0.213824 0.580989 0.052374
0.242280 0.581813 0.053132
0.270910 0.582637 0.053891
0.299693 0.583461 0.054649
0.328612 0.584284 0.055408
0.357645 0.585108 0.056167
0.386773 0.585931 0.056927
0.415977 0.586755 0.057686
0.445237 0.587579 0.058446
0.474534 0.588402 0.059206
0.503848 0.589225 0.059966
0.533159 0.590049 0.060727
0.562448 0.590872 0.061487
0.591695 0.591695 0.062248
0.620881 0.592519 0.063010
0.649987 0.593342 0.063771
0.678991 0.594165 0.064533
0.707876 0.594988 0.065295
0.736621 0.595811 0.066057
0.765207 0.596634 0.066819
0.793614 0.597457 0.067582
0.821823 0.598280 0.068345
0.849814 0.599103 0.069108
0.877567 0.599925 0.069871
0.905064 0.600748 0.070635
0.932283 0.601571 0.071399
0.959207 0.602393 0.072163
0.050357 0.607211 0.050403
0.077408 0.608033 0.051136
0.104729 0.608855 0.051892
0.132320 0.609677 0.052650
0.160160 0.610499 0.053408
0.188231 0.611321 0.054167
0.216513 0.612143 0.054926
0.244987 0.612965 0.055684
0.273632 0.613787 0.056444
0.302429 0.614609 0.057203
0.331359 0.615430 0.057963
0.360402 0.616252 0.058723
0.389538 0.617074 0.059483
0.418748 0.617895 0.060243
0.448013 0.618716 0.061004
0.477312 0.619538 0.061764
0.506626 0.620359 0.062526
0.535936 0.621180 0.063287
0.565222 0.622002 0.064048
0.594465 0.622823 0.064810
0.623644 0.623644 0.065572
0.652740 0.624465 0.066335
0.681735 0.625286 0.067097
0.710607 0.626107 0.067860
0.739338 0.626927 0.068623
0.767907 0.627748 0.069386
0.796297 0.628569 0.070149
0.824486 0.629389 0.070913
0.852455 0.630210 0.071677
0.880185 0.631030 0.072441
0.907656 0.631851 0.073205
0.934848 0.632671 0.073970
0.961742 0.633491 0.074735
0.052926 0.638294 0.052926
0.079986 0.639114 0.053685
0.107333 0.639934 0.054443
0.134948 0.640754 0.055202
0.162811 0.641573 0.055961
0.190903 0.642392 0.056720
0.219204 0.643212 0.057480
0.247694 0.644031 0.058239
0.276355 0.644850 0.058999
0.305165 0.645670 0.059759
0.334107 0.646489 0.060520
0.363159 0.647308 0.061281
0.392304 0.648126 0.062042
0.421520 0.648945 0.062803
0.450788 0.649764 0.063564
0.480090 0.650583 0.064326
0.509405 0.651401 0.065088
0.538713 0.652220 0.065850
0.567996 0.653038 0.066612
0.597233 0.653857 0.067375
0.626405 0.654675 0.068137
0.655493 0.655493 0.068901
0.684477 0.656311 0.069664
0.713336 0.657129 0.070427
0.742053 0.657947 0.071191
0.770606 0.658765 0.071955
0.798977 0.659583 0.072719
0.827146 0.660400 0.073484
0.855094 0.661218 0.074248
0.882800 0.662036 0.075013
0.910245 0.662853 0.075779
0.937410 0.663670 0.076544
0.964275 0.664488 0.077310
0.055478 0.669273 0.055478
0.082566 0.670090 0.056237
0.109939 0.670906 0.056997
0.137579 0.671723 0.057756
0.165464 0.672539 0.058516
0.193577 0.673355 0.059276
0.221897 0.674171 0.060036
0.250404 0.674988 0.060797
0.279079 0.675804 0.061558
0.307903 0.676619 0.062319
0.336856 0.677435 0.063080
0.365918 0.678251 0.063841
0.395070 0.679067 0.064603
0.424292 0.679882 0.065365
0.453564 0.680698 0.066127
0.482868 0.681513 0.066890
0.512183 0.682328 0.067652
0.541490 0.683143 0.068415
0.570769 0.683958 0.069178
0.600001 0.684773 0.069942
0.629166 0.685588 0.070705
0.658245 0.686403 0.071469
0.687217 0.687217 0.072233
0.716064 0.688032 0.072998
0.744766 0.688846 0.073762
0.773303 0.689661 0.074527
0.801656 0.690475 0.075292
0.829805 0.691289 0.076057
0.857730 0.692103 0.076823
0.885413 0.692917 0.077588
0.912832 0.693731 0.078354
0.939970 0.694545 0.079120
0.966805 0.695358 0.079887
0.058033 0.700122 0.058033
0.085148 0.700935 0.058793
0.112548 0.701748 0.059553
0.140211 0.702561 0.060313
0.168119 0.703373 0.061074
0.196252 0.704186 0.061835
0.224591 0.704998 0.062596
0.253115 0.705810 0.063357
0.281805 0.706623 0.064119
0.310642 0.707435 0.064880
0.339606 0.708247 0.065643
0.368677 0.709058 0.066405
0.397837 0.709870 0.067167
0.427064 0.710682 0.067930
0.456341 0.711493 0.068693
0.485646 0.712304 0.069456
0.514961 0.713116 0.070220
0.544267 0.713927 0.070983
0.573542 0.714738 0.071747
0.602769 0.715549 0.072512
0.631926 0.716360 0.073276
0.660996 0.717170 0.074041
0.689957 0.717981 0.074805
0.718791 0.718791 0.075571
0.747478 0.719602 0.076336
0.775999 0.720412 0.077101
0.804333 0.721222 0.077867
0.832462 0.722032 0.078633
0.860365 0.722842 0.079399
0.888023 0.723652 0.080166
0.915417 0.724461 0.080933
0.942526 0.725271 0.081699
0.969332 0.726080 0.082467
0.060590 0.730819 0.060590
0.087734 0.731627 0.061351
0.115159 0.732436 0.062112
0.142846 0.733244 0.062873
0.170777 0.734052 0.063634
0.198930 0.734860 0.064396
0.227287 0.735668 0.065158
0.255827 0.736476 0.065920
0.284532 0.737284 0.066682
0.313382 0.738091 0.067445
0.342357 0.738899 0.068208
0.371438 0.739706 0.068971
0.400604 0.740513 0.069734
0.429837 0.741320 0.070498
0.459117 0.742127 0.071262
0.488425 0.742934 0.072026
0.517740 0.743741 0.072790
0.547043 0.744547 0.073554
0.576315 0.745353 0.074319
0.605535 0.746160 0.075084
0.634686 0.746966 0.075849
0.663746 0.747772 0.076615
0.692696 0.748578 0.077380
0.721517 0.749383 0.078146
0.750189 0.750189 0.078912
0.778693 0.750994 0.079678
0.807008 0.751800 0.080445
0.835116 0.752605 0.081212
0.862997 0.753410 0.081979
0.890631 0.754215 0.082746
0.917999 0.755020 0.083513
0.945080 0.755824 0.084281
0.971857 0.756629 0.085049
0.063150 0.761339 0.063150
0.090321 0.762142 0.063912
0.117772 0.762946 0.064673
0.145483 0.763749 0.065435
0.173436 0.764552 0.066198
0.201609 0.765355 0.066960
0.229984 0.766158 0.067723
0.258541 0.766961 0.068486
0.287261 0.767763 0.069249
0.316123 0.768566 0.070012
0.345109 0.769368 0.070776
0.374199 0.770170 0.071540
0.403372 0.770972 0.072304
0.432611 0.771774 0.073068
0.461894 0.772576 0.073833
0.491203 0.773377 0.074597
0.520518 0.774179 0.075362
0.549819 0.774980 0.076128
0.579087 0.775781 0.076893
0.608302 0.776582 0.077659
0.637444 0.777383 0.078425
0.666495 0.778184 0.079191
0.695433 0.778984 0.079957
0.724241 0.779784 0.080724
0.752898 0.780585 0.081491
0.781385 0.781385 0.082258
0.809681 0.782185 0.083025
0.837769 0.782984 0.083793
0.865627 0.783784 0.084561
0.893237 0.784584 0.085329
0.920578 0.785383 0.086097
0.947632 0.786182 0.086865
0.974378 0.786981 0.087634
0.065713 0.791658 0.065713
0.092911 0.792456 0.066475
0.120388 0.793254 0.067238
0.148123 0.794052 0.068000
0.176097 0.794849 0.068763
0.204290 0.795646 0.069527
0.232683 0.796444 0.070290
0.261257 0.797241 0.071054
0.289990 0.798037 0.071818
0.318866 0.798834 0.072582
0.347862 0.799631 0.073346
0.376960 0.800427 0.074111
0.406141 0.801223 0.074876
0.435385 0.802019 0.075641
0.464671 0.802815 0.076406
0.493982 0.803611 0.077172
0.523296 0.804406 0.077938
0.552595 0.805202 0.078704
0.581858 0.805997 0.079470
0.611067 0.806792 0.080237
0.640202 0.807587 0.081003
0.669242 0.808382 0.081770
0.698170 0.809176 0.082537
0.726964 0.809971 0.083305
0.755606 0.810765 0.084072
0.784075 0.811559 0.084840
0.812353 0.812353 0.085608
0.840419 0.813147 0.086377
0.868255 0.813940 0.087145
