StreetStamps/cinematic_natural_v3.cube
TITLE "Cinematic Natural v3"
LUT_3D_SIZE 5
0.000000 0.000000 0.009301
0.215754 0.005928 0.010250
0.449983 0.011872 0.013098
0.684740 0.017834 0.017852
0.910508 0.023813 0.023813
0.017122 0.234637 0.023624
0.240329 0.241065 0.026851
0.473286 0.247502 0.031996
0.706649 0.253947 0.038014
0.931130 0.260401 0.044048
0.039767 0.482298 0.040761
0.262753 0.488905 0.046249
0.495512 0.495512 0.052304
0.728463 0.502120 0.058376
0.951583 0.508727 0.064463
0.060590 0.730819 0.060590
0.284532 0.737284 0.066682
0.517740 0.743741 0.072790
0.750189 0.750189 0.078912
0.971857 0.756629 0.085049
0.081145 0.968038 0.081145
0.306395 0.974040 0.087287
0.539961 0.980025 0.093443
0.771818 0.985993 0.099614
0.991944 0.991944 0.105799
0.000000 0.002011 0.220140
0.220497 0.007945 0.223096
0.453282 0.013895 0.228098
0.686969 0.019863 0.234480
0.912597 0.025848 0.240908
0.021277 0.236819 0.237843
0.243250 0.243250 0.243250
0.475530 0.249690 0.249690
0.708855 0.256138 0.256138
0.933203 0.262595 0.262595
0.042258 0.484541 0.258488
0.264947 0.491149 0.264947
0.497756 0.497756 0.271415
0.730661 0.504364 0.277891
0.953638 0.510971 0.284374
0.062657 0.733015 0.280250
0.286736 0.739477 0.286736
0.519983 0.745931 0.293229
0.752377 0.752377 0.299729
0.973893 0.758814 0.306236
0.083229 0.970078 0.302097
0.308606 0.976074 0.308606
0.542203 0.982053 0.315122
0.773996 0.988016 0.321644
0.994661 0.993961 0.327691
0.002858 0.004024 0.443975
0.223780 0.009963 0.449014
0.455555 0.015920 0.455555
0.689182 0.021894 0.462158
0.914685 0.027884 0.468762
0.024070 0.239002 0.464565
0.245436 0.245436 0.471167
0.477773 0.251879 0.477773
0.711060 0.258330 0.484380
0.935274 0.264789 0.490987
0.044309 0.486785 0.486785
0.267143 0.493392 0.493392
0.500000 0.500000 0.500000
0.732857 0.506608 0.506608
0.955691 0.513215 0.513215
0.064726 0.735211 0.509013
0.288940 0.741670 0.515620
0.522227 0.748121 0.522227
0.754564 0.754564 0.528833
0.976054 0.760998 0.535351
0.085315 0.972116 0.531238
0.310818 0.978106 0.537842
0.544445 0.984080 0.544445
0.776793 0.990037 0.550648
0.998920 0.995976 0.555598
0.005973 0.006039 0.671918
0.226004 0.011984 0.678356
0.457797 0.017947 0.684878
0.691394 0.023926 0.691394
0.916771 0.029922 0.697903
0.026107 0.241186 0.693764
0.247623 0.247623 0.700271
0.480017 0.254069 0.706771
0.713264 0.260523 0.713264
0.937343 0.266985 0.719750
0.046362 0.489029 0.715626
0.269339 0.495636 0.722109
0.502244 0.502244 0.728585
0.735053 0.508851 0.735053
0.957742 0.515459 0.741512
0.066797 0.737405 0.737405
0.291145 0.743862 0.743862
0.524470 0.750310 0.750310
0.756750 0.756750 0.756750
0.980351 0.763181 0.761574
0.087403 0.974152 0.759092
0.313031 0.980137 0.765520
0.547187 0.986105 0.771635
0.781393 0.992055 0.776444
1.000000 0.997989 0.781247
0.008056 0.008056 0.894201
0.228182 0.014007 0.900386
0.460039 0.019975 0.906557
0.693605 0.025960 0.912713
0.918855 0.031962 0.918855
0.028143 0.243371 0.914951
0.249811 0.249811 0.921088
0.482260 0.256259 0.927210
0.715468 0.262716 0.933318
0.939410 0.269181 0.939410
0.048417 0.491273 0.935537
0.271537 0.497880 0.941624
0.504488 0.504488 0.947696
0.737247 0.511095 0.953751
0.961619 0.517702 0.958648
0.068870 0.739599 0.955952
0.293351 0.746053 0.961986
0.526714 0.752498 0.968004
0.761371 0.758935 0.972586
0.984640 0.765363 0.977080
0.089492 0.976187 0.976187
0.315600 0.982166 0.981962
0.551929 0.988128 0.986436
0.785988 0.994072 0.990900
1.000000 1.000000 0.995355
