StreetStamps/cinematic_natural_v3.cube
TITLE "Cinematic Natural v3"
LUT_3D_SIZE 9
0.000000 0.000000 0.009301
0.102113 0.002962 0.009539
0.215754 0.005928 0.010250
0.332155 0.008898 0.011437
0.449983 0.011872 0.013098
0.567937 0.014851 0.015236
0.684740 0.017834 0.017852
0.799250 0.020822 0.020822
0.910508 0.023813 0.023813
0.005086 0.114930 0.016114
0.114734 0.118038 0.016918
0.228314 0.121148 0.018198
0.344483 0.124262 0.019955
0.461929 0.127379 0.022190
0.579367 0.130500 0.024905
0.695711 0.133623 0.027901
0.809953 0.136750 0.030902
0.920840 0.139880 0.033908
0.017122 0.234637 0.023624
0.126849 0.237850 0.024998
0.240329 0.241065 0.026851
0.356239 0.244282 0.029184
0.473286 0.247502 0.031996
0.590451 0.250723 0.035003
0.706649 0.253947 0.038014
0.820626 0.257173 0.041029
0.931130 0.260401 0.044048
0.028685 0.357600 0.031837
0.138448 0.360878 0.033787
0.251795 0.364157 0.036218
0.367438 0.367438 0.039111
0.484398 0.370719 0.042127
0.601526 0.374002 0.045148
0.717567 0.377286 0.048172
0.831268 0.380571 0.051201
0.941378 0.383857 0.054233
0.039767 0.482298 0.040761
0.149524 0.485601 0.043291
0.262753 0.488905 0.046249
0.378482 0.492208 0.049275
0.495512 0.495512 0.052304
0.612590 0.498816 0.055338
0.728463 0.502120 0.058376
0.841878 0.505423 0.061417
0.951583 0.508727 0.064463
0.050357 0.607211 0.050403
0.160160 0.610499 0.053408
0.273632 0.613787 0.056444
0.389538 0.617074 0.059483
0.506626 0.620359 0.062526
0.623644 0.623644 0.065572
0.739338 0.626927 0.068623
0.852455 0.630210 0.071677
0.961742 0.633491 0.074735
0.060590 0.730819 0.060590
0.170777 0.734052 0.063634
0.284532 0.737284 0.066682
0.400604 0.740513 0.069734
0.517740 0.743741 0.072790
0.634686 0.746966 0.075849
0.750189 0.750189 0.078912
0.862997 0.753410 0.081979
0.971857 0.756629 0.085049
0.070846 0.851601 0.070846
0.181425 0.854740 0.073903
0.295454 0.857875 0.076964
0.411680 0.861007 0.080028
0.528852 0.864136 0.083096
0.645714 0.867262 0.086168
0.761016 0.870384 0.089243
0.873504 0.873504 0.092322
0.981924 0.876620 0.095404
0.081145 0.968038 0.081145
0.192104 0.971041 0.084214
0.306395 0.974040 0.087287
0.422765 0.977034 0.090363
0.539961 0.980025 0.093443
0.656729 0.983011 0.096527
0.771818 0.985993 0.099614
0.883974 0.988970 0.102705
0.991944 0.991944 0.105799
0.000000 0.001005 0.112558
0.104956 0.003968 0.113275
0.218308 0.006936 0.114486
0.334369 0.009908 0.116193
0.451822 0.012884 0.118397
0.569375 0.015864 0.121098
0.685862 0.018848 0.124186
0.800331 0.021837 0.127303
0.911553 0.024830 0.130423
0.007747 0.115985 0.120225
0.117144 0.119094 0.121533
0.230414 0.122205 0.123338
0.346231 0.125320 0.125641
0.463294 0.128439 0.128443
0.580488 0.131560 0.131560
0.696817 0.134685 0.134685
0.811032 0.137812 0.137812
0.921881 0.140943 0.140943
0.019369 0.235728 0.128614
0.128820 0.238942 0.130518
0.241973 0.242157 0.132921
0.357519 0.245375 0.135823
0.474408 0.248596 0.138952
0.591570 0.251818 0.142084
0.707752 0.255043 0.145219
0.821702 0.258269 0.148357
0.932167 0.261498 0.151499
0.030514 0.358713 0.137732
0.139977 0.361991 0.140235
0.252992 0.365271 0.143225
0.368552 0.368552 0.146361
0.485520 0.371834 0.149501
0.602643 0.375117 0.152643
0.718668 0.378402 0.155788
0.832341 0.381687 0.158936
0.942410 0.384973 0.162088
0.041171 0.483419 0.147585
0.150644 0.486723 0.150644
0.263850 0.490027 0.153788
0.379598 0.493330 0.156934
0.496634 0.496634 0.160083
0.613706 0.499938 0.163236
0.729562 0.503242 0.166391
0.842948 0.506545 0.169549
0.952610 0.509849 0.172710
0.051406 0.608328 0.158080
0.161231 0.611616 0.161231
0.274731 0.614903 0.164384
0.390655 0.618189 0.167540
0.507748 0.621475 0.170699
0.624759 0.624759 0.173861
0.740434 0.628042 0.177026
0.853521 0.631324 0.180193
0.962766 0.634605 0.183364
0.061623 0.731917 0.168690
0.171850 0.735150 0.171850
0.285634 0.738381 0.175013
0.401722 0.741609 0.178179
0.518862 0.744836 0.181347
0.635800 0.748061 0.184518
0.751283 0.751283 0.187692
0.864059 0.754503 0.190869
0.972875 0.757722 0.194048
0.071884 0.852667 0.179332
0.182501 0.855805 0.182501
0.296557 0.858939 0.185674
0.412799 0.862070 0.188849
0.529973 0.865198 0.192026
0.646827 0.868322 0.195206
0.762108 0.871444 0.198389
0.874562 0.874562 0.201575
0.982938 0.877677 0.204763
0.082187 0.969058 0.190005
0.193184 0.972060 0.193184
0.307501 0.975057 0.196365
0.423884 0.978050 0.199549
0.541082 0.981039 0.202735
0.657840 0.984024 0.205924
0.772907 0.987004 0.209116
0.885029 0.989981 0.212310
0.992952 0.992952 0.215506
0.000000 0.002011 0.220140
0.107448 0.004976 0.221363
0.220497 0.007945 0.223096
0.336210 0.010918 0.225341
0.453282 0.013895 0.228098
0.570517 0.016877 0.231270
0.686969 0.019863 0.234480
0.801413 0.022853 0.237693
0.912597 0.025848 0.240908
0.010072 0.117041 0.228621
0.119200 0.120150 0.230454
0.232149 0.123263 0.232800
0.347605 0.126379 0.235659
0.464419 0.129498 0.238863
0.581607 0.132621 0.242079
0.697921 0.135747 0.245297
0.812110 0.138875 0.248517
0.922921 0.142007 0.251739
0.021277 0.236819 0.237843
0.130436 0.240033 0.240290
0.243250 0.243250 0.243250
0.358633 0.246469 0.246469
0.475530 0.249690 0.249690
0.592688 0.252913 0.252913
0.708855 0.256138 0.256138
0.822778 0.259365 0.259365
0.933203 0.262595 0.262595
0.032000 0.359826 0.247810
0.141156 0.363105 0.250863
0.254087 0.366385 0.254087
0.369667 0.369667 0.257313
0.486642 0.372949 0.260541
0.603760 0.376233 0.263771
0.719768 0.379517 0.267003
0.833413 0.382803 0.270237
0.943442 0.386089 0.273473
0.042258 0.484541 0.258488
0.151711 0.487845 0.261717
0.264947 0.491149 0.264947
0.380713 0.494452 0.268180
0.497756 0.497756 0.271415
0.614823 0.501060 0.274652
0.730661 0.504364 0.277891
0.844016 0.507667 0.281131
0.953638 0.510971 0.284374
0.052436 0.609444 0.269358
0.162301 0.612732 0.272593
0.275831 0.616019 0.275831
0.391771 0.619305 0.279070
0.508870 0.622590 0.282311
0.625874 0.625874 0.285555
0.741530 0.629157 0.288800
0.854586 0.632439 0.292046
0.963788 0.635719 0.295295
0.062657 0.733015 0.280250
0.172924 0.736247 0.283492
0.286736 0.739477 0.286736
0.402840 0.742705 0.289981
0.519983 0.745931 0.293229
0.636913 0.749155 0.296478
0.752377 0.752377 0.299729
0.865121 0.755597 0.302981
0.973893 0.758814 0.306236
0.072922 0.853733 0.291163
0.183578 0.856869 0.294411
0.297661 0.860002 0.297661
0.413918 0.863132 0.300913
0.531095 0.866259 0.304166
0.647940 0.869383 0.307421
0.763199 0.872503 0.310678
0.875621 0.875621 0.313936
0.983951 0.878735 0.317195
0.083229 0.970078 0.302097
0.194264 0.973078 0.305351
0.308606 0.976074 0.308606
0.425004 0.979066 0.311864
0.542203 0.982053 0.315122
0.658951 0.985037 0.318383
0.773996 0.988016 0.321644
0.886083 0.990990 0.324908
0.994661 0.993961 0.327691
0.000794 0.003017 0.330978
0.109587 0.005983 0.332719
0.222321 0.008954 0.334981
0.337678 0.011928 0.337765
0.454433 0.014907 0.340987
0.571637 0.017891 0.344259
0.688075 0.020878 0.347532
0.802494 0.023870 0.350806
0.913641 0.026865 0.354082
0.012058 0.118096 0.340217
0.120901 0.121207 0.342580
0.233516 0.124321 0.345466
0.348724 0.127438 0.348724
0.465541 0.130558 0.351999
0.582726 0.133682 0.355275
0.699026 0.136809 0.358552
0.813189 0.139939 0.361831
0.923961 0.143072 0.365111
0.022844 0.237910 0.350205
0.131695 0.241126 0.353192
0.244343 0.244343 0.356468
0.359746 0.247562 0.359746
0.476651 0.250784 0.363025
0.593806 0.254008 0.366305
0.709958 0.257234 0.369586
0.823853 0.260462 0.372869
0.934238 0.263692 0.376152
0.033147 0.360939 0.360939
0.142220 0.364219 0.364219
0.255182 0.367500 0.367500
0.370781 0.370781 0.370781
0.487764 0.374064 0.374064
0.604878 0.377348 0.377348
0.720869 0.380633 0.380633
0.834485 0.383919 0.383919
0.944473 0.387206 0.387206
0.043284 0.485663 0.371976
0.152779 0.488967 0.375259
0.266045 0.492270 0.378544
0.381829 0.495574 0.381829
0.498878 0.498878 0.385115
0.615939 0.502182 0.388403
0.731759 0.505486 0.391691
0.845085 0.508789 0.394980
0.954664 0.512093 0.398270
0.053466 0.610561 0.383025
0.163372 0.613849 0.386312
0.276931 0.617135 0.389600
0.392888 0.620421 0.392888
0.509992 0.623706 0.396178
0.626989 0.626989 0.399468
0.742627 0.630272 0.402759
0.855651 0.633553 0.406051
0.964810 0.636833 0.409344
0.063692 0.734113 0.394086
0.173998 0.737344 0.397376
0.287838 0.740574 0.400666
0.403958 0.743801 0.403958
0.521105 0.747026 0.407250
0.638027 0.750250 0.410543
0.753471 0.753471 0.413837
0.866183 0.756689 0.417132
0.974911 0.759906 0.420427
0.073961 0.854799 0.405156
0.184656 0.857934 0.408449
0.298765 0.861066 0.411742
0.415036 0.864195 0.415036
0.532216 0.867320 0.418331
0.649052 0.870443 0.421627
0.764290 0.873562 0.424923
0.876678 0.876678 0.428220
0.985378 0.879791 0.431231
0.084272 0.971097 0.416236
0.195344 0.974096 0.419531
0.309712 0.977090 0.422827
0.426123 0.980081 0.426123
0.543324 0.983067 0.429420
0.660062 0.986049 0.432718
0.775084 0.989026 0.436016
0.887804 0.992000 0.438873
0.996791 0.994969 0.441347
0.002858 0.004024 0.443975
0.111373 0.006992 0.446232
0.223780 0.009963 0.449014
0.338827 0.012940 0.452253
0.455555 0.015920 0.455555
0.572757 0.018905 0.458856
0.689182 0.021894 0.462158
0.803575 0.024887 0.465460
0.914685 0.027884 0.468762
0.013706 0.119152 0.453896
0.122247 0.122264 0.456779
0.234619 0.125379 0.460058
0.349836 0.128497 0.463360
0.466662 0.131619 0.466662
0.583845 0.134744 0.469965
0.700130 0.137871 0.473267
0.814267 0.141002 0.476570
0.925000 0.144136 0.479874
0.024070 0.239002 0.464565
0.132756 0.242218 0.467864
0.245436 0.245436 0.471167
0.360859 0.248656 0.474470
0.477773 0.251879 0.477773
0.594924 0.255103 0.481076
0.711060 0.258330 0.484380
0.824927 0.261559 0.487683
0.935274 0.264789 0.490987
0.034168 0.362053 0.475672
0.143284 0.365333 0.478976
0.256278 0.368614 0.482279
0.371896 0.371896 0.485582
0.488886 0.375179 0.488886
0.605995 0.378463 0.492190
0.721969 0.381749 0.495493
0.835557 0.385035 0.498797
0.945504 0.388322 0.502101
0.044309 0.486785 0.486785
0.153847 0.490089 0.490089
0.267143 0.493392 0.493392
0.382945 0.496696 0.496696
0.500000 0.500000 0.500000
0.617055 0.503304 0.503304
0.732857 0.506608 0.506608
0.846153 0.509911 0.509911
0.955691 0.513215 0.513215
0.054496 0.611678 0.497899
0.164443 0.614965 0.501203
0.278031 0.618251 0.504507
0.394005 0.621537 0.507810
0.511114 0.624821 0.511114
0.628104 0.628104 0.514418
0.743722 0.631386 0.517721
0.856716 0.634667 0.521024
0.965832 0.637947 0.524328
0.064726 0.735211 0.509013
0.175073 0.738441 0.512317
0.288940 0.741670 0.515620
0.405076 0.744897 0.518924
0.522227 0.748121 0.522227
0.639141 0.751344 0.525530
0.754564 0.754564 0.528833
0.867244 0.757782 0.532136
0.976054 0.760998 0.535351
0.075000 0.855864 0.520126
0.185733 0.858998 0.523430
0.299870 0.862129 0.526733
0.416155 0.865256 0.530035
0.533338 0.868381 0.533338
0.650164 0.871503 0.536640
0.765381 0.874621 0.539942
0.878103 0.877736 0.543000
0.987518 0.880848 0.545476
0.085315 0.972116 0.531238
0.196425 0.975113 0.534540
0.310818 0.978106 0.537842
0.427243 0.981095 0.541144
0.544445 0.984080 0.544445
0.661173 0.987060 0.547747
0.776793 0.990037 0.550648
0.890032 0.993008 0.553123
0.998920 0.995976 0.555598
0.004585 0.005031 0.558007
0.112806 0.008000 0.560761
0.224916 0.010974 0.563984
0.339938 0.013951 0.567282
0.456676 0.016933 0.570580
0.573877 0.019919 0.573877
0.690288 0.022910 0.577173
0.804656 0.025904 0.580469
0.915728 0.028903 0.583764
0.015013 0.120209 0.568514
0.123322 0.123322 0.571780
0.235710 0.126438 0.575077
0.350948 0.129557 0.578373
0.467784 0.132680 0.581669
0.584964 0.135805 0.584964
0.701235 0.138934 0.588258
0.815344 0.142066 0.591551
0.926039 0.145201 0.594844
0.025089 0.240094 0.579573
0.133817 0.243311 0.582868
0.246529 0.246529 0.586163
0.361973 0.249750 0.589457
0.478895 0.252974 0.592750
0.596042 0.256199 0.596042
0.712162 0.259426 0.599334
0.826002 0.262656 0.602624
0.936308 0.265887 0.605914
0.035190 0.363167 0.590656
0.144349 0.366447 0.593949
0.257373 0.369728 0.597241
0.373011 0.373011 0.600532
0.490008 0.376294 0.603822
0.607112 0.379579 0.607112
0.723069 0.382865 0.610400
0.836628 0.386151 0.613688
0.946534 0.389439 0.616975
0.045336 0.487907 0.601730
0.154915 0.491211 0.605020
0.268241 0.494514 0.608309
0.384061 0.497818 0.611597
0.501122 0.501122 0.614885
0.618171 0.504426 0.618171
0.733955 0.507730 0.621456
0.847221 0.511033 0.624741
0.956716 0.514337 0.628024
0.055527 0.612794 0.612794
0.165515 0.616081 0.616081
0.279131 0.619367 0.619367
0.395122 0.622652 0.622652
0.512236 0.625936 0.625936
0.629219 0.629219 0.629219
0.744818 0.632500 0.632500
0.857780 0.635781 0.635781
0.966853 0.639061 0.639061
0.065762 0.736308 0.623848
0.176147 0.739538 0.627131
0.290042 0.742766 0.630414
0.406194 0.745992 0.633695
0.523349 0.749216 0.636975
0.640254 0.752438 0.640254
0.755657 0.755657 0.643532
0.868371 0.758874 0.646765
0.978204 0.762090 0.649222
0.076039 0.856928 0.634889
0.186811 0.860061 0.638169
0.300974 0.863191 0.641448
0.417274 0.866318 0.644725
0.534459 0.869442 0.648001
0.651276 0.872562 0.651276
0.766782 0.875679 0.654352
0.880339 0.878793 0.656806
0.989656 0.881904 0.659260
0.086359 0.973135 0.645918
0.197506 0.976130 0.649194
0.311925 0.979122 0.652468
0.428363 0.982109 0.655741
0.545567 0.985093 0.659013
0.662847 0.988072 0.661931
0.779093 0.991046 0.664383
0.892258 0.994017 0.666835
1.000000 0.996983 0.669285
0.005973 0.006039 0.671918
0.113917 0.009010 0.675092
0.226004 0.011984 0.678356
0.341049 0.014963 0.681617
0.457797 0.017947 0.684878
0.574996 0.020934 0.688136
0.691394 0.023926 0.691394
0.805736 0.026922 0.694649
0.916771 0.029922 0.697903
0.016049 0.121265 0.682805
0.124379 0.124379 0.686064
0.236801 0.127497 0.689322
0.352060 0.130617 0.692579
0.468905 0.133741 0.695834
0.586082 0.136868 0.699087
0.702339 0.139998 0.702339
0.816422 0.143131 0.705589
0.927078 0.146267 0.708837
0.026107 0.241186 0.693764
0.134879 0.244403 0.697019
0.247623 0.247623 0.700271
0.363087 0.250845 0.703522
0.480017 0.254069 0.706771
0.597160 0.257295 0.710019
0.713264 0.260523 0.713264
0.827076 0.263753 0.716508
0.937343 0.266985 0.719750
0.036212 0.364281 0.704705
0.145414 0.367561 0.707954
0.258470 0.370843 0.711200
0.374126 0.374126 0.714445
0.491130 0.377410 0.717689
0.608229 0.380695 0.720930
0.724169 0.383981 0.724169
0.837699 0.387268 0.727407
0.947564 0.390556 0.730642
0.046362 0.489029 0.715626
0.155984 0.492333 0.718869
0.269339 0.495636 0.722109
0.385177 0.498940 0.725348
0.502244 0.502244 0.728585
0.619287 0.505548 0.731820
0.735053 0.508851 0.735053
0.848289 0.512155 0.738283
0.957742 0.515459 0.741512
0.056558 0.613911 0.726527
0.166587 0.617197 0.729763
0.280232 0.620483 0.732997
0.396240 0.623767 0.736229
0.513358 0.627051 0.739459
0.630333 0.630333 0.742687
0.745913 0.633615 0.745913
0.858844 0.636895 0.749137
0.968848 0.640174 0.751706
0.066797 0.737405 0.737405
0.177222 0.740635 0.740635
0.291145 0.743862 0.743862
0.407312 0.747087 0.747087
0.524470 0.750310 0.750310
0.641367 0.753531 0.753531
0.756750 0.756750 0.756750
0.870614 0.759967 0.759163
0.980351 0.763181 0.761574
0.077079 0.857993 0.748261
0.187890 0.861125 0.751483
0.302079 0.864253 0.754703
0.418393 0.867379 0.757921
0.535581 0.870502 0.761137
0.652636 0.873621 0.764199
0.769088 0.876737 0.766608
0.882572 0.879850 0.769015
0.991792 0.882959 0.771422
0.087403 0.974152 0.759092
0.198587 0.977147 0.762307
0.313031 0.980137 0.765520
0.429483 0.983123 0.768730
0.547187 0.986105 0.771635
0.665196 0.989082 0.774040
0.781393 0.992055 0.776444
0.894483 0.995024 0.778846
1.000000 0.997989 0.781247
0.007048 0.007048 0.784494
0.114971 0.010019 0.787690
0.227093 0.012996 0.790884
0.342160 0.015976 0.794076
0.458918 0.018961 0.797265
0.576116 0.021950 0.800451
0.692499 0.024943 0.803635
0.806816 0.027940 0.806816
0.917813 0.030942 0.809995
0.017062 0.122323 0.795237
0.125438 0.125438 0.798425
0.237892 0.128556 0.801611
0.353173 0.131678 0.804794
0.470027 0.134802 0.807974
0.587201 0.137930 0.811151
0.703443 0.141061 0.814326
0.817499 0.144195 0.817499
0.928116 0.147333 0.820668
0.027125 0.242278 0.805952
0.135941 0.245497 0.809131
0.248717 0.248717 0.812308
0.364200 0.251939 0.815482
0.481138 0.255164 0.818653
0.598278 0.258391 0.821821
0.714366 0.261619 0.824987
0.828150 0.264850 0.828150
0.938377 0.268083 0.831310
0.037234 0.365395 0.816636
0.146479 0.368676 0.819807
0.259566 0.371958 0.822974
0.375241 0.375241 0.826139
0.492252 0.378525 0.829301
0.609345 0.381811 0.832460
0.725269 0.385097 0.835616
0.838769 0.388384 0.838769
0.948594 0.391672 0.841920
0.047390 0.490151 0.827290
0.157052 0.493455 0.830451
0.270438 0.496758 0.833609
0.386294 0.500062 0.836764
0.503366 0.503366 0.839917
0.620402 0.506670 0.843066
0.736150 0.509973 0.846212
0.849356 0.513277 0.849356
0.959453 0.516581 0.852050
0.057590 0.615027 0.837912
0.167659 0.618313 0.841064
0.281332 0.621598 0.844212
0.397357 0.624883 0.847357
0.514480 0.628166 0.850499
0.631448 0.631448 0.853639
0.747008 0.634729 0.856775
0.860857 0.638009 0.859315
0.971005 0.641287 0.861663
0.067833 0.738502 0.848501
0.178298 0.741731 0.851643
0.292248 0.744957 0.854781
0.408430 0.748182 0.857916
0.525592 0.751404 0.861048
0.642481 0.754625 0.864177
0.759061 0.757843 0.866563
0.872855 0.761058 0.868906
0.982497 0.764272 0.871247
0.078119 0.859057 0.859057
0.188968 0.862188 0.862188
0.303183 0.865315 0.865315
0.419512 0.868440 0.868440
0.536882 0.871561 0.871455
0.654987 0.874680 0.873794
0.771393 0.877795 0.876132
0.884805 0.880906 0.878467
0.993926 0.884015 0.880801
0.088447 0.975170 0.869577
0.199669 0.978163 0.872697
0.314138 0.981152 0.875814
0.431032 0.984136 0.878675
0.549558 0.987116 0.881008
0.667543 0.990092 0.883340
0.783691 0.993064 0.885670
0.896705 0.996032 0.887998
1.000000 0.998995 0.890324
0.008056 0.008056 0.894201
0.116026 0.011030 0.897295
0.228182 0.014007 0.900386
0.343271 0.016989 0.903473
0.460039 0.019975 0.906557
0.577235 0.022966 0.909637
0.693605 0.025960 0.912713
0.807896 0.028959 0.915786
0.918855 0.031962 0.918855
0.018076 0.123380 0.904596
0.126496 0.126496 0.907678
0.238984 0.129616 0.910757
0.354286 0.132738 0.913832
0.471148 0.135864 0.916904
0.588320 0.138993 0.919972
0.704546 0.142125 0.923036
0.818575 0.145260 0.926097
0.929154 0.148399 0.929154
0.028143 0.243371 0.914951
0.137003 0.246590 0.918021
0.249811 0.249811 0.921088
0.365314 0.253034 0.924151
0.482260 0.256259 0.927210
0.599396 0.259487 0.930266
0.715468 0.262716 0.933318
0.829223 0.265948 0.936366
0.939410 0.269181 0.939410
0.038258 0.366509 0.925265
0.147545 0.369790 0.928323
0.260662 0.373073 0.931377
0.376356 0.376356 0.934428
0.493374 0.379641 0.937474
0.610462 0.382926 0.940517
0.726368 0.386213 0.943556
0.839840 0.389501 0.946592
0.950019 0.392789 0.949375
0.048417 0.491273 0.935537
0.158122 0.494577 0.938583
0.271537 0.497880 0.941624
0.387410 0.501184 0.944662
0.504488 0.504488 0.947696
0.621518 0.507792 0.950725
0.737247 0.511095 0.953751
0.851071 0.514399 0.956384
0.961619 0.517702 0.958648
0.058622 0.616143 0.945767
0.168732 0.619429 0.948799
0.282433 0.622714 0.951828
0.398474 0.625998 0.954852
0.515602 0.629281 0.957873
0.632562 0.632562 0.960889
0.749012 0.635843 0.963371
0.863106 0.639122 0.965628
0.973160 0.642400 0.967883
0.068870 0.739599 0.955952
0.179374 0.742827 0.958971
0.293351 0.746053 0.961986
0.409549 0.749277 0.964997
0.526714 0.752498 0.968004
0.644766 0.755718 0.970336
0.761371 0.758935 0.972586
0.875094 0.762150 0.974834
0.984640 0.765363 0.977080
0.079160 0.860120 0.966092
0.190047 0.863250 0.969098
0.304289 0.866377 0.972099
0.420742 0.869500 0.975034
0.539254 0.872621 0.977279
0.657338 0.875738 0.979522
0.773697 0.878852 0.981763
0.887035 0.881962 0.984001
0.996057 0.885070 0.986237
0.089492 0.976187 0.976187
0.200750 0.979178 0.979178
0.315600 0.982166 0.981962
0.433401 0.985149 0.984200
0.551929 0.988128 0.986436
0.669890 0.991102 0.988669
0.785988 0.994072 0.990900
0.898927 0.997038 0.993129
1.000000 1.000000 0.995355
