StreetStamps/fuji_eterna.cube
#Generated by PennL1
#小红书号：PennL1
#公众号：胶片感
#闲鱼号：LOOK胶片感
TITLE Standard-ETERNA
LUT_3D_SIZE 5
0.007843138 0.007843138 0.007843138
0.16862746 0.007843138 0.02745098
0.41960785 0.07254902 0.054901965
0.70686275 0.17254902 0.08235294
0.93333334 0.60784316 0.2117647
0.07254902 0.227451 0.0058823535
0.22843137 0.23014705 0.0017156862
0.4470588 0.25441176 0.026960785
0.6970588 0.3107843 0.055882353
0.9372549 0.6294118 0.22450979
0.2254902 0.5117647 0.09411765
0.33578432 0.51274514 0.09166667
0.50980395 0.5117647 0.08529412
0.7102941 0.5426471 0.06666667
0.9372549 0.67058825 0.2627451
0.42156863 0.7637255 0.2254902
0.49019608 0.75686276 0.22156861
0.6004902 0.7558824 0.222549
0.7345588 0.7541667 0.21911764
0.94117653 0.7372549 0.32156864
0.7882353 1.0 0.6392157
0.7882353 1.0 0.6392157
0.7960784 1.0 0.6392157
0.81764704 1.0 0.6421569
0.9647059 0.9960785 0.59607846
0.011764706 0.026470589 0.15294118
0.21617648 0.03259804 0.1862745
0.5127451 0.09411765 0.23774509
0.75808823 0.18504903 0.25392157
0.9372549 0.6117647 0.30882353
0.059803925 0.26372552 0.26102942
0.25821078 0.26004905 0.25857842
0.496201 0.27549022 0.26164216
0.740625 0.32843137 0.2661152
0.9372549 0.6296569 0.3142157
0.22598039 0.5392157 0.31862748
0.3459559 0.534804 0.30980393
0.5416667 0.529902 0.30637255
0.7329657 0.54901963 0.29963237
0.94117653 0.67058825 0.3392157
0.41151962 0.76274514 0.39166668
0.48406863 0.7630515 0.38719362
0.60490197 0.754902 0.38345587
0.7445466 0.7502451 0.3726103
0.94509804 0.73627454 0.38578433
0.7882353 1.0 0.6509804
0.7882353 1.0 0.65686274
0.7960784 1.0 0.6539216
0.81470585 1.0 0.65220594
0.9647059 0.9960785 0.6058824
0.033333335 0.0627451 0.27254903
0.2740196 0.09313726 0.3754902
0.5882353 0.14803922 0.47843137
0.82058823 0.22941177 0.5156863
0.9470588 0.6215687 0.4490196
0.062254906 0.32941177 0.52745104
0.2882353 0.32046568 0.5227941
0.5531863 0.33161765 0.532353
0.7794118 0.3699755 0.52671576
0.9470588 0.63774514 0.45686275
0.20980391 0.5892157 0.57254905
0.35588238 0.57181376 0.56593144
0.5627451 0.5647059 0.5627451
0.76053923 0.5732844 0.5500001
0.9490196 0.67549026 0.47254902
0.39509803 0.7681372 0.5916667
0.47561273 0.7686274 0.5926471
0.6093137 0.75759804 0.5877451
0.75808823 0.75232846 0.5764706
0.9495098 0.73627454 0.4995098
0.7882353 1.0 0.68235296
0.7882353 1.0 0.68235296
0.7980392 1.0 0.6813726
0.8137255 1.0 0.67990196
0.9686275 0.9960785 0.63529414
0.11764706 0.14019608 0.54803926
0.36740196 0.17867647 0.679902
0.6573529 0.23137255 0.75098044
0.864951 0.29754904 0.7647059
0.9568627 0.6401961 0.60784316
0.07303922 0.42132354 0.754902
0.31476718 0.40974265 0.7659314
0.5990196 0.41090685 0.77156866
0.81446075 0.43523285 0.766728
0.9568627 0.654902 0.6098039
0.15735295 0.6303922 0.7637255
0.33394608 0.6231618 0.76899517
0.5688726 0.6102941 0.7737745
0.7740196 0.6089461 0.76323533
0.9568627 0.6882353 0.61960787
0.35000002 0.78039217 0.7529412
0.44148284 0.7742647 0.75686276
0.59852946 0.76409316 0.76115197
0.75692403 0.7582108 0.7565564
0.95784307 0.73921573 0.6313726
0.7803922 0.9960785 0.7235294
0.78676474 0.9960785 0.7264706
0.7946079 0.9960785 0.7264706
0.80980396 0.99705887 0.7232843
0.9686275 0.9960785 0.68333334
0.52156866 0.58431375 0.98431367
0.57254905 0.5882353 0.9882353
0.6627451 0.6 0.9960785
0.7715686 0.6127451 1.0
0.98039216 0.6901961 0.99215686
0.46274507 0.6147059 0.9696079
0.5171569 0.6186275 0.9772059
0.61421573 0.6269608 0.9887255
0.73578435 0.64142156 0.99779415
0.98039216 0.69803923 0.99215686
0.38823527 0.6666667 0.9509804
0.43823528 0.6686275 0.9568627
0.5470588 0.6745098 0.97156864
0.67990196 0.6843138 0.9887255
0.98039216 0.72352946 0.99215686
0.33333334 0.73529416 0.9294118
0.40980393 0.73529416 0.94019616
0.49803925 0.73578435 0.9519608
0.63284314 0.739951 0.97181374
0.98039216 0.7558824 0.9882353
0.67058825 0.9764706 0.94117653
0.6862745 0.9764706 0.94117653
0.69411767 0.9764706 0.9431373
0.72156864 0.9764706 0.9490196
0.972549 0.9764706 0.972549
