StreetStamps/fuji_classic_neg.cube
#Generated by PennL1
#小红书号：PennL1
#公众号：胶片感
#闲鱼号：LOOK胶片感
TITLE Standard-CLASSIC-Neg
LUT_3D_SIZE 9
0.0 0.0 0.0
0.03872549 0.003921569 0.0
0.105882354 0.007843138 0.0
0.20833333 0.016176471 0.0
0.4019608 0.043137256 0.0
0.63823533 0.08137255 0.0
0.80980396 0.13333334 0.0
0.9142157 0.21078432 0.018627452
0.9607843 0.6313726 0.34117648
0.0 0.050490197 0.009313726
0.050490197 0.055882353 0.0053921575
0.12450981 0.07132353 0.0024509805
0.2438113 0.08529412 0.0
0.4264706 0.11446079 0.0
0.6299633 0.14460784 0.0
0.80355394 0.18529412 0.0
0.9132966 0.2568015 0.03125
0.9647059 0.6431373 0.3529412
0.009803921 0.15392157 0.04117647
0.063725494 0.1560049 0.03688726
0.13995099 0.1620098 0.027205883
0.25833333 0.1754902 0.018504903
0.4259804 0.19754902 0.009803921
0.62303925 0.22573529 0.0034313728
0.7943628 0.26446077 0.010784313
0.9112745 0.3367647 0.057352945
0.9647059 0.6578432 0.35980394
0.044607844 0.29558825 0.10392157
0.093259804 0.29852942 0.094791666
0.16691177 0.29607844 0.081985295
0.27389708 0.30392158 0.0721201
0.44411767 0.32303923 0.05931373
0.6279412 0.34944853 0.049509805
0.795098 0.38345587 0.053553924
0.9090073 0.45042893 0.101776965
0.9647059 0.68333334 0.3848039
0.0882353 0.4764706 0.19019608
0.13578433 0.4764706 0.17965686
0.20784314 0.4789216 0.16911766
0.32230395 0.47794122 0.15294118
0.48039216 0.4901961 0.13627452
0.6595589 0.50759804 0.12181373
0.80735296 0.5372549 0.12352942
0.9107843 0.5767157 0.16078432
0.9686275 0.7156863 0.40588236
0.14019608 0.64950985 0.28284314
0.18167892 0.6482231 0.27518383
0.2642157 0.6444853 0.26127455
0.37254903 0.6431373 0.24362746
0.52450985 0.65539217 0.22696078
0.68216914 0.66439956 0.209375
0.8128677 0.6769608 0.20625
0.9127451 0.6882353 0.22659314
0.9686275 0.74754906 0.43480393
0.22647059 0.7794118 0.40392157
0.26960784 0.7794118 0.39215684
0.34191176 0.7794118 0.3754902
0.43578434 0.78737754 0.3677696
0.5735294 0.7911765 0.34166667
0.70024514 0.7911765 0.32732844
0.8117647 0.79803926 0.31691176
0.9153186 0.80330884 0.33186275
0.972549 0.7921569 0.48039213
0.3485294 0.8906863 0.5681373
0.3833946 0.89160544 0.5609069
0.45931372 0.89424026 0.5473039
0.53088236 0.89491427 0.5335172
0.62867653 0.9009804 0.51862746
0.726348 0.90343136 0.5053922
0.81825984 0.9049019 0.49411768
0.90937495 0.90392154 0.48541668
0.9764706 0.85294116 0.5495098
0.8156863 0.9882353 0.81960785
0.8156863 0.9882353 0.81960785
0.8156863 0.9882353 0.81960785
0.827451 0.9882353 0.8156863
0.827451 0.9882353 0.8156863
0.8352942 0.9882353 0.8156863
0.85 0.9882353 0.8147059
0.8740196 0.9882353 0.8093138
0.972549 0.99215686 0.7686274
0.003921569 0.003921569 0.02401961
0.051409315 0.006311275 0.017156864
0.12928922 0.011151961 0.014093138
0.25557598 0.025490196 0.0104779415
0.47132355 0.05245098 0.0029411768
0.6913603 0.09068628 0.0029411768
0.8269608 0.13872549 0.01139706
0.92261034 0.21617648 0.07156863
0.9647059 0.63529414 0.3754902
0.0053921575 0.07064951 0.07303922
0.06638327 0.07696079 0.062806375
0.1517157 0.08448224 0.05269608
0.28346354 0.09981618 0.040257353
0.4784314 0.12377452 0.026746325
0.6638404 0.15258119 0.01930147
0.8217984 0.19238666 0.03025429
0.920527 0.26611522 0.08627451
0.9647059 0.64705884 0.37941176
0.021568628 0.17941177 0.13100491
0.08161765 0.17961091 0.11629902
0.15916054 0.18204656 0.10162377
0.28822 0.18904717 0.0835478
0.46482843 0.21145833 0.07083334
0.6589461 0.23901653 0.058655024
0.8142157 0.2767157 0.06645221
0.91813725 0.34630823 0.11634498
0.9647059 0.6622549 0.39117646
0.05998775 0.32077208 0.19056374
0.10716912 0.3234145 0.18205424
0.18664216 0.3184896 0.1637255
0.30417433 0.32500002 0.14887407
0.48612136 0.34353554 0.13023897
0.6572074 0.36636028 0.115954354
0.81053925 0.39701286 0.1197304
0.9147059 0.45845586 0.1627451
0.9686275 0.6851103 0.40765932
0.10735294 0.49754903 0.2735294
0.14957109 0.4980086 0.2639093
0.22432598 0.49822304 0.24987747
0.3522059 0.49518996 0.2251532
0.5101716 0.5067402 0.20796567
0.6816177 0.52215075 0.19142157
0.8188726 0.54656863 0.18768384
0.916636 0.58213854 0.22184436
0.9686275 0.7176471 0.43161765
0.16029412 0.66194856 0.36715686
0.19589461 0.6578432 0.3564338
0.277451 0.65686274 0.3375766
0.40349266 0.6542279 0.3154182
0.54607844 0.6634191 0.29632354
0.6954657 0.67226565 0.27994794
0.82185966 0.68134195 0.2715533
0.9174479 0.6927083 0.28897062
0.96991426 0.74803925 0.46090686
0.23578432 0.7823529 0.47095588
0.27855393 0.7823529 0.46259192
0.35094976 0.7840993 0.44920343
0.44790134 0.7911765 0.4314185
0.58719367 0.7922794 0.4083946
0.70703125 0.7951899 0.38393074
0.8191483 0.79901963 0.3745098
0.91747856 0.80330884 0.38056067
0.972549 0.7932598 0.5009804
0.37444854 0.8906863 0.6086397
0.4067402 0.8922182 0.60212165
0.46729472 0.8943781 0.59437805
0.5379902 0.89491427 0.5791744
0.6340686 0.9009804 0.5644302
0.7346201 0.90343136 0.54862905
0.8221814 0.90467215 0.5336244
0.9105009 0.9033701 0.5238205
0.9764706 0.85294116 0.5685049
0.8156863 0.9882353 0.82352936
0.8156863 0.9882353 0.82352936
0.8156863 0.9882353 0.82352936
0.827451 0.9882353 0.82352936
0.827451 0.9882353 0.82352936
0.8352942 0.9882353 0.81960785
0.85 0.9882353 0.8154412
0.8740196 0.9882353 0.8123162
0.972549 0.99215686 0.77009803
0.010784314 0.014705883 0.0754902
0.06911765 0.015686275 0.06433824
0.15735295 0.024754902 0.07058824
0.31372547 0.045710787 0.07450981
0.5647059 0.078431375 0.07058824
0.73419124 0.11176471 0.06960785
0.85 0.15882353 0.09877451
0.93039215 0.23700981 0.1689951
0.9676471 0.6421569 0.42352942
0.014705883 0.099877454 0.15686275
0.088342525 0.102512255 0.14986214
0.18305759 0.1096201 0.13884805
0.3291667 0.12642464 0.12558211
0.53345585 0.14754903 0.10955883
0.717739 0.17610294 0.10324755
0.84375 0.2148897 0.12230392
0.92855394 0.28598347 0.18504903
0.9686275 0.6539216 0.42745095
0.03627451 0.21397059 0.24558824
0.102420345 0.2111826 0.22515318
0.18952206 0.21151961 0.20343138
0.32264096 0.22052696 0.18103553
0.52144605 0.23909315 0.15968138
0.69987744 0.2627451 0.15134805
0.8367647 0.29944852 0.16360295
0.9275429 0.36323532 0.21418506
0.9686275 0.6671569 0.43259802
0.07671569 0.36029416 0.3199755
0.13158701 0.36297488 0.30425858
0.21614584 0.35379905 0.27766544
0.34699756 0.3584712 0.25412074
0.5259805 0.3737745 0.23351714
0.6906097 0.39165133 0.21631435
0.8277267 0.42441788 0.21957721
0.92740506 0.47444856 0.25863972
0.9686275 0.69031864 0.44950983
0.12254903 0.52745104 0.40588236
0.17058824 0.53161764 0.39362746
0.2509804 0.5279412 0.36948532
0.3788603 0.5245098 0.34044123
0.55980396 0.53161764 0.3142157
0.7071079 0.54185057 0.29509807
0.83431375 0.56372553 0.29105395
0.9250613 0.59246325 0.31446078
0.9700981 0.72156864 0.47058824
0.17843138 0.6769608 0.49203432
0.22320773 0.67345285 0.47807905
0.29901963 0.6714461 0.45526963
0.42847732 0.66795343 0.4235294
0.57683825 0.6784314 0.40447307
0.71384805 0.6835172 0.37833947
0.83125 0.69335175 0.3681066
0.92411155 0.7018229 0.3756587
0.972549 0.7506128 0.49681377
0.24901961 0.78921574 0.5732843
0.29669118 0.7876532 0.5595895
0.3582108 0.7916055 0.5484682
0.46127453 0.7953738 0.5268996
0.60220593 0.7973039 0.49865198
0.71571696 0.8030944 0.47855392
0.8308824 0.80196077 0.46029413
0.9230086 0.8090074 0.45870095
0.9757353 0.79509807 0.5357843
0.38431373 0.8906863 0.677451
0.41513482 0.8906863 0.66974574
0.47610298 0.8946079 0.65781254
0.55667895 0.89491427 0.64051783
0.64191175 0.9009804 0.6272672
0.7412225 0.90343136 0.6111367
0.8316177 0.90291053 0.59255517
0.91401654 0.9033701 0.5777267
0.9789216 0.85294116 0.5921569
0.8156863 0.9882353 0.827451
0.8156863 0.9882353 0.827451
0.8156863 0.9882353 0.8333334
0.827451 0.9882353 0.8303922
0.827451 0.9882353 0.8303922
0.8352942 0.9882353 0.8264706
0.85 0.9882353 0.822549
0.8740196 0.9882353 0.81715685
0.972549 0.99215686 0.7754902
0.020588236 0.031862747 0.1264706
0.094424024 0.03596814 0.12714462
0.1949755 0.05 0.14656863
0.38737747 0.076531865 0.16427696
0.6254902 0.1129902 0.17254902
0.7784314 0.14509805 0.18768382
0.87107843 0.18737745 0.22034314
0.9423407 0.26274508 0.29307598
0.9686275 0.6514706 0.47696078
0.0377451 0.12812501 0.2697917
0.11639859 0.1355239 0.2692402
0.22725186 0.14117648 0.2565564
0.39378062 0.15814953 0.24208027
0.59785545 0.18229167 0.22981006
0.7598039 0.20844822 0.2271829
0.8661305 0.24486828 0.25225183
0.94080114 0.31170344 0.31207108
0.9686275 0.6627451 0.48474264
0.0627451 0.25808826 0.40575984
0.13449755 0.25415137 0.37504598
0.22968751 0.25153187 0.3448836
0.3846967 0.26127452 0.31453738
0.58639705 0.28051472 0.29460785
0.74944854 0.30350798 0.28442097
0.85808825 0.330239 0.2951287
0.9391085 0.3874081 0.33772978
0.9691177 0.6769608 0.49509802
0.10147059 0.42150736 0.49019608
0.158678 0.4131281 0.46502757
0.24888176 0.4081955 0.43995097
0.39274663 0.4015472 0.39692864
0.58128065 0.42089462 0.37723652
0.7376609 0.43026963 0.3533165
0.8548254 0.45658702 0.3542739
0.93637407 0.49595588 0.3811351
0.972549 0.69601715 0.5019608
0.14632353 0.5737745 0.5661765
0.19739585 0.5719669 0.55085784
0.28388482 0.56488967 0.5243873
0.42040443 0.57110906 0.49145222
0.59411764 0.5686275 0.45735294
0.7363052 0.57184434 0.43367034
0.8504902 0.58952206 0.4230392
0.93480396 0.60940564 0.43195468
0.972549 0.7259804 0.52156866
0.20263481 0.69852936 0.63278186
0.23892464 0.69650733 0.61960787
0.3314798 0.69307595 0.5922335
0.45562962 0.68989736 0.55962014
0.60052085 0.6960784 0.52693015
0.7362745 0.70261186 0.5078891
0.84535843 0.7064951 0.4842984
0.9304994 0.7124771 0.48317248
0.97297794 0.7528799 0.5426471
0.28051472 0.79718137 0.68688726
0.3167586 0.79718137 0.6788144
0.37757355 0.8015012 0.66590077
0.48186278 0.80277264 0.6414063
0.628125 0.80588233 0.6068628
0.74356616 0.8084559 0.5808824
0.8492954 0.80701596 0.56115204
0.92754287 0.8109069 0.55255824
0.9764706 0.79607844 0.58112746
0.39375 0.8908701 0.75140935
0.43137255 0.89215684 0.74276966
0.48613665 0.8946079 0.73644304
0.56985295 0.89638484 0.719447
0.65058213 0.9009804 0.702451
0.7576823 0.9036152 0.6802926
0.8359528 0.9035539 0.66680455
0.91709554 0.902451 0.6442555
0.98039216 0.85294116 0.6285539
0.8156863 0.9882353 0.8397059
0.8156863 0.9882353 0.8397059
0.8156863 0.9882353 0.8397059
0.827451 0.9882353 0.8357844
0.827451 0.9882353 0.8357844
0.8352942 0.9882353 0.8352942
0.85 0.9882353 0.83137256
0.8740196 0.9882353 0.82530636
0.972549 0.99215686 0.7808824
0.04901961 0.04901961 0.18431373
0.12818629 0.06421569 0.2127451
0.25 0.084803924 0.25196078
0.47549018 0.11666667 0.2911765
0.6960784 0.14901961 0.30882353
0.81960785 0.17941177 0.3269608
0.8960784 0.22107843 0.36960784
0.9514706 0.29313725 0.42916667
0.972549 0.6647059 0.54509807
0.079166666 0.17254902 0.42892158
0.15634191 0.17742035 0.42938113
0.28131127 0.18376225 0.41121322
0.46681985 0.19944854 0.3875
0.66433823 0.22193627 0.36948532
0.8019608 0.24813113 0.37922794
0.88523287 0.28069854 0.39803922
0.9484988 0.34601715 0.44577205
0.972549 0.6745098 0.55049026
0.10098039 0.3156863 0.5705883
0.16893384 0.3091299 0.5403186
0.2796569 0.30661765 0.5040442
0.45453432 0.31409317 0.4779412
0.64656866 0.33137256 0.4519608
0.78749996 0.3480392 0.43627453
0.87781864 0.3718137 0.43823528
0.9485294 0.42316177 0.47107843
0.972549 0.6882353 0.55980396
0.13406864 0.4757353 0.65906864
0.19626226 0.46495098 0.6313726
0.29399514 0.46176472 0.5987133
0.44990808 0.46299022 0.5611826
0.63480395 0.46715686 0.5253677
0.7703124 0.48308823 0.51130515
0.87230396 0.4957108 0.49577206
0.9474571 0.525766 0.5076593
0.972549 0.70686275 0.5651961
0.17941177 0.6166667 0.7176471
0.2310049 0.6116422 0.6981618
0.3264706 0.60269606 0.6661765
0.4669118 0.6074755 0.6350491
0.6348039 0.6068628 0.59852946
0.7677696 0.611152 0.57303923
0.8688725 0.6176471 0.5522059
0.94375 0.6289216 0.5493873
0.9764706 0.73529416 0.5862745
0.2247549 0.72083336 0.75784314
0.2738358 0.71969974 0.74779415
0.35778186 0.71697307 0.7213848
0.49065566 0.7198529 0.6894301
0.6370098 0.71936274 0.6593138
0.7567402 0.7233762 0.6325674
0.85949755 0.72401965 0.6081495
0.9391238 0.72536767 0.5938726
0.9764706 0.75980395 0.6029412
0.29509804 0.8068627 0.7892157
0.34779415 0.8068627 0.7763481
0.40588236 0.81274515 0.7676471
0.5221201 0.81323534 0.7411765
0.6507353 0.8139706 0.7112745
0.7565564 0.81893384 0.6925245
0.8579657 0.816299 0.6626226
0.9337623 0.8185049 0.64607847
0.97892153 0.7990196 0.6284314
0.41151962 0.89215684 0.82205886
0.44142157 0.8946079 0.8166667
0.5014706 0.89607847 0.802451
0.5905944 0.8985294 0.7875613
0.66053927 0.902451 0.77549016
0.76274514 0.9049019 0.7528493
0.84405637 0.9039216 0.7318628
0.9212929 0.90300244 0.7117034
0.9816176 0.8541666 0.6681373
0.8156863 0.9882353 0.8509804
0.8156863 0.9882353 0.8509804
0.8156863 0.9882353 0.8509804
0.827451 0.9882353 0.84901965
0.8294118 0.9882353 0.84803927
0.8352942 0.9882353 0.845098
0.85 0.9882353 0.8426471
0.8740196 0.9882353 0.83480394
0.972549 0.99215686 0.7941176
0.09264706 0.08137255 0.29068628
0.17009805 0.09607843 0.33069852
0.32365197 0.12218138 0.38835785
0.5822304 0.1608456 0.43976715
0.7539216 0.19460784 0.45318627
0.84803927 0.22156863 0.47058824
0.9122549 0.26164216 0.5107843
0.9590073 0.33247548 0.5495098
0.9759804 0.6818628 0.6098039
0.12536764 0.22873774 0.60110295
0.20494026 0.23100491 0.59370404
0.35044426 0.23517157 0.56465995
0.5504902 0.25310203 0.5367188
0.72738975 0.27077207 0.5185662
0.83676475 0.29556528 0.52761185
0.90729165 0.32512254 0.5397978
0.95777416 0.38155633 0.56770074
0.9764706 0.6862745 0.61078435
0.1439951 0.3754902 0.7185049
0.217356 0.37018993 0.6920343
0.34166667 0.3707108 0.6650736
0.52282476 0.379182 0.63272065
0.7064951 0.38566175 0.5961397
0.8236367 0.39722735 0.57993263
0.8981005 0.4203125 0.5754902
0.9565564 0.46329656 0.5953891
0.9764706 0.70257354 0.6197305
0.17855392 0.5293505 0.79117644
0.2369332 0.5211857 0.76628363
0.34900433 0.5179841 0.7375766
0.5102559 0.5154948 0.6983302
0.68795955 0.5169118 0.6578431
0.8037991 0.5237056 0.63480395
0.88975185 0.5364584 0.62731314
0.95484066 0.55843294 0.62019765
0.9764706 0.71813726 0.6294118
0.20759803 0.65563726 0.8303922
0.26636034 0.64975494 0.8147059
0.37058824 0.6438726 0.78884804
0.5142157 0.6473346 0.7578738
0.67132354 0.64865196 0.7227941
0.79243255 0.64816177 0.6923713
0.88186276 0.64632356 0.6681985
0.95009184 0.65723044 0.6577512
0.9764706 0.7428922 0.63823533
0.25888482 0.74264705 0.84950984
0.30639556 0.7389936 0.83792895
0.39800858 0.737929 0.82077205
0.51685816 0.7416743 0.79676014
0.6681067 0.7401961 0.76292896
0.78193164 0.74307597 0.73523283
0.8744945 0.7416207 0.7085019
0.9466069 0.74509805 0.6927084
0.9764706 0.7672181 0.65337014
0.33088237 0.8165441 0.86899513
0.35859376 0.822932 0.8650888
0.42588848 0.8231618 0.84944856
0.5381434 0.8240196 0.82522976
0.6740196 0.8240196 0.7970588
0.7729626 0.82840073 0.77719057
0.86654407 0.8249387 0.7497549
0.9402115 0.8251685 0.7280637
0.98039216 0.8029412 0.67671573
0.4351103 0.8955883 0.8762868
0.46955425 0.89607847 0.87091756
0.52841604 0.89607847 0.8588848
0.5967678 0.9002681 0.8450368
0.68578434 0.902451 0.8273285
0.7668122 0.9049019 0.81225497
0.84790134 0.9039216 0.79661465
0.92586553 0.90147054 0.7696845
0.98412985 0.8568627 0.70747554
0.8156863 0.9882353 0.86274505
0.8156863 0.9882353 0.86274505
0.8156863 0.9882353 0.86274505
0.827451 0.9882353 0.85882354
0.8313726 0.9882353 0.8568628
0.8352942 0.9882353 0.85490197
0.85 0.9882353 0.857353
0.8740196 0.9882353 0.8504902
0.9764706 0.99215686 0.807353
0.16960785 0.13725491 0.49901962
0.2644608 0.15968138 0.54558825
0.45955884 0.1992647 0.60465693
0.6897059 0.23725492 0.62561274
0.81127447 0.2642157 0.629902
0.88186276 0.29031864 0.63982844
0.9333334 0.32524508 0.6526961
0.9686275 0.38615197 0.6726716
0.9764706 0.70392156 0.6813726
0.20637254 0.3245098 0.7844362
0.29788604 0.32132354 0.7609222
0.45655635 0.32671568 0.7317709
0.6485448 0.33765322 0.70217526
0.79197305 0.35202205 0.68333334
0.8695619 0.36801472 0.67781866
0.9242953 0.39304537 0.67990196
0.96738666 0.4412837 0.69342834
0.97745097 0.7107843 0.68529415
0.21004902 0.46936277 0.85563725
0.2912071 0.46305147 0.8348346
0.43560052 0.46023285 0.8010417
0.6138481 0.45986518 0.7653799
0.7622549 0.4665441 0.73786765
0.85119486 0.47187498 0.7216299
0.9158088 0.48088235 0.7085784
0.96639097 0.5114584 0.71553314
0.9796569 0.7223039 0.6901961
0.22806373 0.602451 0.90049016
0.3023744 0.59407175 0.87967217
0.42653185 0.58590686 0.84886646
0.58851105 0.5824295 0.81441486
0.73633575 0.58363974 0.78302693
0.8335938 0.58331805 0.76118255
0.9094362 0.5879596 0.7488971
0.9649663 0.6011796 0.73682594
0.98039216 0.736152 0.69558823
0.26372552 0.6985294 0.925
0.3226716 0.69442403 0.9102941
0.42058825 0.69705886 0.8910539
0.578554 0.6922181 0.8570466
0.717402 0.69191176 0.8262255
0.825 0.6897059 0.79950976
0.8985294 0.6886029 0.7794118
0.9612745 0.68737745 0.7609682
0.98039216 0.75784314 0.70735294
0.2988971 0.76911765 0.9372549
0.35873163 0.7677696 0.922166
0.43336397 0.7699142 0.90634197
0.5662991 0.76911765 0.8806373
0.70710784 0.7651961 0.84852946
0.80991113 0.7656863 0.8258579
0.88731617 0.7663909 0.8088235
0.95516235 0.76449144 0.7866422
0.98039216 0.77745104 0.7175245
0.34779412 0.8352941 0.94411767
0.39329046 0.83556986 0.9342525
0.46654412 0.8360294 0.91973037
0.5767157 0.8362745 0.8983456
0.70134807 0.8362745 0.87512255
0.79742646 0.84028804 0.85490197
0.87530637 0.8373775 0.8327206
0.94476104 0.8327512 0.8085478
0.98431367 0.81004906 0.7323529
0.4519608 0.89607847 0.93529415
0.48368567 0.8964461 0.92879903
0.54154414 0.89816177 0.91740197
0.6033242 0.9029565 0.9060968
0.6872549 0.9039216 0.89240193
0.77418816 0.90770525 0.8745711
0.85110295 0.9050245 0.85523903
0.9259804 0.90147054 0.8327513
0.98431367 0.85723037 0.75686276
0.8156863 0.9882353 0.8803922
0.8156863 0.9882353 0.8833333
0.8252451 0.9882353 0.88014704
0.827451 0.9882353 0.87941176
0.83480394 0.9882353 0.8769608
0.8392157 0.9882353 0.87549025
0.85 0.9882353 0.8745098
0.8784314 0.9882353 0.86764705
0.9764706 0.99215686 0.82450974
0.39313725 0.30833334 0.80784315
0.52371323 0.33382353 0.816728
0.6704657 0.3602941 0.8109068
0.791973 0.3800858 0.800674
0.8693627 0.4019608 0.80073535
0.9161765 0.41911766 0.8009804
0.95343137 0.45036766 0.804902
0.9764706 0.49191177 0.8082108
0.98039216 0.73578435 0.76127446
0.3721814 0.46862745 0.91231614
0.47492343 0.4684513 0.89385724
0.62604165 0.47075674 0.87025124
0.76265323 0.48156404 0.8496324
0.8511642 0.4863358 0.8351103
0.9050245 0.49496022 0.8278263
0.9466605 0.5089767 0.8231618
0.97779566 0.5378064 0.82052696
0.9828431 0.74215686 0.7651961
0.35085782 0.5932598 0.9617647
0.4433058 0.58961403 0.9435049
0.5749388 0.5876225 0.9191177
0.7161458 0.5862133 0.8942402
0.8234681 0.5852941 0.8727329
0.8891238 0.584421 0.8565564
0.93890935 0.58532476 0.84362745
0.97676164 0.5994179 0.83463544
0.98431367 0.75392157 0.76911765
0.3530637 0.68829656 0.98498774
0.42947304 0.6870788 0.97224265
0.5439645 0.68468136 0.9524663
0.6902804 0.6830653 0.92518383
0.8026348 0.6788603 0.9008272
0.8752605 0.6728171 0.8814797
0.93008584 0.67019 0.86822915
0.9757966 0.6710708 0.8519608
0.98431367 0.7640319 0.77352947
0.35980392 0.7556372 0.9911765
0.41804534 0.7563725 0.9862439
0.52585787 0.7527574 0.97052693
0.65707725 0.7555453 0.9484375
0.7759804 0.75294113 0.925
0.858272 0.7481005 0.90496325
0.91519606 0.7441176 0.88866425
0.9698223 0.73553926 0.8662071
0.98431367 0.7808824 0.78088236
0.374326 0.80214465 0.9933211
0.43056068 0.8035463 0.99198073
0.52562803 0.80392164 0.97745097
0.64021903 0.80392164 0.96127456
0.7478247 0.80634195 0.93838847
0.8327589 0.80418193 0.9203968
0.90291053 0.7967984 0.90151656
0.96286 0.79021144 0.8796109
0.98431367 0.8019608 0.7936275
0.40808824 0.84852946 0.99350494
0.4554994 0.84852946 0.9909161
0.5301777 0.85018384 0.98088235
0.6288757 0.85245097 0.965625
0.7178309 0.8561887 0.9514706
0.8139399 0.8558364 0.93445164
0.8865196 0.85245097 0.9153186
0.94931066 0.8456955 0.89100796
0.98492646 0.8229167 0.8008579
0.49319854 0.89754903 0.98676467
0.52567405 0.90000004 0.9836167
0.55649513 0.9014706 0.980193
0.631633 0.9040365 0.96820617
0.7086091 0.90539217 0.9547181
0.7833563 0.90864736 0.9395144
0.8591452 0.9057751 0.922549
0.92949605 0.9023897 0.899977
0.9882353 0.8622549 0.8170956
0.8132353 0.9882353 0.90931374
0.82058823 0.9882353 0.9068628
0.825 0.9882353 0.9068628
0.825 0.9882353 0.9068628
0.8328432 0.9882353 0.90539217
0.839277 0.9882353 0.90453434
0.85490197 0.9882353 0.90294117
0.8824142 0.99215686 0.8956495
0.9789216 0.99215686 0.8583333
0.84313726 0.74117655 0.9764706
0.8509804 0.74117655 0.972549
0.86274505 0.74509805 0.972549
0.8867647 0.7495098 0.9686275
0.90000004 0.7529412 0.9686275
0.917647 0.75686276 0.9686275
0.9421569 0.7617647 0.9647059
0.97205883 0.7686274 0.9607843
0.99215686 0.8 0.9529412
0.829902 0.7490196 0.97794116
0.8362745 0.7504902 0.9764706
0.8514706 0.7529412 0.9764706
0.8713848 0.7570466 0.972549
0.8906863 0.7607843 0.972549
0.9130515 0.7647059 0.9686275
0.9359069 0.77009803 0.9676471
0.96721816 0.7764706 0.963174
0.99215686 0.8 0.9529412
0.8029412 0.7637255 0.98431367
0.81470585 0.7637255 0.9833333
0.83406866 0.76691175 0.98039216
0.85772055 0.7677696 0.9764706
0.8789216 0.77205884 0.9754902
0.90453434 0.77904415 0.972549
0.92671573 0.78333336 0.97083336
0.9602941 0.78786767 0.9661765
0.99215686 0.8039216 0.9529412
0.7612745 0.7769608 0.9887255
0.7806986 0.7808824 0.9882353
0.80955887 0.78382355 0.9873774
0.83235294 0.7848039 0.98431367
0.85833335 0.7887255 0.98039216
0.88615197 0.79264706 0.97653186
0.9155637 0.797549 0.9730392
0.95196074 0.8029412 0.9700981
0.99215686 0.8122549 0.9529412
0.7411765 0.7980392 0.9960785
0.7588235 0.79999995 0.9941177
0.7745098 0.8019608 0.99460787
0.8034314 0.8019608 0.9901961
0.8392157 0.8058824 0.9862745
0.87352943 0.80980396 0.982598
0.90245104 0.8137255 0.97990197
0.94460785 0.8188726 0.9732843
0.99215686 0.8215686 0.95490193
0.70245093 0.8151961 1.0
0.72156864 0.8186275 0.9960785
0.7415442 0.81911767 0.9960785
0.77273285 0.8230392 0.9955883
0.82549024 0.8230392 0.99215686
0.8534314 0.8269608 0.9882353
0.88909316 0.8308824 0.9841911
0.93302697 0.834804 0.97775733
0.99215686 0.834804 0.9568627
0.6539216 0.8401961 1.0
0.6784314 0.8411765 1.0
0.7227941 0.84338236 1.0
0.7470588 0.845098 0.9995098
0.7872549 0.845098 0.9960785
0.82683825 0.8488971 0.9935049
0.8708334 0.8522059 0.9889706
0.9218137 0.85588235 0.98431367
0.99215686 0.84901965 0.9607843
0.6406863 0.8740196 1.0
0.6666667 0.8754902 1.0
0.68284315 0.8779412 1.0
0.70704657 0.8794118 1.0
0.75514704 0.8806373 1.0
0.7924019 0.88186276 0.99852943
0.8493873 0.8833333 0.9960785
0.90594363 0.8872549 0.99123776
0.99215686 0.8769608 0.9647059
0.7647059 0.98039216 1.0
0.7647059 0.98039216 1.0
0.78431374 0.98039216 1.0
0.78431374 0.98039216 1.0
0.7941177 0.9823529 1.0
0.8039216 0.98431367 1.0
0.82843137 0.98431367 1.0
0.8622549 0.98431367 1.0
0.9882353 0.9882353 0.9882353
