StreetStamps/fuji_classic_neg.cube
#Generated by PennL1
#小红书号：PennL1
#公众号：胶片感
#闲鱼号：LOOK胶片感
TITLE Standard-CLASSIC-Neg
LUT_3D_SIZE 33
0.0 0.0 0.0
0.0003676471 0.0 0.0
0.0061274515 0.0 0.0
0.02009804 0.0011029412 0.0
0.03872549 0.003921569 0.0
0.0564951 0.003921569 0.0
0.07156863 0.003921569 0.0
0.08872549 0.0064950986 0.0
0.105882354 0.007843138 0.0
0.12634805 0.007843138 0.0
0.1514706 0.011519608 0.0
0.17732844 0.011887255 0.0
0.20833333 0.016176471 0.0
0.24693626 0.02132353 0.0
0.2879902 0.02867647 0.0
0.33835787 0.034558825 0.0
0.4019608 0.043137256 0.0
0.47487748 0.049387254 0.0
0.5316177 0.056372553 0.0
0.59105396 0.071078435 0.0
0.63823533 0.08137255 0.0
0.69252455 0.08995098 0.0
0.73578435 0.102696076 0.0
0.777451 0.11617647 0.0
0.80980396 0.13333334 0.0
0.83958334 0.14914216 0.0
0.8696078 0.1637255 0.0
0.8909314 0.18504903 0.0020833334
0.9142157 0.21078432 0.018627452
0.9356618 0.24779412 0.050000004
0.94436276 0.3002451 0.09068628
0.94865197 0.3702206 0.13713236
0.9607843 0.6313726 0.34117648
0.0 0.0007352942 0.0
0.000402114 0.00076976104 0.0
0.0070925253 0.0017693016 0.0
0.023755362 0.0047602635 0.0
0.039843753 0.0050245104 0.0
0.054779418 0.0068627456 0.0
0.074142165 0.008946079 0.0
0.09301471 0.011519608 0.0
0.11283702 0.013143383 0.0
0.13150276 0.016544119 0.0
0.15945925 0.020833334 0.0
0.18269761 0.02523361 0.0
0.22443321 0.03296569 0.0
0.26585096 0.038112745 0.0
0.31592372 0.045580577 0.0
0.360769 0.05027191 0.0
0.4139706 0.056740202 0.0
0.4812883 0.06742877 0.0
0.54581803 0.07745098 0.0
0.5918314 0.088805914 0.0
0.6473499 0.098161764 0.0
0.6859835 0.11053921 0.0
0.72781867 0.119485304 0.0
0.7731617 0.13235295 0.0
0.80649513 0.14512868 0.0
0.83799404 0.159195 0.0
0.8656863 0.17659314 0.00016084561
0.8888979 0.19752605 0.0043390016
0.9140778 0.22314645 0.020327818
0.93284315 0.258004 0.0506319
0.9436275 0.30926013 0.09430913
0.94865197 0.372392 0.13786764
0.9607843 0.6313726 0.34117648
0.0 0.010784314 0.0007352942
0.000804228 0.011083027 0.0007352942
0.01004902 0.014108457 0.0007352942
0.021729473 0.015602022 0.00052849273
0.041452207 0.018167892 0.0
0.05906863 0.020465687 0.0
0.07843138 0.02254902 0.0
0.09730393 0.02512255 0.0
0.115012266 0.029411765 0.0
0.13835019 0.033080578 0.0
0.16465993 0.037944242 0.0
0.19389552 0.042279415 0.0
0.22971813 0.046660542 0.0
0.27234223 0.05245098 0.0
0.32132354 0.060799632 0.0
0.37408856 0.068872556 0.0
0.43455884 0.07745098 0.0
0.49022675 0.08602941 0.0
0.54037994 0.09410233 0.0
0.5883272 0.10302544 0.0
0.63958335 0.11112133 0.0
0.6918888 0.123406865 0.0
0.7234835 0.13235295 0.0
0.76836705 0.1451057 0.0
0.8027573 0.1567402 0.0
0.8349264 0.16996017 0.0
0.8655944 0.18904719 0.0017156864
0.8873545 0.20700829 0.006395527
0.9127451 0.23140319 0.023284316
0.93284315 0.27242646 0.056947
0.9436275 0.3227941 0.09912684
0.94865197 0.3884804 0.14282322
0.9615196 0.6313726 0.34264708
0.0 0.029044118 0.00502451
0.0021024817 0.029147519 0.00502451
0.013648897 0.030675553 0.00502451
0.02622549 0.032965686 0.003921569
0.04443934 0.034436274 0.0011029412
0.06284084 0.038725488 0.0011029412
0.08161765 0.040808827 0.0011029412
0.101214 0.043382354 0.0011029412
0.12169118 0.048498776 0.00027573528
0.14406787 0.049754903 0.0
0.1720052 0.056073837 0.0
0.19935279 0.060539216 0.0
0.23681067 0.06531863 0.0
0.27720973 0.07389706 0.0
0.3271293 0.081250004 0.0
0.37573916 0.08713236 0.0
0.42916667 0.095159315 0.0
0.4892157 0.10318627 0.0
0.5357843 0.109068625 0.0
0.58884424 0.1194853 0.0
0.6324602 0.12645528 0.0
0.6863971 0.13741192 0.0
0.7223729 0.14632353 0.0
0.7659543 0.15857843 0.0
0.8025122 0.16884191 0.0
0.83101636 0.18420267 0.0
0.8651961 0.20074296 0.0021982233
0.88943404 0.22156863 0.009777114
0.9131587 0.24477637 0.027297797
0.93284315 0.2841912 0.05863588
0.9436275 0.33545497 0.10192249
0.94865197 0.40134805 0.1498966
0.9647059 0.6346814 0.35012257
0.0 0.050490197 0.009313726
0.004932598 0.050857846 0.009313726
0.017371323 0.054411765 0.00903799
0.033333335 0.054411765 0.0071537998
0.050490197 0.055882353 0.0053921575
0.06649816 0.05948223 0.0053921575
0.08455883 0.062438726 0.0053921575
0.104074754 0.06629902 0.0053921575
0.12450981 0.07132353 0.0024509805
0.15050551 0.073789835 0.0014705884
0.17784928 0.07769608 0.0014705884
0.20784314 0.08051471 0.0014246325
0.2438113 0.08529412 0.0
0.290671 0.09355086 0.0
0.33088237 0.10021447 0.0
0.37457108 0.10710785 0.0
0.4264706 0.11446079 0.0
0.48128065 0.120940566 0.0
0.5303309 0.12723652 0.0
0.57935053 0.13581495 0.0
0.6299633 0.14460784 0.0
0.67804843 0.15318629 0.0
0.725337 0.16338849 0.0
0.7720588 0.17449449 0.0
0.80355394 0.18529412 0.0
0.83059126 0.19900429 0.00050551473
0.8643689 0.21519607 0.004901961
0.8909314 0.23443627 0.014782476
0.9132966 0.2568015 0.03125
0.93242955 0.2957108 0.062545955
0.9436275 0.346875 0.10511643
0.94865197 0.41007966 0.15272671
0.9647059 0.6431373 0.3529412
0.0018382354 0.07377452 0.015441177
0.008723959 0.07414216 0.015441177
0.022158395 0.077696085 0.014705883
0.03762255 0.077696085 0.011519609
0.054090075 0.07847733 0.011519609
0.07009804 0.08064109 0.010657936
0.08946079 0.0839614 0.009681373
0.10817249 0.08956419 0.009681373
0.1268076 0.09154412 0.0067401966
0.15441178 0.09485295 0.0057598045
0.18615961 0.09914216 0.0057598045
0.21630669 0.099509805 0.0038564648
0.24833028 0.10428922 0.0018382354
0.29183903 0.11200981 0.0018382354
0.32965687 0.116950065 0.0012637869
0.3743413 0.12426471 0.0
0.42677698 0.13284314 0.0
0.47739354 0.13909313 0.0
0.5279948 0.14607844 0.0
0.57969517 0.15302926 0.0
0.6332568 0.16115196 0.0
0.67697614 0.1697304 0.0
0.71875006 0.18039218 0.0
0.76776963 0.18958333 0.0
0.8015625 0.20199141 0.0
0.8329657 0.21411228 0.0013480393
0.86218596 0.22909772 0.007352941
0.8890932 0.2482805 0.016907936
0.91107535 0.27418813 0.03615196
0.93174016 0.31206343 0.067524515
0.9436275 0.3582108 0.111397065
0.94865197 0.41605392 0.15669042
0.9647059 0.6431373 0.3529412
0.0061274515 0.099509805 0.024019608
0.012706801 0.099877454 0.024019608
0.0243413 0.103431374 0.023284314
0.039705884 0.103431374 0.02009804
0.05621936 0.103431374 0.019270834
0.07230392 0.10526961 0.017087929
0.09166667 0.108593754 0.016176471
0.11311275 0.11181066 0.014728861
0.13327207 0.11464462 0.012683824
0.15718445 0.1166437 0.012254903
0.19019607 0.12058824 0.012254903
0.22041208 0.12102482 0.0082644
0.2497549 0.12794118 0.0061274515
0.289591 0.13517924 0.0056449147
0.33175552 0.13843444 0.003385417
0.37208948 0.14583334 0.0022058825
0.42487746 0.15330882 0.0022058825
0.47650123 0.15845588 0.00089613977
0.5205883 0.16544117 0.0
0.5770757 0.1740196 0.0
0.6237745 0.18066789 0.0
0.6764017 0.1889706 0.0
0.71225494 0.19782476 0.0
0.76161915 0.2108073 0.0
0.7977941 0.22083333 0.0005514706
0.83227634 0.23210785 0.0035539218
0.8615503 0.24754903 0.009558824
0.88597584 0.2654948 0.020220589
0.91029406 0.29264706 0.040441178
0.93174016 0.3298943 0.0733992
0.9454197 0.37549022 0.11609988
0.9508579 0.43533242 0.16486673
0.9647059 0.64975494 0.3551471
0.0052696085 0.12524511 0.03259804
0.015199909 0.12561275 0.030024512
0.025735294 0.12916668 0.029771755
0.04042969 0.12916668 0.028676473
0.059436277 0.12916668 0.027205884
0.07659314 0.12979856 0.024754902
0.095955886 0.13416821 0.024754902
0.11571308 0.13700981 0.022181373
0.13627452 0.13802084 0.020833334
0.15554917 0.14052926 0.020833334
0.19003522 0.14219517 0.01842065
0.22054611 0.14751072 0.01429611
0.25404412 0.15110295 0.012668505
0.29181603 0.15796569 0.010121783
0.3282169 0.16041668 0.0082644
0.37592298 0.16794962 0.0054496024
0.42745095 0.17303923 0.003921569
0.47577745 0.1803845 0.0031211707
0.52407324 0.18592218 0.00080422807
0.5699717 0.19289216 0.0020105701
0.6224878 0.2025429 0.00032169116
0.66809136 0.21127452 0.0024931068
0.71397066 0.22002146 0.0
0.7619945 0.23152958 0.00040211398
0.7915748 0.24227941 0.0035539218
0.82916665 0.25355396 0.008727788
0.8603171 0.27124694 0.01642157
0.8838044 0.29117647 0.028450523
0.9109375 0.3143076 0.048269
0.932464 0.35085785 0.0814951
0.9468137 0.39693627 0.12537532
0.95257354 0.45600107 0.17352559
0.9647059 0.654902 0.35686278
0.009803921 0.15392157 0.04117647
0.01963848 0.15401348 0.04019608
0.03161765 0.15490197 0.03964461
0.04586397 0.15490197 0.037254903
0.063725494 0.1560049 0.03688726
0.08226103 0.15784314 0.034895837
0.10153186 0.15894608 0.031678922
0.121047795 0.15980393 0.029748775
0.13995099 0.1620098 0.027205883
0.16231617 0.16357231 0.026470589
0.19050243 0.16648285 0.022794118
0.22068015 0.17166054 0.021476716
0.25833333 0.1754902 0.018504903
0.29457724 0.18235295 0.01764706
0.32904413 0.18480393 0.01642157
0.37907475 0.19178922 0.012132354
0.4259804 0.19754902 0.009803921
0.47463235 0.20272672 0.008057598
0.5197917 0.20998774 0.006188726
0.5737133 0.21887255 0.006648285
0.62303925 0.22573529 0.0034313728
0.67117035 0.23406862 0.0038909316
0.71372557 0.24264707 0.0029411768
0.76228553 0.25183827 0.0040134806
0.7943628 0.26446077 0.010784313
0.82873774 0.27693015 0.01541054
0.8591912 0.2925858 0.02334559
0.88446695 0.31393996 0.0377451
0.9112745 0.3367647 0.057352945
0.93284315 0.3744179 0.08795956
0.9468137 0.4141544 0.12971815
0.95257354 0.4703431 0.17901348
0.9647059 0.6578432 0.35980394
0.01507353 0.18394609 0.053063728
0.024640013 0.18063726 0.053063728
0.0428845 0.18187806 0.052948836
0.054166667 0.18725489 0.051520374
0.070082724 0.18748467 0.047901347
0.08545879 0.18786764 0.0439951
0.10480239 0.18600643 0.039705884
0.12598039 0.18890166 0.037990198
0.14200369 0.19163603 0.03753064
0.16495098 0.19178922 0.034585632
0.19378829 0.19236366 0.033494182
0.22081418 0.19975491 0.03333333
0.26262257 0.20453432 0.029534316
0.29937577 0.21139705 0.02881051
0.33730853 0.21178001 0.025
0.3876264 0.2155599 0.022054994
0.43210784 0.2221201 0.018382354
0.48088235 0.22831649 0.014709713
0.5260494 0.2345435 0.012185968
0.57236904 0.24227941 0.011151961
0.6159314 0.24453124 0.0077205887
0.669627 0.25541133 0.010435815
0.70633423 0.26760876 0.010746017
0.7584559 0.27990198 0.014556527
0.7935968 0.29194242 0.01853554
0.8279067 0.30232844 0.021480545
0.8572074 0.31835938 0.03137255
0.8849265 0.3380285 0.04632353
0.90920645 0.3602788 0.06593138
0.9319125 0.39749923 0.09821156
0.9468137 0.43956804 0.13982844
0.95257354 0.48145297 0.18383119
0.9647059 0.6621324 0.36740196
0.026715687 0.22132353 0.06960785
0.035363052 0.22107843 0.06593138
0.045297183 0.22117034 0.06593138
0.060102638 0.22053462 0.06379443
0.078431375 0.21789216 0.058241427
0.09141391 0.22133885 0.057973348
0.10882354 0.22510722 0.055637255
0.13026962 0.222909 0.051508885
0.1485907 0.22181372 0.0502451
0.17540595 0.22181372 0.046936277
0.20194547 0.2287071 0.04632353
0.22807139 0.2297794 0.04620098
0.26691177 0.23455884 0.042401962
0.30460325 0.24142157 0.04154412
0.34492955 0.24257046 0.036106005
0.39289215 0.24828431 0.030882355
0.42965686 0.25490198 0.028799022
0.48199296 0.26370254 0.024532782
0.5350491 0.26855087 0.022870712
0.5791667 0.27762717 0.022794118
0.62205887 0.283364 0.022579657
0.6763481 0.2952206 0.022786459
0.715717 0.29705882 0.022809437
0.76037073 0.30935204 0.023651961
0.78946084 0.31905636 0.026960785
0.827811 0.333004 0.03092065
0.8593903 0.3484988 0.043627452
0.8851563 0.36763176 0.058578435
0.91020215 0.39313728 0.07818627
0.93174016 0.42486215 0.10826441
0.94980085 0.46568626 0.14901963
0.9529182 0.50835633 0.19191176
0.9647059 0.67009807 0.37230393
0.031740196 0.25980395 0.08676471
0.0442402 0.25979245 0.086286
0.053553924 0.25896907 0.08210785
0.06749005 0.25595132 0.07892157
0.0831342 0.25612748 0.07745098
0.09964001 0.25612748 0.07321921
0.118750006 0.25612748 0.068995096
0.13839997 0.26103327 0.0696921
0.15713848 0.26360294 0.06801471
0.17759268 0.26360294 0.06382889
0.20648743 0.26383275 0.06312041
0.24007352 0.27144608 0.0593099
0.26778495 0.27144608 0.05821079
0.30992648 0.27152652 0.050543815
0.34734222 0.27537534 0.047594976
0.38950676 0.28321078 0.04588312
0.44123775 0.28535542 0.041666668
0.48634732 0.2920841 0.039705884
0.53198534 0.29783243 0.039621633
0.5878792 0.30830655 0.03661535
0.63406867 0.31423104 0.035677087
0.6736367 0.32610297 0.035661764
0.71286005 0.32732844 0.035669427
0.7586435 0.34075138 0.036377914
0.7969669 0.35376838 0.039613973
0.8316176 0.36200598 0.04501379
0.8574602 0.3840686 0.058632046
0.88522136 0.3993375 0.069427855
0.9102481 0.41712624 0.08717831
0.93174016 0.45248544 0.117122404
0.95 0.48259804 0.15774357
0.95649505 0.52232695 0.2040556
0.9647059 0.6709559 0.37291667
0.044607844 0.29558825 0.10392157
0.05621936 0.2952206 0.1004902
0.066329665 0.2916667 0.09975491
0.07893689 0.29359683 0.09643076
0.093259804 0.29852942 0.094791666
0.107965685 0.29921877 0.09264706
0.12386643 0.29972428 0.09071691
0.14166668 0.297258 0.08664216
0.16691177 0.29607844 0.081985295
0.18717831 0.29566485 0.08046875
0.21819854 0.30202207 0.07717525
0.2444087 0.30392158 0.07683824
0.27389708 0.30392158 0.0721201
0.31850493 0.3061734 0.06632966
0.35710788 0.31436887 0.06632966
0.39551163 0.31530333 0.061274514
0.44411767 0.32303923 0.05931373
0.4976716 0.3322304 0.056770835
0.54451597 0.33483458 0.05435049
0.58579963 0.34601715 0.05304841
0.6279412 0.34944853 0.049509805
0.68033093 0.3609069 0.04901961
0.72352946 0.36593136 0.049264707
0.764277 0.37749693 0.052864585
0.795098 0.38345587 0.053553924
0.8314644 0.39685968 0.059558824
0.86084557 0.41155022 0.06963849
0.88679534 0.4318168 0.08431373
0.9090073 0.45042893 0.101776965
0.9320925 0.47970283 0.13285847
0.9500919 0.50873166 0.17132354
0.95649505 0.54122245 0.21392462
0.9647059 0.68333334 0.3848039
0.056617647 0.34191176 0.121936284
0.062706806 0.3407667 0.121936284
0.07715993 0.3379902 0.121200986
0.08909697 0.3379902 0.11691177
0.10301777 0.33895528 0.114414826
0.113568485 0.34447 0.11454887
0.13480394 0.34717372 0.1136106
0.15598193 0.34583333 0.11066177
0.1754902 0.34518996 0.10407476
0.19766009 0.34239048 0.09974341
0.22532935 0.34191176 0.09765625
0.25156632 0.35367647 0.09745328
0.289231 0.35367647 0.093887866
0.32708335 0.35367647 0.08903569
0.3656863 0.3546339 0.08514859
0.40304458 0.3615196 0.08186275
0.45355392 0.36893383 0.07990196
0.51053923 0.37118185 0.07328432
0.5526655 0.3787454 0.07220435
0.59716606 0.3842984 0.07009804
0.6370558 0.3877298 0.06731005
0.680599 0.39784774 0.06620328
0.72181374 0.40442708 0.06636796
0.7641697 0.41425017 0.06889553
0.80110294 0.42034313 0.06878064
0.8315181 0.43632048 0.07642081
0.86127454 0.44988513 0.08481158
0.88700986 0.46323532 0.09758349
0.91029406 0.4834559 0.116789214
0.93455887 0.5091912 0.14669119
0.95143235 0.5381128 0.18349418
0.95657545 0.5681373 0.22904412
0.9647059 0.6901961 0.3882353
0.06764706 0.38357845 0.14338236
0.07622549 0.38088235 0.14215687
0.086044736 0.38088235 0.14165135
0.10110295 0.38191637 0.13870253
0.11351103 0.3875919 0.13731618
0.12549786 0.39080882 0.13639706
0.14361215 0.3887255 0.13210785
0.16050091 0.38792127 0.12862286
0.1800858 0.38547796 0.124754906
0.20514706 0.38480392 0.122740515
0.23846507 0.38480392 0.11634497
0.2661382 0.39181983 0.11470588
0.2994179 0.39656863 0.113878675
0.3353937 0.39656863 0.10782016
0.37303922 0.39656863 0.10479473
0.41263786 0.39985448 0.099249385
0.46274507 0.40845588 0.097058825
0.5160539 0.4122549 0.09166667
0.55396754 0.41309744 0.0884804
0.60229784 0.42190564 0.085416675
0.6346814 0.4285539 0.08691789
0.68998164 0.4317785 0.08464308
0.7301624 0.44042584 0.08226103
0.76734835 0.4488128 0.084980085
0.79773283 0.4595588 0.0882353
0.8343137 0.47258732 0.09294578
0.86004907 0.48132658 0.10093444
0.8864354 0.49636182 0.11311275
0.91029406 0.5148591 0.13011642
0.93455887 0.5383349 0.15867801
0.95392156 0.5669118 0.19364277
0.9568627 0.5947151 0.23884803
0.9647059 0.6938726 0.3894608
0.08002451 0.4269608 0.16642158
0.08905101 0.42681143 0.16235065
0.10239737 0.42536765 0.16060816
0.11352252 0.4268842 0.15886566
0.124371946 0.43075982 0.15684743
0.13796723 0.4319087 0.1543007
0.15199909 0.4332108 0.15265013
0.1700406 0.43168274 0.15023744
0.1949755 0.42968747 0.14620098
0.22071078 0.4292892 0.14191177
0.24793965 0.4292892 0.13762255
0.27926242 0.42725185 0.1334061
0.3062347 0.43687195 0.1315717
0.34851027 0.44105393 0.12867647
0.3833027 0.44105393 0.124387264
0.42135802 0.44170114 0.119152114
0.46832108 0.44730395 0.11580883
0.5133923 0.45479858 0.11246554
0.5588312 0.458341 0.10992647
0.60369563 0.46031326 0.105618104
0.64489895 0.46881127 0.104411766
0.6897557 0.4761489 0.104411766
0.7337546 0.47693014 0.09845282
0.76825976 0.4866575 0.103067555
0.8002451 0.49436277 0.10499387
0.8348039 0.5053922 0.10998391
0.86053926 0.5182598 0.11960784
0.8858188 0.5332108 0.12942326
0.90969664 0.5479167 0.1439951
0.93455887 0.5664216 0.16960785
0.95392156 0.5890625 0.20471047
0.9583065 0.61655945 0.25301012
0.96629906 0.705147 0.3969363
0.0882353 0.4764706 0.19019608
0.09754902 0.47628677 0.1860907
0.113235295 0.4741422 0.18394607
0.12291667 0.47365198 0.18180147
0.13578433 0.4764706 0.17965686
0.14865197 0.47922796 0.17751226
0.16482843 0.48125 0.1764706
0.18412991 0.48039216 0.1726103
0.20784314 0.4789216 0.16911766
0.2286152 0.4784314 0.16531864
0.2589461 0.47659314 0.16102941
0.29295343 0.4764706 0.1567402
0.32230395 0.47794122 0.15294118
0.36305147 0.4882353 0.15165442
0.4019608 0.4882353 0.1452206
0.43786764 0.48903188 0.1403799
0.48039216 0.4901961 0.13627452
0.5275736 0.49485296 0.13216913
0.5707108 0.50208336 0.13002451
0.6145221 0.50545347 0.12481618
0.6595589 0.50759804 0.12181373
0.7026961 0.5154412 0.119669124
0.73357844 0.5235294 0.121568635
0.771875 0.52567405 0.121875
0.80735296 0.5372549 0.12352942
0.8375 0.54197305 0.12689951
0.86323535 0.55355394 0.1367647
0.8868873 0.56415445 0.1463848
0.9107843 0.5767157 0.16078432
0.93511033 0.59589463 0.18639706
0.95392156 0.6115196 0.2180147
0.9604167 0.638603 0.26795346
0.9686275 0.7156863 0.40588236
0.103431374 0.523652 0.21164216
0.114487596 0.5234337 0.20983073
0.124946386 0.5210248 0.207284
0.13696767 0.52107465 0.20539215
0.15098041 0.52450985 0.20392157
0.16384804 0.5234184 0.19963235
0.18333334 0.52128524 0.19534314
0.20134804 0.5205883 0.19105393
0.21780024 0.5188419 0.18970588
0.23775658 0.5261183 0.19032629
0.27009806 0.52608 0.1845818
0.30424327 0.523652 0.18021983
0.33342525 0.52424943 0.17809437
0.37060738 0.5284314 0.17230392
0.41654414 0.5284314 0.1637255
0.45386797 0.5322151 0.16022518
0.48780638 0.5377451 0.15906863
0.53709793 0.53869104 0.15238205
0.58273596 0.5426241 0.14939491
0.62767696 0.5441177 0.14401425
0.66024816 0.55366117 0.14532782
0.70159316 0.55502456 0.14191177
0.73340225 0.5613971 0.14468443
0.7747626 0.5635991 0.14104627
0.81038606 0.57549024 0.1449755
0.8378677 0.58008194 0.14767158
0.86462164 0.5878294 0.15421262
0.8891927 0.5940066 0.1622549
0.9127451 0.6055147 0.17757353
0.9373353 0.6236941 0.20318627
0.9543581 0.6392157 0.23321079
0.9604167 0.65919125 0.28100494
0.9686275 0.7262255 0.41482845
0.11519609 0.56004906 0.23308823
0.12255668 0.57071847 0.23541668
0.13431373 0.56910235 0.23112744
0.14718138 0.5669118 0.22794119
0.16004904 0.5669118 0.22647059
0.17291668 0.56633735 0.22218138
0.18785232 0.56416976 0.21789217
0.20940563 0.56299025 0.21537223
0.22800246 0.5620711 0.21292892
0.25602022 0.56590074 0.21101409
0.27984068 0.5641391 0.20595895
0.31614584 0.5627451 0.19901961
0.34831497 0.5640932 0.19871324
0.37683824 0.5735294 0.19485295
0.4240196 0.5726869 0.1862745
0.46223956 0.5739201 0.18187806
0.4982843 0.57843137 0.1807598
0.5474265 0.57843137 0.17352942
0.5946079 0.57843137 0.16848959
0.62704504 0.58685666 0.16783854
0.664951 0.5935049 0.16531864
0.7049863 0.59411764 0.16376379
0.73699445 0.5946232 0.16104473
0.7760187 0.60297185 0.16165748
0.81415445 0.6071079 0.16305147
0.8376915 0.611152 0.1637255
0.86573225 0.62187505 0.17241116
0.88942254 0.62690717 0.18177849
0.91106004 0.6345282 0.19246323
0.9377221 0.6506358 0.21605392
0.95465684 0.66714156 0.248269
0.9604167 0.6778493 0.29412532
0.9686275 0.7294117 0.41960785
0.12990198 0.6023285 0.25453433
0.14105393 0.6057598 0.25502452
0.15219823 0.605599 0.25130975
0.15845972 0.60490197 0.24975108
0.17352942 0.60490197 0.24837625
0.18639708 0.6034659 0.24791667
0.20443474 0.60824907 0.24535081
0.22558594 0.6112247 0.24296492
0.24362746 0.6101716 0.2389706
0.26367956 0.6101716 0.23468137
0.29286152 0.6093674 0.23039216
0.33071768 0.60625005 0.22527191
0.3606465 0.60667896 0.22153799
0.39922258 0.60968137 0.21513097
0.4353937 0.6094133 0.20990348
0.48044962 0.61415064 0.20661765
0.5142157 0.6219363 0.20465687
0.5559858 0.6219363 0.19985831
0.60441184 0.6219363 0.19311428
0.6349342 0.62461704 0.19160156
0.6782016 0.62536764 0.18760723
0.71195626 0.6342716 0.1870098
0.74534315 0.63471967 0.18314186
0.780059 0.63713235 0.18394609
0.81415445 0.63943017 0.18373162
0.839951 0.64615506 0.18473116
0.86557907 0.6509804 0.19167432
0.88741195 0.65714234 0.19910769
0.912209 0.66217834 0.21007966
0.9382391 0.67891777 0.23064491
0.9571461 0.694447 0.2671109
0.9634804 0.7003677 0.3104588
0.9686275 0.7355392 0.428799
0.14019608 0.64950985 0.28284314
0.15306373 0.64950985 0.27904415
0.1637255 0.64950985 0.27549022
0.16717218 0.64950985 0.27535233
0.18167892 0.6482231 0.27518383
0.19829963 0.6458487 0.27365196
0.21574755 0.6466912 0.2696385
0.2423407 0.64722735 0.26556376
0.2642157 0.6444853 0.26127455
0.28137258 0.64362746 0.2569853
0.3164522 0.64362746 0.24947917
0.34436274 0.6431373 0.24840687
0.37254903 0.6431373 0.24362746
0.417693 0.64538914 0.23665747
0.4513174 0.6534314 0.23612131
0.4856771 0.654228 0.23299631
0.52450985 0.65539217 0.22696078
0.5642157 0.65539217 0.22063419
0.60119486 0.65539217 0.21697304
0.64378065 0.65539217 0.21130516
0.68216914 0.66439956 0.209375
0.7161918 0.6671109 0.20931372
0.7412684 0.6671569 0.2051777
0.79005826 0.6687653 0.20249695
0.8128677 0.6769608 0.20625
0.8373774 0.6753217 0.20899203
0.8652574 0.68014705 0.2127451
0.8886183 0.68494177 0.21924019
0.9127451 0.6882353 0.22659314
0.9384804 0.70526963 0.24892771
0.9578431 0.7119792 0.28265932
0.96433824 0.71580887 0.3242647
0.9686275 0.74754906 0.43480393
0.15257354 0.6890932 0.31666666
0.16817173 0.6890932 0.31273362
0.17135417 0.6890932 0.31191027
0.18807828 0.6890932 0.30775505
0.20514706 0.6876226 0.3035999
0.22230391 0.6851716 0.29938728
0.23946078 0.6851716 0.29509807
0.25693935 0.6851716 0.29080886
0.27426472 0.6850797 0.2893689
0.29462698 0.68504906 0.28602943
0.337883 0.68504906 0.27806374
0.36102942 0.68125004 0.273652
0.38921568 0.68125004 0.26887256
0.43218827 0.68133044 0.26200983
0.4617341 0.68517923 0.26200983
0.4955193 0.69301474 0.2603669
0.5349878 0.69301474 0.2522059
0.5744562 0.6952704 0.24855623
0.618773 0.69681376 0.24477635
0.65042514 0.69681376 0.23924248
0.6856771 0.69713545 0.23835783
0.724146 0.6935011 0.23099723
0.7442403 0.708341 0.2341912
0.79509807 0.70483685 0.22994025
0.8165441 0.70511645 0.22781862
0.84199214 0.70763636 0.23206572
0.871132 0.71278346 0.23632812
0.8926471 0.7169616 0.2427045
0.9141697 0.72536767 0.2512255
0.9384804 0.73147976 0.26843598
0.9578431 0.7419807 0.29950982
0.96433824 0.7407859 0.3409314
0.9686275 0.75661767 0.4466912
0.18553922 0.7159314 0.33529413
0.1870098 0.7159314 0.3349265
0.20122549 0.7159314 0.33137256
0.20563725 0.7158625 0.3302696
0.2227941 0.7156863 0.32588848
0.23949142 0.7156863 0.32328433
0.25598958 0.71389407 0.32135418
0.27320006 0.71250004 0.3176011
0.29632354 0.71250004 0.3134804
0.31254596 0.7218061 0.31518844
0.3342218 0.72352946 0.31178004
0.37794116 0.72352946 0.30035233
0.4037071 0.72352946 0.30315566
0.43453583 0.72352946 0.29715076
0.47823223 0.72352946 0.2873468
0.5066407 0.72352946 0.2827206
0.5482843 0.723652 0.2781863
0.58774513 0.72377455 0.273652
0.62864584 0.72377455 0.2670037
0.65304077 0.7327742 0.2647059
0.6891238 0.7352941 0.26449144
0.73210025 0.7352941 0.25686276
0.7548867 0.7352941 0.25660235
0.787209 0.7364047 0.25330883
0.8117647 0.74252456 0.25661767
0.84289986 0.7416284 0.2579657
0.8675092 0.74232537 0.26053923
0.88909316 0.74658394 0.26288298
0.91268384 0.7494179 0.27444854
0.9384115 0.7537991 0.29406404
0.954856 0.76704955 0.31862748
0.96754754 0.762523 0.35791206
0.972549 0.7656863 0.4519608
