StreetStamps/fuji_classic_chrome.cube
#Generated by PennL1
#小红书号：PennL1
#公众号：胶片感
#闲鱼号：LOOK胶片感
TITLE Standard-CLASSIC-CHROME
LUT_3D_SIZE 33
0.0 0.0 0.0
0.0003676471 0.0 0.0
0.004656863 0.0 0.0
0.011151961 0.0 0.0
0.025490198 0.0 0.0
0.04264706 0.0 0.0
0.062009804 0.0 0.0
0.08345588 0.0 0.0025735295
0.10784314 0.0 0.003921569
0.13688725 0.0033088238 0.003921569
0.17426471 0.003921569 0.003921569
0.2127451 0.007843138 0.004044118
0.24901961 0.008333334 0.007843138
0.29963237 0.011764706 0.008700981
0.34681374 0.012990196 0.011764706
0.39558825 0.01887255 0.013357843
0.45098037 0.025490196 0.01764706
0.5110294 0.032107845 0.021936275
0.55759805 0.037990198 0.02622549
0.6084559 0.05147059 0.033578433
0.64362746 0.06176471 0.03529412
0.6888481 0.07034314 0.042892158
0.72745097 0.087254904 0.051715687
0.76115197 0.10502451 0.063970596
0.7921569 0.12745099 0.073529415
0.82781863 0.15453433 0.0877451
0.8629902 0.18455882 0.10661765
0.89509803 0.22083333 0.1259804
0.92696077 0.26862746 0.15539217
0.95416665 0.33137256 0.19681373
0.957598 0.4031863 0.24289218
0.9568627 0.472549 0.2794118
0.9529412 0.6627451 0.43137252
0.0 0.0007352942 0.0
0.0003676471 0.000402114 0.0
0.005392157 0.0007352942 0.0
0.01517693 0.0007352942 0.0
0.029641546 0.0020680148 0.0
0.046740964 0.0044615506 0.0
0.066712625 0.004656863 0.0
0.09081265 0.004656863 0.0002412684
0.11936276 0.0075980397 0.0030330885
0.14638864 0.008578432 0.003921569
0.18987438 0.012254902 0.003921569
0.22288221 0.016433058 0.004400276
0.2737745 0.017279413 0.008333334
0.32781863 0.022426471 0.011764706
0.375 0.028668812 0.011879596
0.4194432 0.030664062 0.013576134
0.46654412 0.037132356 0.01764706
0.51910233 0.045492496 0.021936275
0.56947 0.056364894 0.02622549
0.6084559 0.06605393 0.030514708
0.6496324 0.07806373 0.034803923
0.68219596 0.09093137 0.042892158
0.7188955 0.104411766 0.05147059
0.7535539 0.122123934 0.06066177
0.7878677 0.14325981 0.073529415
0.82487744 0.16740197 0.0877451
0.8609069 0.19914216 0.10490196
0.8910042 0.23742723 0.12414216
0.9252604 0.28504902 0.15294118
0.953799 0.3426854 0.1957108
0.95752907 0.41190258 0.24319088
0.9568627 0.4740196 0.27944624
0.9529412 0.6627451 0.43137252
0.0 0.008578432 0.0
0.0004365809 0.006426165 0.0
0.006127451 0.009313726 0.0
0.016704962 0.009313726 0.0
0.032414217 0.009589462 0.0
0.049877454 0.011542587 0.0
0.07532169 0.013235294 0.0
0.100359984 0.013717831 0.0020909926
0.12794119 0.016360294 0.0031862748
0.1585861 0.017777268 0.003806679
0.19676778 0.022257967 0.003921569
0.24112284 0.025880821 0.007843138
0.28354782 0.03079044 0.008333334
0.3358226 0.03529412 0.011764706
0.38357845 0.04264706 0.012990196
0.43205422 0.048529413 0.015686275
0.48431373 0.057107847 0.01764706
0.5290059 0.06379443 0.021936275
0.56809133 0.071078435 0.025719976
0.60589004 0.07965687 0.030353863
0.6456189 0.09102329 0.034803923
0.687523 0.104511335 0.042892158
0.71127456 0.12087929 0.05147059
0.74937963 0.13861062 0.06066177
0.7841299 0.15649511 0.073529415
0.8205883 0.18148744 0.0877451
0.85758275 0.21306679 0.105223656
0.889637 0.24948683 0.124486834
0.92276347 0.29509807 0.15294118
0.9502451 0.35731465 0.1957108
0.9568627 0.42254898 0.24607845
0.9568627 0.48333332 0.28111216
0.9529412 0.6627451 0.43284312
0.0 0.01617647 0.0
0.0017348347 0.018995099 0.0
0.009727329 0.0192019 0.0
0.021511182 0.02009804 0.0
0.03728554 0.021568628 0.0
0.057352945 0.024019608 0.0
0.0810049 0.024019608 0.0
0.107464 0.026593138 0.0
0.13651961 0.028768383 0.0
0.17078355 0.03235294 0.0033088238
0.21262254 0.03928462 0.003921569
0.24891622 0.039916515 0.007843138
0.29675248 0.04685968 0.008333334
0.34473807 0.05122932 0.011764706
0.39325982 0.05772059 0.012990196
0.4386489 0.06360294 0.015686275
0.48321077 0.071629904 0.01764706
0.5303922 0.07965686 0.021281404
0.56678927 0.0882353 0.023184743
0.608207 0.09853708 0.029656865
0.64142156 0.107598044 0.034803923
0.6801126 0.12163757 0.042892158
0.7102942 0.13718598 0.05153952
0.74872476 0.1565449 0.06176471
0.7838848 0.17371324 0.07435662
0.816299 0.20149356 0.0877451
0.8574755 0.23285846 0.10661765
0.8910004 0.2687232 0.12656635
0.9219822 0.31128985 0.15335478
0.9502451 0.36997548 0.1957108
0.9568627 0.4343137 0.2451823
0.9568627 0.49509805 0.28678387
0.9529412 0.664951 0.44031864
0.0 0.033333335 0.0
0.004564951 0.0334712 0.0
0.0134497555 0.03526348 0.0
0.029411765 0.037254903 0.0
0.04564951 0.03872549 0.0
0.06311275 0.04117647 0.0
0.08759192 0.042003676 0.0
0.11461397 0.04522059 0.0
0.1447304 0.049509805 0.0011029413
0.18298101 0.053799022 0.0035386032
0.2254902 0.058088236 0.003921569
0.26580885 0.058455884 0.007843138
0.30667892 0.063541666 0.008333334
0.36104473 0.07340687 0.011764706
0.4007966 0.078155644 0.012990196
0.44197303 0.085049026 0.015686275
0.48333335 0.09240197 0.01764706
0.5270221 0.09888174 0.019607844
0.56507355 0.107873775 0.023314951
0.6026808 0.12074143 0.029978557
0.63817406 0.13039216 0.034803923
0.6758732 0.14039522 0.042892158
0.71446085 0.16118261 0.051623777
0.752451 0.17719057 0.06311275
0.7845589 0.19693628 0.0757353
0.8139399 0.22251838 0.088710174
0.8531863 0.2531863 0.10661765
0.88970596 0.28737748 0.12728249
0.92156863 0.3259804 0.1538603
0.9498315 0.3814951 0.1957108
0.9568627 0.44344363 0.24408703
0.9568627 0.5010111 0.28665748
0.9529412 0.67058825 0.44313726
0.0018382354 0.054166667 0.0
0.008528646 0.054534316 0.0
0.020075062 0.058088236 0.0
0.035539217 0.058088236 0.0
0.05269608 0.05886949 0.0
0.071691185 0.061033245 0.0
0.096515015 0.06318168 0.0
0.124207266 0.06666667 0.0012063419
0.15499388 0.07095589 0.0034007356
0.19391468 0.075245105 0.003921569
0.23824297 0.081257656 0.003921569
0.27928925 0.0817402 0.007843138
0.31916362 0.086519614 0.008103554
0.36615735 0.09383808 0.010328585
0.40351564 0.09791667 0.012990196
0.4435815 0.106495105 0.015686275
0.48639706 0.11507353 0.01764706
0.52863055 0.12241499 0.019607844
0.56737137 0.13284314 0.023736214
0.60430837 0.14408319 0.030112594
0.641008 0.15306373 0.034803923
0.67715615 0.16544119 0.042892158
0.71017164 0.18247549 0.05147059
0.7481618 0.19685586 0.06066177
0.7819547 0.21991421 0.07450981
0.814074 0.24289218 0.08968674
0.8488971 0.27034315 0.104779415
0.8854167 0.30453435 0.12511873
0.91842836 0.34428617 0.15294118
0.94914216 0.3965265 0.1957108
0.9568627 0.45294115 0.24607845
0.9568627 0.506813 0.29021907
0.9529412 0.67058825 0.44313726
0.0061274515 0.08210784 0.0
0.014912684 0.0824755 0.0
0.026547182 0.08602941 0.0
0.042532172 0.08602941 0.0
0.061274514 0.08602941 0.0
0.079235606 0.088901654 0.0
0.10419731 0.092156865 0.0
0.13700981 0.09328278 0.0011259192
0.16838236 0.09846814 0.0033700983
0.2031633 0.10144761 0.003921569
0.24877453 0.10700062 0.003921569
0.28786767 0.10754442 0.005706189
0.3269608 0.11446079 0.007843138
0.36985296 0.12180607 0.008700981
0.40998775 0.1259804 0.012300858
0.44561887 0.13455883 0.014376532
0.4887255 0.14203432 0.01764706
0.53197765 0.14950982 0.019607844
0.5656863 0.16078432 0.022303922
0.60490197 0.17365196 0.029656865
0.6375 0.1811581 0.034803923
0.6789216 0.1932598 0.042892158
0.7058824 0.20640317 0.05147059
0.7438726 0.22455576 0.06066177
0.7776348 0.24460785 0.07395834
0.8112209 0.26521906 0.08828125
0.84708947 0.29315257 0.10393689
0.8811274 0.3237592 0.12414216
0.9154412 0.3627451 0.15294118
0.94693625 0.41285998 0.19729628
0.9564491 0.46634495 0.24828433
0.9568627 0.5236903 0.296201
0.9529412 0.675 0.44313726
0.010416667 0.112132356 0.0
0.019362746 0.11274128 0.0
0.032230392 0.11862746 0.0
0.047303922 0.11862746 0.0
0.06727941 0.11862746 0.0
0.08684896 0.11989124 0.0
0.11556373 0.12421876 0.0
0.14649971 0.1264706 0.0
0.1780331 0.12849265 0.0029411768
0.20983839 0.1335095 0.003921569
0.25477943 0.13557751 0.003921569
0.293953 0.14089309 0.004044118
0.33553922 0.14480698 0.007843138
0.37617955 0.15421645 0.008138021
0.4101486 0.1577206 0.009995405
0.45269608 0.16525353 0.013357843
0.4947304 0.1716299 0.01764706
0.53436357 0.18106236 0.021135878
0.56911767 0.18984376 0.024877451
0.60230166 0.20110294 0.030219825
0.6399663 0.21161152 0.034803923
0.67238057 0.22414218 0.042892158
0.7067402 0.23975183 0.051631436
0.74352413 0.2557598 0.06283319
0.7709865 0.2722733 0.073529415
0.80698526 0.29154414 0.0877451
0.8436045 0.32097888 0.103776045
0.87563187 0.3502451 0.12293582
0.9159773 0.38440567 0.15615809
0.9466682 0.43197381 0.20182675
0.9561274 0.48382357 0.25257352
0.9568627 0.5377375 0.3004902
0.9529412 0.6784314 0.44313726
0.01764706 0.15392157 0.0
0.02981005 0.15382966 0.0
0.04534314 0.15294118 0.0
0.059589464 0.15294118 0.0
0.07855392 0.15514706 0.0
0.101225495 0.15882353 0.0
0.12806372 0.15992647 0.0
0.15851717 0.15885417 0.0
0.18995099 0.1622549 0.0007352941
0.2227022 0.16537991 0.0009803921
0.26237747 0.16568628 0.0037377453
0.3012255 0.17362133 0.004044118
0.34411767 0.17794117 0.007843138
0.38422182 0.1882353 0.0084865205
0.41746324 0.1916054 0.011090687
0.459038 0.20061275 0.013357843
0.49901962 0.20686275 0.01764706
0.5372549 0.21427695 0.021936275
0.56685054 0.22340688 0.02622549
0.6051471 0.23566177 0.030514708
0.64031863 0.24338236 0.034803923
0.6754596 0.25551474 0.045741424
0.705147 0.2695466 0.051715687
0.7426777 0.2857843 0.064430155
0.7745098 0.30269608 0.07647059
0.8084865 0.32012868 0.08967525
0.8425858 0.34436274 0.10575981
0.8748468 0.37438726 0.12818629
0.9142157 0.40502453 0.16004902
0.9444853 0.4516238 0.20143995
0.95557594 0.49914217 0.2533701
0.9568627 0.5495098 0.30450368
0.9529412 0.6843138 0.44313726
0.02622549 0.19448529 0.0
0.03977099 0.19111903 0.0
0.058570776 0.19242494 0.0
0.071714155 0.1995596 0.0
0.09385723 0.19764093 0.0
0.11507353 0.19840686 0.0
0.14267005 0.19654566 0.0
0.17282858 0.20121017 0.0
0.19810049 0.20533088 0.0
0.23257121 0.20563726 0.0
0.27107844 0.20563726 0.0036764708
0.30990735 0.21680836 0.004044118
0.3555913 0.21887255 0.008256741
0.3930147 0.22916669 0.011285999
0.4277497 0.22974113 0.0127987135
0.46838617 0.23528646 0.016666668
0.50661767 0.24381128 0.01930147
0.54448533 0.2523361 0.021936275
0.5740886 0.25788146 0.02622549
0.6058364 0.2676471 0.030514708
0.63639706 0.273652 0.034803923
0.67401963 0.28874466 0.04669118
0.70065105 0.30196083 0.055024512
0.73553914 0.31860065 0.06737516
0.76985294 0.3329657 0.07745098
0.80395603 0.35012254 0.09031863
0.8381357 0.37242648 0.10661765
0.8703853 0.39717755 0.13014707
0.9099265 0.42461705 0.16078432
0.94257426 0.4704159 0.20311351
0.9553921 0.51837474 0.25649512
0.9538641 0.5599992 0.308701
0.9529412 0.6862745 0.44975492
0.038480394 0.24779414 0.0
0.051393997 0.24754903 0.00034466916
0.065349266 0.24699757 0.0036764708
0.08431372 0.2445389 0.0036764708
0.10710785 0.24298407 0.0036764708
0.12621783 0.24585631 0.001953125
0.1542739 0.25157782 0.0020680148
0.18831955 0.24954046 0.0036764708
0.21648285 0.24852943 0.0036764708
0.25208333 0.24852943 0.006778493
0.29068628 0.2588695 0.007582721
0.32206652 0.26029414 0.0077205887
0.36516547 0.26176473 0.011550246
0.40526962 0.27205884 0.011764706
0.4401961 0.27320775 0.012990196
0.47951135 0.28051472 0.017279413
0.5096814 0.28762257 0.019607844
0.54858303 0.29473042 0.02411918
0.5830883 0.3020374 0.032429535
0.61311275 0.31237748 0.03786765
0.63992035 0.31838238 0.045373775
0.6770834 0.33050707 0.054159008
0.707353 0.33604473 0.06276042
0.7399433 0.3497166 0.07099418
0.764951 0.36574754 0.07745098
0.80179226 0.38141084 0.09284621
0.8393229 0.40130207 0.11397059
0.8733915 0.4247319 0.13750002
0.9097733 0.45456496 0.16583946
0.9387255 0.4934896 0.20458792
0.9547028 0.5367188 0.260095
0.9533088 0.57943475 0.3096584
0.9529412 0.689951 0.45098042
0.05526961 0.29914218 0.007965687
0.07170267 0.29533166 0.0074869795
0.08186275 0.2952206 0.004044118
0.099054076 0.29425552 0.005112592
0.11776961 0.29174328 0.007843138
0.1446155 0.2916667 0.007843138
0.17218137 0.28952974 0.007843138
0.20126761 0.29526657 0.007843138
0.23287377 0.29914218 0.007843138
0.2597848 0.29914218 0.007946539
0.30013022 0.29948685 0.007965687
0.3422794 0.31090304 0.011887255
0.37377453 0.31078434 0.0119025735
0.41409314 0.31086475 0.012867647
0.44411764 0.31471357 0.017156864
0.48036537 0.32259881 0.021446079
0.5196692 0.3228554 0.025735294
0.54987746 0.32980624 0.032352943
0.579902 0.3370481 0.038235296
0.61883044 0.34752223 0.045492496
0.6479167 0.3534467 0.050719976
0.67400813 0.36543733 0.058704816
0.7004826 0.36678922 0.06348805
0.7383196 0.3838695 0.07277498
0.7724265 0.3977635 0.08553922
0.8053921 0.4102903 0.101060815
0.8355239 0.43492645 0.1207644
0.8697227 0.45227864 0.14007354
0.90575975 0.47673097 0.16879596
0.9372549 0.51507354 0.20887715
0.9545343 0.5515932 0.2643842
0.9532973 0.5892387 0.3173905
0.9529412 0.6904412 0.45122552
0.06960785 0.33970588 0.011764706
0.08550858 0.33933824 0.00882353
0.09990809 0.33578432 0.00882353
0.11790748 0.3385417 0.00882353
0.1391544 0.34430146 0.00882353
0.16128983 0.3428462 0.00882353
0.1859375 0.34335172 0.009099266
0.21360293 0.34088543 0.009313726
0.25134805 0.33970588 0.009313726
0.2839461 0.3392923 0.012208946
0.3204044 0.34886643 0.0132046575
0.3504289 0.35087317 0.016697304
0.38363972 0.34754902 0.018075982
0.4227788 0.34980085 0.021829044
0.4531863 0.35784316 0.02588848
0.4846048 0.35983458 0.030315563
0.52254903 0.36789218 0.034558825
0.5584559 0.37303922 0.041130517
0.5884804 0.37405026 0.046813726
0.6185049 0.3852328 0.05148591
0.64509803 0.3886642 0.058455884
0.6808058 0.4034467 0.06358763
0.707353 0.40536153 0.07230392
0.740671 0.41968444 0.08455883
0.7692402 0.42389706 0.09411765
0.80143994 0.44085476 0.10850184
0.8351103 0.45811886 0.12726717
0.86951596 0.48046875 0.1484222
0.902451 0.5033701 0.17469363
0.9335938 0.53693324 0.21897979
0.95073533 0.57264096 0.27058822
0.9529412 0.6037531 0.32561272
0.9529412 0.6990196 0.4593137
0.0944853 0.3920343 0.014338235
0.104783244 0.3917471 0.017401962
0.12290902 0.38880974 0.017401962
0.14045267 0.38725108 0.017401962
0.15942097 0.3860141 0.017723653
0.17472044 0.39193094 0.018259805
0.2067402 0.39460784 0.01998315
0.24022289 0.39289215 0.02132353
0.26936275 0.39224875 0.02132353
0.29938728 0.3894493 0.022047335
0.33182445 0.38897058 0.025053617
0.35932904 0.4007085 0.026321232
0.40133274 0.39987746 0.033088237
0.43277803 0.39987746 0.03327589
0.46519607 0.39987746 0.035860907
0.4952206 0.4046569 0.04042203
0.53155637 0.4116422 0.044852942
0.5678922 0.4116422 0.05110294
0.59555763 0.4179611 0.055392157
0.6265204 0.4228439 0.06207491
0.65142465 0.42608765 0.06510417
0.67933136 0.43620557 0.072916664
0.7056373 0.44358915 0.080882356
0.7400276 0.45322075 0.093137264
0.7724571 0.46164218 0.102696076
0.8006357 0.47602636 0.11767004
0.8346814 0.49216455 0.13530944
0.8688726 0.50759804 0.15539217
0.90502447 0.5315717 0.1816636
0.9343176 0.5612745 0.22621784
0.95073533 0.59129906 0.27900583
0.9529412 0.62487745 0.33341375
0.9529412 0.7058824 0.4627451
0.11715686 0.43186274 0.025980392
0.12854627 0.43186274 0.026095282
0.14048715 0.43112746 0.027205883
0.16096048 0.4289752 0.027205883
0.1789522 0.43465072 0.028216913
0.19951746 0.43913144 0.02990196
0.22703737 0.43696386 0.02990196
0.253148 0.4349801 0.03070619
0.2813113 0.43253678 0.031127451
0.31164217 0.43186274 0.034436274
0.34924942 0.43071386 0.03504902
0.3809666 0.4387561 0.039054845
0.41029415 0.43970588 0.041666668
0.44375 0.43970588 0.042792585
0.47377452 0.43970588 0.046813726
0.5037991 0.44249386 0.048406865
0.5392157 0.4490196 0.054656863
0.57463235 0.45074296 0.06017923
0.59808517 0.4502451 0.064813115
0.6304841 0.45752144 0.06948529
0.65150124 0.46277577 0.07720588
0.684061 0.46584713 0.085784316
0.7139859 0.47817096 0.090609685
0.74320626 0.4834942 0.10171569
0.7683211 0.49656865 0.11127451
0.80036765 0.508004 0.124563426
0.8303922 0.5193168 0.14059436
0.8645834 0.53578436 0.1627451
0.9007353 0.5555454 0.19093136
0.9322304 0.58272064 0.23311122
0.95050555 0.61274517 0.2870098
0.9529412 0.6429917 0.3392157
0.9529412 0.7083334 0.4627451
0.13651961 0.4747549 0.03615196
0.14765626 0.47460553 0.03637025
0.16659774 0.47272518 0.038480394
0.18272442 0.47279796 0.038480394
0.20208333 0.4772212 0.038480394
0.22400811 0.47737437 0.038480394
0.24436274 0.4786765 0.04027267
0.26857004 0.47610295 0.043194704
0.30208334 0.4747549 0.043995097
0.33308825 0.47341067 0.04595971
0.36460632 0.47097886 0.049310666
0.3968367 0.47105163 0.051838238
0.42086396 0.47841606 0.051838238
0.45745635 0.48224956 0.053553924
0.4867341 0.48100492 0.059681375
0.5130247 0.480059 0.061921727
0.54399514 0.48333332 0.067524515
0.5740196 0.48944548 0.070798874
0.60454965 0.4904412 0.07683824
0.6329849 0.49226028 0.08235294
0.65906864 0.49888176 0.09007353
0.68480396 0.50592834 0.09556526
0.7175782 0.5088925 0.10181526
0.74386877 0.5165518 0.11213619
0.7696385 0.52469367 0.12224265
0.8008578 0.535972 0.13461627
0.8308824 0.55036765 0.15110295
0.8625345 0.56531864 0.16937424
0.8964461 0.58002454 0.19681372
0.92908627 0.6030216 0.23978631
0.95 0.63000923 0.2939951
0.9529412 0.6566598 0.3476448
0.9529412 0.7153187 0.4659314
0.15490197 0.5176471 0.04901961
0.1704657 0.51727945 0.049387254
0.19117647 0.5137255 0.05294118
0.2088848 0.5153799 0.05294118
0.22671568 0.5181373 0.05294118
0.24448529 0.51844364 0.05294118
0.26703432 0.52046573 0.05514706
0.29191178 0.5183211 0.05686275
0.32205886 0.5176471 0.058333337
0.3476103 0.51433825 0.058823533
0.38039213 0.5137255 0.06433824
0.41243872 0.51366425 0.06476716
0.4375 0.51323533 0.06666667
0.47352943 0.5231005 0.06795344
0.50416666 0.52156866 0.07254902
0.52720594 0.52156866 0.0757353
0.554902 0.5205883 0.08039216
0.5849265 0.5231005 0.083884805
0.6122549 0.52953434 0.09031863
0.6410539 0.53137255 0.09522059
0.66764706 0.53308827 0.101225495
0.6933824 0.5409314 0.1038603
0.717402 0.5470588 0.114338234
0.74712014 0.548897 0.12506127
0.775 0.5593138 0.13480392
0.80287987 0.56482846 0.14528187
0.8324755 0.5759804 0.16286765
0.863603 0.58768386 0.18204658
0.89607847 0.6014706 0.20931372
0.92757356 0.62279415 0.24920344
0.94963235 0.6453432 0.30061275
0.9529412 0.6721201 0.35600492
0.9529412 0.72156864 0.47254902
0.18492648 0.5582108 0.066544116
0.2017157 0.5580615 0.06684283
0.21531864 0.5561811 0.06973039
0.23337163 0.5556334 0.06973039
0.25222123 0.55847126 0.06973039
0.26838237 0.5563841 0.06973039
0.29436275 0.55425096 0.06973039
0.31838235 0.5520259 0.06973039
0.3391238 0.55122554 0.07267157
0.36140472 0.55577517 0.07365196
0.3939951 0.5544348 0.07732843
0.42796797 0.55423945 0.07769608
0.45122552 0.5532935 0.0814951
0.48210785 0.5569662 0.08235294
0.5151961 0.5551471 0.08541667
0.5394953 0.5579848 0.088602945
0.56231624 0.5613358 0.093259804
0.5935049 0.5591567 0.09653416
0.62083334 0.5630975 0.103071384
0.64963233 0.56531864 0.10808823
0.6701134 0.5728248 0.114414826
0.6949755 0.57389706 0.11673943
0.7194087 0.5786765 0.12889859
0.74964386 0.5805147 0.13529412
0.7762867 0.5904412 0.14503677
0.8033739 0.59448534 0.15900353
0.83304995 0.6029029 0.17463236
0.86358 0.61004907 0.19348194
0.89571077 0.6229167 0.21948528
0.9277344 0.6442402 0.2613128
0.9497013 0.6648974 0.3099954
0.9529412 0.6859069 0.36669347
0.9529412 0.73014706 0.47916666
0.20686275 0.5887255 0.082598045
0.22120863 0.596561 0.082598045
0.23725489 0.5938879 0.082598045
0.25441176 0.59289217 0.082598045
0.27156866 0.59289217 0.082598045
0.2887255 0.59105396 0.082598045
0.31015626 0.5889706 0.082598045
0.3377145 0.58816636 0.08436734
0.35655636 0.58572304 0.08621324
0.3842065 0.5881511 0.088794425
0.40802696 0.5875766 0.09036458
0.44151348 0.58480394 0.09064798
0.46924022 0.58581495 0.097058825
0.4900965 0.59203434 0.097326905
0.521921 0.5889706 0.099126846
0.5485218 0.5904642 0.103071384
0.5714461 0.5926471 0.10747549
0.6020833 0.5919194 0.10955116
0.63126534 0.5922641 0.117294736
0.65037537 0.598966 0.12154566
0.6731618 0.6039522 0.1263174
0.6987745 0.60179996 0.13218445
0.7219669 0.6022212 0.1391391
0.75065106 0.6103784 0.1469899
0.7788603 0.6134804 0.15778187
0.8028186 0.6175245 0.16752452
0.8328431 0.6287837 0.18446693
0.86078435 0.6352865 0.20465687
0.8914216 0.64436275 0.2274816
0.9276731 0.6637485 0.2686504
0.95 0.6845435 0.31836703
0.9529412 0.6984298 0.3767157
0.9529412 0.73333335 0.48235294
0.23627451 0.623652 0.09852941
0.25563726 0.6230814 0.09852941
0.27049634 0.62230396 0.09852941
0.27769607 0.62230396 0.09766774
0.29485294 0.62230396 0.09776348
0.3120098 0.62046576 0.10159314
0.33481926 0.62355244 0.10159314
0.3586244 0.62757355 0.102156095
0.37631738 0.62463236 0.10245098
0.39615503 0.623652 0.10575981
0.425337 0.623652 0.10637255
0.4590533 0.6197304 0.10948989
0.48095894 0.6200521 0.11153492
0.5086512 0.62211627 0.114215694
0.5317632 0.6204887 0.116398595
0.561332 0.62211627 0.12154949
0.58523285 0.62757355 0.124019615
0.6106618 0.62757355 0.12961857
0.63857996 0.62757355 0.13387716
0.6571155 0.62958413 0.13468137
0.68151045 0.6274663 0.1407935
0.704385 0.6351563 0.14629672
0.7289751 0.63557756 0.15085785
0.7521063 0.63799024 0.15957032
0.7788603 0.6395221 0.16942403
0.8046568 0.6450023 0.18205805
0.8320006 0.65183824 0.1980622
0.85975033 0.6584559 0.2160884
0.8932598 0.66580886 0.24149817
0.9281901 0.6843138 0.2780714
0.95 0.70327055 0.33169425
0.9529412 0.7162569 0.38586858
0.9529412 0.7394608 0.4884804
0.26029414 0.65882355 0.11568628
0.2779412 0.65833336 0.1122549
0.29215688 0.65833336 0.1122549
0.29753372 0.6573683 0.11211704
0.31715688 0.654902 0.11470588
0.33431375 0.6546722 0.11960784
0.3522978 0.655239 0.11960784
0.37910542 0.6536305 0.11960784
0.40098038 0.65208334 0.11960784
0.41813725 0.6519608 0.12002145
0.45 0.64874387 0.12009804
0.47009805 0.6480392 0.12745099
0.48921567 0.6480392 0.12751226
0.52234995 0.6495404 0.12869179
0.54800856 0.6547488 0.13275123
0.57095593 0.65361524 0.13717832
0.59338236 0.652451 0.13946079
0.61580884 0.652451 0.14232537
0.63841915 0.652451 0.14647673
0.66392463 0.652451 0.15022978
0.68719363 0.658027 0.15183824
0.7120252 0.66024816 0.1624081
0.7246324 0.6602941 0.16393995
0.75848657 0.6613664 0.1757353
0.7775735 0.66740197 0.18529412
0.8020833 0.66813725 0.19833027
0.8316789 0.6717831 0.21452206
0.85958946 0.6782935 0.23359376
0.89068633 0.68511033 0.25404412
0.925 0.70232844 0.29206496
0.9493566 0.71780026 0.34295344
0.9529412 0.7276501 0.39460784
0.9529412 0.74460787 0.49362746
0.28933826 0.6931373 0.13664216
0.3050705 0.68933827 0.13651961
0.30836397 0.68933827 0.13651961
0.32622552 0.6893038 0.13651961
0.346201 0.6892157 0.13661152
0.36335787 0.6874349 0.1367647
0.3826517 0.6854167 0.1367647
0.4017923 0.68533623 0.1367647
0.41911766 0.68529415 0.13961397
0.43627453 0.68208873 0.14056373
0.4681373 0.6813802 0.14056373
0.4862745 0.6813726 0.14460784
0.50586706 0.6808977 0.14460784
0.540154 0.67762715 0.14629674
0.55997247 0.68019307 0.15236673
0.58250237 0.6853669 0.15250078
0.60551476 0.68529415 0.15447305
0.6262715 0.68529415 0.16095665
0.6498698 0.6826823 0.16417739
0.6679075 0.68149513 0.16727942
0.69106925 0.6817096 0.17478554
0.71678925 0.6817402 0.17977175
0.7275736 0.68933827 0.18443628
0.7637064 0.68937653 0.19609758
0.7850491 0.68958336 0.20245099
0.8078853 0.6921952 0.21662453
0.8354167 0.69728863 0.2337546
0.8633579 0.7015281 0.2509804
0.88924634 0.71242344 0.26821387
0.9261719 0.7226907 0.3024165
0.9468903 0.74073225 0.35171568
0.95258504 0.74458486 0.4031863
0.9529412 0.7526961 0.5017157
0.327451 0.7115196 0.1507353
0.32894456 0.7115196 0.1507353
0.34338236 0.7115196 0.1507353
0.34882814 0.7115196 0.1507353
0.36871937 0.71004903 0.1507353
0.38729322 0.70759803 0.15418199
0.4056066 0.7078738 0.15808824
0.42270985 0.7080883 0.15840994
0.4427083 0.7053309 0.15857844
0.45458028 0.7137179 0.16168046
0.4751838 0.71521145 0.1622549
0.50735295 0.7115196 0.16248468
0.5245098 0.7115196 0.16960785
0.5448836 0.7107154 0.16976869
0.5737592 0.70776653 0.17034315
0.58992803 0.70759803 0.17183672
0.61090684 0.70759803 0.17781863
0.6339231 0.70745254 0.18161765
0.65839463 0.70482534 0.18448223
0.67336863 0.7126762 0.1859758
0.69518995 0.71197915 0.19589461
0.7210708 0.7115196 0.2008655
0.7350337 0.7115196 0.20242035
0.7593521 0.7126302 0.21367952
0.77947307 0.71875 0.2211397
0.80650276 0.71911764 0.23639706
0.8301471 0.72233456 0.24776348
