StreetStamps/fuji_classic_chrome.cube
#Generated by PennL1
#小红书号：PennL1
#公众号：胶片感
#闲鱼号：LOOK胶片感
TITLE Standard-CLASSIC-CHROME
LUT_3D_SIZE 5
0.0 0.0 0.0
0.10784314 0.0 0.003921569
0.45098037 0.025490196 0.01764706
0.7921569 0.12745099 0.073529415
0.9529412 0.6627451 0.43137252
0.01764706 0.15392157 0.0
0.18995099 0.1622549 0.0007352941
0.49901962 0.20686275 0.01764706
0.7745098 0.30269608 0.07647059
0.9529412 0.6843138 0.44313726
0.15490197 0.5176471 0.04901961
0.32205886 0.5176471 0.058333337
0.554902 0.5205883 0.08039216
0.775 0.5593138 0.13480392
0.9529412 0.72156864 0.47254902
0.39607844 0.76666665 0.20686275
0.49313724 0.76274514 0.20686275
0.6392157 0.76323533 0.22598039
0.78553927 0.76666665 0.26911765
0.9568627 0.7833334 0.52156866
0.82352936 0.9764706 0.7176471
0.82352936 0.9764706 0.7176471
0.83137256 0.9764706 0.7176471
0.84901965 0.97745097 0.72156864
0.98039216 0.9882353 0.71372557
0.0 0.003921569 0.06764706
0.15931374 0.0068627456 0.09117647
0.56960785 0.042156864 0.16617647
0.8262255 0.15 0.25465685
0.9529412 0.67058825 0.5029412
0.003921569 0.21593137 0.23210785
0.21004902 0.21341911 0.21207108
0.54301476 0.24509805 0.22144608
0.79871327 0.32843137 0.27830884
0.9529412 0.6882353 0.50784314
0.12745099 0.54558825 0.31715688
0.31433827 0.54215693 0.30588236
0.57573533 0.54215693 0.30784315
0.78468144 0.57181376 0.33357844
0.9529412 0.7254902 0.53137255
0.36740196 0.7705883 0.40661764
0.4706495 0.77089465 0.40618873
0.63480395 0.76666665 0.4115196
0.7877451 0.76666665 0.43057597
0.9568627 0.7833334 0.5708333
0.82352936 0.9764706 0.7294117
0.82058823 0.9764706 0.732353
0.83137256 0.9764706 0.732353
0.84901965 0.9796569 0.7313726
0.98039216 0.9882353 0.72450984
0.0019607844 0.011764706 0.20980391
0.23137257 0.025490196 0.32892156
0.6431373 0.08627451 0.4509804
0.86225486 0.20588236 0.5196079
0.9529412 0.68235296 0.6039216
0.003921569 0.29705885 0.5583334
0.21593139 0.2889706 0.5251226
0.5803921 0.3127451 0.5208334
0.81727946 0.3772059 0.53651965
0.9529412 0.6985294 0.61274517
0.092156865 0.59313726 0.60882354
0.29044122 0.579902 0.59019613
0.57500005 0.57892156 0.5779412
0.7941177 0.5975491 0.57573533
0.9568627 0.732353 0.6254902
0.3156863 0.7794118 0.63774514
0.43946075 0.7814951 0.6356618
0.62696075 0.7742647 0.627451
0.7941177 0.7775735 0.628799
0.9573529 0.7833334 0.6490196
0.81960785 0.9764706 0.7529412
0.81960785 0.9764706 0.7529412
0.8294118 0.9764706 0.754902
0.845098 0.97892153 0.754902
0.98431367 0.9882353 0.7431373
0.026470589 0.056862745 0.5539216
0.32794118 0.09852941 0.67303926
0.6857843 0.17450981 0.7132353
0.8803922 0.28774512 0.732353
0.9568627 0.7029412 0.70882356
0.010784314 0.3887255 0.7931373
0.20710784 0.38039216 0.7707721
0.6025735 0.39583334 0.7509804
0.83345586 0.44203433 0.7460785
0.9568627 0.7169118 0.71274513
0.04950981 0.63235295 0.80784315
0.20759803 0.6301471 0.794853
0.5575981 0.6259804 0.7794118
0.7970588 0.63823533 0.7665441
0.9568627 0.7441177 0.7220588
0.21838236 0.79607844 0.8039216
0.36102942 0.7921569 0.7977941
0.59828436 0.78602946 0.79350495
0.7884804 0.7918505 0.7886642
0.9607843 0.79019606 0.73529416
0.8117647 0.9764706 0.7872549
0.8181373 0.9764706 0.79313725
0.8245098 0.9764706 0.79313725
0.83725494 0.98039216 0.79019606
0.98431367 0.9882353 0.7784314
0.45490193 0.5764706 0.9607843
0.52156866 0.58431375 0.9607843
0.64705884 0.6058824 0.9607843
0.7715686 0.6284314 0.95980394
0.9607843 0.74117655 0.9568627
0.35196078 0.61372554 0.9607843
0.44240195 0.6200981 0.9607843
0.5828432 0.6338236 0.9607843
0.7330882 0.65710783 0.9568627
0.9607843 0.7490196 0.9568627
0.24901962 0.67058825 0.9607843
0.31323528 0.6745098 0.9607843
0.4892157 0.68235296 0.9568627
0.6740196 0.702451 0.9568627
0.9647059 0.7705882 0.9568627
0.18627451 0.7431373 0.9568627
0.26887256 0.7431373 0.9568627
0.40441173 0.74411774 0.9568627
0.607353 0.7558824 0.9568627
0.9656863 0.8019608 0.9607843
0.62352943 0.9568627 0.9529412
0.64705884 0.9607843 0.9568627
0.65882355 0.9607843 0.9568627
0.70392156 0.9607843 0.9607843
0.972549 0.9764706 0.9764706
