StreetStamps/fuji_eterna.cube
#Generated by PennL1
#小红书号：PennL1
#公众号：胶片感
#闲鱼号：LOOK胶片感
TITLE Standard-ETERNA
LUT_3D_SIZE 9
0.007843138 0.007843138 0.007843138
0.085784316 0.007843138 0.017156864
0.16862746 0.007843138 0.02745098
0.27450982 0.028921569 0.039705884
0.41960785 0.07254902 0.054901965
0.5656863 0.11617648 0.07009804
0.70686275 0.17254902 0.08235294
0.8803922 0.26666668 0.08872549
0.93333334 0.60784316 0.2117647
0.014705883 0.10294118 0.0
0.110784315 0.110784315 0.003921569
0.1995098 0.12193628 0.013235295
0.3093137 0.13541667 0.027941177
0.4382353 0.16029412 0.04117647
0.56072307 0.18578431 0.05686275
0.7031863 0.22879903 0.0694853
0.8740196 0.31323528 0.080882356
0.9372549 0.6156863 0.2235294
0.07254902 0.227451 0.0058823535
0.14803922 0.2262255 0.0068627456
0.22843137 0.23014705 0.0017156862
0.33480394 0.2382353 0.013235294
0.4470588 0.25441176 0.026960785
0.56237745 0.27328432 0.04007353
0.6970588 0.3107843 0.055882353
0.8642157 0.38333333 0.06801471
0.9372549 0.6294118 0.22450979
0.15196079 0.36127454 0.048039217
0.2038603 0.36292896 0.04117647
0.27426472 0.35882354 0.03382353
0.3630515 0.36225495 0.025490196
0.47181374 0.3752451 0.030392159
0.5745711 0.39166668 0.030943628
0.69963235 0.4172794 0.04264706
0.84871316 0.47971815 0.05821079
0.9372549 0.64754903 0.24705881
0.2254902 0.5117647 0.09411765
0.27156863 0.5137255 0.091421574
0.33578432 0.51274514 0.09166667
0.41715688 0.5088235 0.08995098
0.50980395 0.5117647 0.08529412
0.6071079 0.52156866 0.08186275
0.7102941 0.5426471 0.06666667
0.8448529 0.5767157 0.06568628
0.9372549 0.67058825 0.2627451
0.30784315 0.6509804 0.14362746
0.34362745 0.646875 0.14264706
0.40379903 0.6415441 0.14362746
0.46862745 0.6358456 0.1466299
0.5539216 0.6401961 0.14534314
0.63186276 0.64185053 0.14448531
0.72181374 0.6477941 0.14338236
0.84344363 0.6612745 0.13002452
0.9372549 0.69705886 0.28578433
0.42156863 0.7637255 0.2254902
0.44607842 0.76274514 0.2245098
0.49019608 0.75686276 0.22156861
0.5387255 0.7623775 0.2254902
0.6004902 0.7558824 0.222549
0.6609069 0.7511029 0.22279412
0.7345588 0.7541667 0.21911764
0.8459559 0.75625 0.21703431
0.94117653 0.7372549 0.32156864
0.54509807 0.88529414 0.3421569
0.5610907 0.88284314 0.34123778
0.59313726 0.8813725 0.3404412
0.62107843 0.87745094 0.3385417
0.66151965 0.8784313 0.33578432
0.7029412 0.87322307 0.33756128
0.7588235 0.8692402 0.3362745
0.84270835 0.8647672 0.32904413
0.94509804 0.80049026 0.37303922
0.7882353 1.0 0.6392157
0.7882353 1.0 0.6392157
0.7882353 1.0 0.6392157
0.7960784 1.0 0.6392157
0.7960784 1.0 0.6392157
0.8039216 1.0 0.63529414
0.81764704 1.0 0.6421569
0.8362745 1.0 0.6367647
0.9647059 0.9960785 0.59607846
0.007843138 0.009313726 0.07941177
0.09601716 0.011764706 0.07996324
0.19313726 0.01507353 0.093504906
0.3122549 0.0377451 0.10459559
0.45931372 0.0752451 0.10416667
0.59901965 0.11813726 0.09852941
0.7269608 0.17463236 0.10036765
0.89025736 0.2711397 0.095159315
0.9372549 0.6117647 0.25392157
0.016176471 0.11764706 0.11519609
0.12254902 0.12401961 0.1216299
0.22437194 0.12931986 0.11954658
0.33860296 0.14417894 0.120343134
0.46813726 0.1637255 0.1174326
0.5827819 0.19039522 0.11128217
0.7224878 0.23336397 0.1036152
0.8838848 0.31828278 0.0932981
0.9372549 0.61960787 0.25392157
0.06678922 0.24068628 0.14289217
0.15514708 0.24068628 0.14486827
0.24283089 0.24123774 0.14056373
0.35208336 0.24523592 0.13814339
0.4683824 0.26078433 0.14105393
0.58386946 0.27867648 0.13743873
0.71375614 0.31626838 0.12763481
0.87477016 0.3887255 0.10044424
0.9372549 0.62977946 0.26568627
0.15343139 0.375 0.16654412
0.20441176 0.37616423 0.16586244
0.2847886 0.36997548 0.16328126
0.38184744 0.37154564 0.1658701
0.49451593 0.38357842 0.16510418
0.5937117 0.3973652 0.16403186
0.7158088 0.4221967 0.1567402
0.8593137 0.4811198 0.13638175
0.9372549 0.6480392 0.2776348
0.23259804 0.52107847 0.19583333
0.2743566 0.52156866 0.19436274
0.3398897 0.520527 0.19166668
0.43039215 0.5137255 0.19059438
0.52132356 0.5193628 0.19240196
0.61813724 0.52558213 0.19234069
0.71936274 0.54509807 0.18682599
0.8538909 0.5750307 0.17925858
0.9372549 0.67058825 0.29191178
0.3145221 0.654902 0.23186274
0.3442938 0.65086555 0.23137255
0.40637255 0.6449295 0.23066789
0.4815564 0.6377451 0.23134957
0.56004906 0.6404412 0.23137255
0.6377911 0.6420114 0.22884499
0.7265472 0.64756435 0.22754289
0.85048246 0.6582108 0.22175245
0.94117653 0.69705886 0.31580883
0.41862744 0.76274514 0.29436275
0.4439951 0.75980395 0.2920037
0.48872548 0.75735295 0.29469976
0.5387255 0.75980395 0.29171264
0.6039828 0.7553922 0.29215688
0.66329664 0.7513021 0.28216913
0.7369485 0.7517157 0.2814645
0.8496324 0.7549633 0.2745864
0.9415442 0.7372549 0.34313726
0.5515319 0.8813725 0.38811275
0.5662148 0.8804534 0.38658088
0.5918352 0.8776807 0.38913912
0.62107843 0.8743336 0.38724726
0.6610294 0.8745098 0.38523284
0.7040441 0.87058824 0.3855086
0.759375 0.8668352 0.38048407
0.84362745 0.8630285 0.37041208
0.94754905 0.80049026 0.3974265
0.7882353 1.0 0.64705884
0.7882353 1.0 0.64705884
0.7882353 1.0 0.64705884
0.7960784 1.0 0.6431373
0.7960784 1.0 0.6431373
0.8039216 1.0 0.6431373
0.81764704 1.0 0.6428922
0.8362745 1.0 0.6422182
0.9647059 0.9960785 0.597549
0.011764706 0.026470589 0.15294118
0.11017157 0.026470589 0.15870097
0.21617648 0.03259804 0.1862745
0.34852943 0.058823533 0.21433824
0.5127451 0.09411765 0.23774509
0.6329657 0.13137256 0.24411766
0.75808823 0.18504903 0.25392157
0.90600485 0.2796569 0.23419118
0.9372549 0.6117647 0.30882353
0.019607844 0.14166668 0.21360293
0.13072917 0.14319853 0.22297794
0.24286152 0.14984682 0.23152575
0.36433828 0.16127452 0.23849571
0.496875 0.1778799 0.2473652
0.61927086 0.2029565 0.25196078
0.7499387 0.24687499 0.25526962
0.90067405 0.32608762 0.24211091
0.9372549 0.61960787 0.3127451
0.059803925 0.26372552 0.26102942
0.15677084 0.26096815 0.26102942
0.25821078 0.26004905 0.25857842
0.36874998 0.26452208 0.25643384
0.496201 0.27549022 0.26164216
0.60891545 0.2929228 0.26568627
0.740625 0.32843137 0.2661152
0.8897059 0.39558825 0.25477943
0.9372549 0.6296569 0.3142157
0.14595589 0.3995098 0.29154414
0.21014093 0.4009191 0.28886336
0.29454657 0.38949144 0.2838542
0.40215993 0.39220282 0.28048408
0.51109076 0.3995098 0.28259805
0.61371017 0.41046265 0.28144917
0.7294118 0.43753064 0.27775735
0.8764093 0.4849265 0.26867342
0.94117653 0.6480392 0.32659316
0.22598039 0.5392157 0.31862748
0.27457106 0.5395221 0.31617647
0.3459559 0.534804 0.30980393
0.4375 0.52769613 0.3068015
0.5416667 0.529902 0.30637255
0.6294731 0.5349878 0.30208334
0.7329657 0.54901963 0.29963237
0.86789215 0.5776348 0.2901348
0.94117653 0.67058825 0.3392157
0.30919117 0.6591912 0.35245097
0.35133272 0.65554535 0.34764093
0.40747547 0.64929533 0.34270835
0.48734683 0.6415441 0.33697915
0.5678309 0.64454657 0.33903188
0.6442402 0.6460938 0.33082107
0.734712 0.6522059 0.3291054
0.85807294 0.6619945 0.3196385
0.94375 0.69705886 0.35955882
0.41151962 0.76274514 0.39166668
0.4431066 0.7616422 0.38774508
0.48406863 0.7630515 0.38719362
0.5380821 0.7623775 0.38434437
0.60490197 0.754902 0.38345587
0.66556376 0.7561275 0.37873775
0.7445466 0.7502451 0.3726103
0.8536458 0.75508577 0.36329657
0.94509804 0.73627454 0.38578433
0.5449755 0.8778186 0.45833337
0.5620864 0.87561274 0.45539215
0.58722425 0.8741728 0.4550245
0.6224878 0.8716146 0.4527114
0.6610294 0.8716299 0.4512255
0.7053309 0.8667126 0.45128676
0.7630515 0.8625 0.4452206
0.84649205 0.8593137 0.43252143
0.9490196 0.7969363 0.42794117
0.7882353 1.0 0.6509804
0.7882353 1.0 0.6509804
0.7882353 1.0 0.65686274
0.7960784 1.0 0.6539216
0.7960784 1.0 0.6539216
0.8039216 1.0 0.6529412
0.81470585 1.0 0.65220594
0.8362745 1.0 0.6485294
0.9647059 0.9960785 0.6058824
0.019607844 0.04411765 0.2127451
0.12843138 0.045588236 0.23235294
0.24166667 0.06176471 0.27156866
0.39123774 0.08737745 0.31819856
0.54607844 0.11862745 0.3509804
0.6647059 0.15637255 0.36807597
0.7848039 0.2074755 0.37867647
0.92401963 0.29607844 0.37003678
0.94117653 0.6156863 0.37107843
0.027083334 0.16470589 0.3193015
0.13681833 0.16818322 0.33865657
0.26303616 0.17264093 0.35142463
0.3981541 0.18480393 0.361129
0.52833945 0.20214461 0.3711397
0.6478554 0.22571231 0.37869945
0.7758578 0.26507354 0.38754594
0.9134881 0.34178922 0.38056833
0.94117653 0.62352943 0.37757352
0.049632356 0.29375002 0.3960784
0.16438419 0.28877145 0.39459252
0.27175248 0.28602946 0.38878673
0.3960784 0.29178923 0.38811272
0.5262255 0.3004902 0.39338237
0.6405178 0.31875 0.39659926
0.7623468 0.34607843 0.39699754
0.9058823 0.4070619 0.3843137
0.9416667 0.6333333 0.38284314
0.13370098 0.4357843 0.42892158
0.211106 0.42922795 0.42777267
0.3029718 0.4225337 0.42193627
0.41559437 0.4145757 0.41409314
0.5338848 0.42594975 0.41795343
0.6397902 0.43229166 0.41269913
0.75375307 0.45479476 0.40824145
0.88960636 0.49470744 0.3954963
0.94509804 0.64846814 0.388174
0.22132353 0.5617647 0.45318627
0.2764706 0.56078434 0.45070466
0.35067403 0.552451 0.44730395
0.44773287 0.5529412 0.4429228
0.5502451 0.54656863 0.4389706
0.64117646 0.54776347 0.4348958
0.7425245 0.5615809 0.42843136
0.8792586 0.58348656 0.4131434
0.94509804 0.672549 0.3985294
0.3065564 0.668076 0.4764706
0.34063268 0.6670114 0.47303924
0.41072306 0.6581035 0.4689185
0.48829657 0.65293354 0.4653646
0.57205886 0.6529412 0.45686275
0.65294886 0.65512407 0.4577895
0.74356616 0.6564185 0.44601715
0.86459863 0.66252303 0.43072152
0.94509804 0.69705886 0.41415438
0.41213235 0.7631128 0.4968137
0.43670344 0.76242346 0.4985294
0.47904414 0.7651961 0.49914217
0.5366422 0.76225495 0.4948836
0.6093137 0.7551471 0.4879902
0.6742647 0.7561275 0.4804994
0.75784314 0.75 0.47619486
0.8600184 0.75448835 0.4634957
0.9490196 0.73627454 0.4403186
0.53700984 0.8745098 0.53198534
0.55784315 0.87107843 0.53198534
0.5804841 0.8699755 0.5349878
0.61865044 0.867134 0.5324985
0.657353 0.86813724 0.5287378
0.7075751 0.8640549 0.52381283
0.7633578 0.8589461 0.524372
0.8493873 0.85527724 0.508724
0.9514706 0.79656863 0.47579655
0.7882353 1.0 0.6637255
0.7882353 1.0 0.6637255
0.7882353 1.0 0.6637255
0.7960784 1.0 0.6632353
0.7960784 1.0 0.6632353
0.8039216 1.0 0.6666667
0.8137255 1.0 0.6656863
0.8344976 1.0 0.66090685
0.9686275 0.9960785 0.6166667
0.033333335 0.0627451 0.27254903
0.15269609 0.07450981 0.32083333
0.2740196 0.09313726 0.3754902
0.43357843 0.11666667 0.44117647
0.5882353 0.14803922 0.47843137
0.7019608 0.18137255 0.49558824
0.82058823 0.22941177 0.5156863
0.93553925 0.3132353 0.50808823
0.9470588 0.6215687 0.4490196
0.036029413 0.19730392 0.45367646
0.1458027 0.19898897 0.47441787
0.28511032 0.2026348 0.4851716
0.42735907 0.21161154 0.49329045
0.56372553 0.22781862 0.502451
0.6807904 0.2520527 0.51746327
0.798223 0.2878064 0.52181375
0.9243873 0.36099878 0.5130209
0.9470588 0.627451 0.45049018
0.062254906 0.32941177 0.52745104
0.16115198 0.32365197 0.5235294
0.2882353 0.32046568 0.5227941
0.4216299 0.32218137 0.52928925
0.5531863 0.33161765 0.532353
0.66721815 0.34485292 0.532353
0.7794118 0.3699755 0.52671576
0.91544116 0.4275735 0.5151961
0.9470588 0.63774514 0.45686275
0.112500004 0.46715683 0.55539215
0.2102022 0.4591299 0.55530024
0.31243873 0.45508578 0.55171573
0.42956495 0.45027578 0.54935664
0.55232847 0.45061278 0.5470588
0.6544424 0.46106005 0.54901963
0.76574755 0.4750613 0.5368873
0.9013787 0.5098652 0.52374387
0.9473039 0.6536765 0.46078435
0.20980391 0.5892157 0.57254905
0.27083334 0.5810049 0.57058823
0.35588238 0.57181376 0.56593144
0.45539218 0.57034314 0.56372553
0.5627451 0.5647059 0.5627451
0.6557598 0.5664216 0.5582108
0.76053923 0.5732844 0.5500001
0.88774514 0.5903187 0.532353
0.9490196 0.67549026 0.47254902
0.29583335 0.67965686 0.57843137
0.3387255 0.6763787 0.5818628
0.40496325 0.6702206 0.5814339
0.49148285 0.6691177 0.5774816
0.578799 0.6625 0.5759804
0.6582108 0.6624081 0.5708333
0.7526961 0.6634804 0.5640932
0.87521446 0.6678616 0.5456189
0.9490196 0.69730395 0.48382354
0.39509803 0.7681372 0.5916667
0.43137255 0.7651348 0.5901961
0.47561273 0.7686274 0.5926471
0.54001224 0.76274514 0.5905025
0.6093137 0.75759804 0.5877451
0.6731618 0.7585784 0.5837623
0.75808823 0.75232846 0.5764706
0.864277 0.75465685 0.56256133
0.9495098 0.73627454 0.4995098
0.5289216 0.8683824 0.6063726
0.5446079 0.8671569 0.60514706
0.5720588 0.8659314 0.6031863
0.6158395 0.8632353 0.60490197
0.6498774 0.86299026 0.60355395
0.7014706 0.85857844 0.6026654
0.7628064 0.854473 0.594853
0.85018384 0.84978557 0.5849571
0.95416665 0.79534316 0.5264706
0.7882353 1.0 0.68235296
0.7882353 1.0 0.68235296
0.7882353 1.0 0.68235296
0.7960784 1.0 0.68235296
0.7980392 1.0 0.6813726
0.8039216 1.0 0.68039215
0.8137255 1.0 0.67990196
0.832353 1.0 0.67647064
0.9686275 0.9960785 0.63529414
0.060784318 0.089705884 0.37352943
0.18186276 0.10245098 0.42892158
0.3122549 0.12352942 0.4976716
0.4879902 0.15251227 0.57757354
0.6213236 0.17941177 0.6029412
0.7264706 0.21029413 0.62058824
0.8403187 0.25784314 0.6392157
0.9423407 0.33933824 0.62530637
0.952451 0.627451 0.5230392
0.047916666 0.23590687 0.5851103
0.16381739 0.23530944 0.6001225
0.3113511 0.23619792 0.607981
0.46135876 0.24590993 0.61987597
0.59669125 0.25949758 0.6279412
0.7077819 0.28284317 0.6443857
0.82458645 0.31617647 0.6444853
0.9354167 0.3814951 0.63161767
0.9529412 0.6313726 0.5205883
0.052083336 0.3651961 0.6357843
0.17144607 0.36162686 0.6387255
0.30003065 0.35977328 0.6474265
0.440625 0.3637255 0.65000004
0.5797182 0.36213237 0.65226716
0.6913756 0.37351412 0.6527267
0.80131745 0.3987439 0.6471814
0.9238817 0.44908088 0.6349265
0.9529412 0.64473045 0.52830887
0.114031866 0.49754903 0.6607843
0.20487899 0.48954505 0.6642157
0.3163297 0.48630515 0.6642157
0.4419118 0.48019302 0.6602941
0.5698223 0.47748163 0.660049
0.6736443 0.48400736 0.65589005
0.7799173 0.49712014 0.65496325
0.9090916 0.5257124 0.6348652
0.9529412 0.65974265 0.53180146
0.18946078 0.607353 0.66764706
0.2578125 0.6012255 0.6689338
0.3514706 0.59197307 0.67156863
0.4573223 0.5909314 0.66939336
0.566054 0.5884804 0.66813725
0.661826 0.58719367 0.6642157
0.7668505 0.58651966 0.6519608
0.8924939 0.6039829 0.6397059
0.9529412 0.68014705 0.53627455
0.28627455 0.68866426 0.6681985
0.32898283 0.684421 0.6681985
0.39889705 0.6799173 0.6741575
0.47977173 0.6789905 0.67108613
0.5801471 0.6722733 0.67175245
0.66433823 0.67211246 0.66830575
0.7612745 0.66884196 0.6567402
0.8815717 0.6786995 0.64530486
0.9529412 0.7014093 0.54699755
0.3852941 0.76960784 0.67549026
0.4105239 0.77657783 0.67277884
0.4592218 0.7732537 0.672549
0.52755827 0.7665441 0.672549
0.6071079 0.7615809 0.67156863
0.6721354 0.7618566 0.67048097
0.75808823 0.7553922 0.6624081
0.8678003 0.75465685 0.6505668
0.9529412 0.73627454 0.55894613
0.5154412 0.8634191 0.6686275
0.5372243 0.8632353 0.6686275
0.56819856 0.8601256 0.6686275
0.60187656 0.8595818 0.6686275
0.65033704 0.85799634 0.66678923
0.69393384 0.85637254 0.666996
0.7563266 0.85110295 0.66796875
0.85006124 0.845098 0.6521599
0.9568627 0.79283094 0.57904416
0.78431374 0.9960785 0.69803923
0.78431374 0.9960785 0.69803923
0.78431374 0.9960785 0.69803923
0.7921569 0.9960785 0.69803923
0.79607844 0.99803925 0.6960784
0.8 1.0 0.69411767
0.811152 1.0 0.70012254
0.832353 1.0 0.69705886
0.9686275 0.9960785 0.6578432
0.11764706 0.14019608 0.54803926
0.22634804 0.15441176 0.6029412
0.36740196 0.17867647 0.679902
0.5372549 0.20490196 0.73088235
0.6573529 0.23137255 0.75098044
0.7593137 0.2569853 0.7607843
0.864951 0.29754904 0.7647059
0.95392156 0.36875 0.7495098
0.9568627 0.6401961 0.60784316
0.067156866 0.2932598 0.73137254
0.18057598 0.2904412 0.73760724
0.3388787 0.29237133 0.7472427
0.49617037 0.29808518 0.7583333
0.6303309 0.30937502 0.76709557
0.7367188 0.32694548 0.7697304
0.83750004 0.35814953 0.7676471
0.94402575 0.41539523 0.75477946
0.9568627 0.64411765 0.60784316
0.07303922 0.42132354 0.754902
0.1606005 0.41767767 0.7572917
0.31476718 0.40974265 0.7659314
0.46495098 0.40655637 0.77156866
0.5990196 0.41090685 0.77156866
0.7053922 0.4192708 0.7715993
0.81446075 0.43523285 0.766728
0.9359375 0.47242644 0.75634193
0.9568627 0.654902 0.6098039
0.093259804 0.5390932 0.76139706
0.18587622 0.5304228 0.76332724
0.31783086 0.52147675 0.77019
0.45166975 0.51603866 0.7714461
0.579228 0.51409316 0.77064955
0.6829964 0.5147519 0.7682598
0.7952206 0.52248776 0.77049637
0.91767776 0.5443168 0.7515166
0.9568627 0.66813725 0.611152
0.15735295 0.6303922 0.7637255
0.2268995 0.6237745 0.76642156
0.33394608 0.6231618 0.76899517
0.45821077 0.6129289 0.7712623
0.5688726 0.6102941 0.7737745
0.67273283 0.60759807 0.7693628
0.7740196 0.6089461 0.76323533
0.9014093 0.6165441 0.7481618
0.9568627 0.6882353 0.61960787
0.2529412 0.7014706 0.7588235
0.30681682 0.69754905 0.7621324
0.3773591 0.69819236 0.7631128
0.47280943 0.6927084 0.76323533
0.5789216 0.6835785 0.76323533
0.67101717 0.6822917 0.7628677
0.76415443 0.6811274 0.76394
0.88501835 0.68520224 0.74736524
0.9568627 0.70686275 0.62230396
0.35000002 0.78039217 0.7529412
0.38829654 0.77791053 0.75419736
0.44148284 0.7742647 0.75686276
0.51458335 0.7702512 0.75793505
0.59852946 0.76409316 0.76115197
0.6707108 0.76482844 0.75909925
0.75692403 0.7582108 0.7565564
0.86749387 0.75465685 0.7445466
0.95784307 0.73921573 0.6313726
0.4897059 0.858701 0.73982847
0.5096814 0.8564951 0.7404412
0.54350495 0.85477936 0.7404412
0.58125 0.8557598 0.74191177
0.62800246 0.85269606 0.74375004
0.6821538 0.8504749 0.74301475
0.7475184 0.84583336 0.74139094
0.8421569 0.84057903 0.733609
0.9607843 0.7941177 0.64411765
0.7803922 0.9960785 0.7235294
0.7803922 0.9960785 0.7264706
0.78676474 0.9960785 0.7264706
0.7882353 0.9960785 0.7264706
0.7946079 0.9960785 0.7264706
0.7990196 0.9960785 0.7264706
0.80980396 0.99705887 0.7232843
0.83137256 1.0 0.71960783
0.9686275 0.9960785 0.68333334
0.20882353 0.25196078 0.81666666
0.31911767 0.26666668 0.85110295
0.447549 0.28235295 0.87512255
0.5830883 0.29950982 0.89295346
0.6958333 0.31887257 0.9080882
0.79068625 0.3421569 0.9107843
0.8768382 0.37598038 0.9107843
0.959375 0.42928922 0.8925858
0.9607843 0.657353 0.70735294
0.114031866 0.3813113 0.8675858
0.23109682 0.3802543 0.8775122
0.38244486 0.37791055 0.8917586
0.5321232 0.38628983 0.90704656
0.6560968 0.39417893 0.9107843
0.7581495 0.40686274 0.9117724
0.85471815 0.42748162 0.90939033
0.953799 0.46715686 0.89237905
0.9607843 0.6651961 0.70882356
0.08517157 0.49325985 0.8790441
0.1770527 0.48739275 0.8854933
0.32199758 0.48293507 0.89647675
0.4740962 0.48095894 0.9050704
0.61329657 0.4817402 0.9072304
0.7223499 0.48480394 0.9072304
0.8302083 0.49387258 0.90450364
0.94214153 0.51812196 0.8918965
0.9607843 0.6745098 0.70882356
0.09319854 0.58713233 0.8794117
0.164591 0.581993 0.8806372
0.30211398 0.5760417 0.8893383
0.45202208 0.5712853 0.8962393
0.58566177 0.5670037 0.90000004
0.69494486 0.56538 0.9002681
0.8015625 0.56778497 0.8979167
0.9245788 0.5789063 0.8843061
0.9607843 0.68529415 0.71274513
0.13382354 0.6605392 0.8688726
0.18615197 0.65707725 0.8718444
0.30214465 0.64926475 0.87922794
0.43802083 0.647212 0.88587624
0.56433827 0.6414216 0.891054
0.66982234 0.63854164 0.89362746
0.7751838 0.6382353 0.8887255
0.9024203 0.6372856 0.8750306
0.9632353 0.702451 0.7151961
0.19638479 0.71703434 0.8596201
0.2569087 0.71584713 0.8622549
0.34446996 0.7113665 0.8671416
0.44885877 0.70451903 0.87385875
0.55493265 0.70438117 0.8752451
0.65026814 0.7006281 0.8777573
0.7560202 0.69546574 0.8765625
0.8816406 0.69209564 0.86704195
0.9632353 0.72352946 0.72420347
0.2916667 0.7764706 0.8473039
0.33916974 0.77388173 0.84989274
0.39831495 0.7720894 0.85321695
0.47761947 0.7680147 0.8583946
0.5565564 0.76844364 0.85968137
0.6439798 0.76416975 0.86262256
0.73768383 0.7613358 0.86069244
0.8564032 0.75693935 0.8501226
0.9647059 0.7465687 0.7269608
0.44375 0.84656864 0.8249388
0.46592373 0.8454427 0.8273897
0.48978248 0.847549 0.82640934
0.5404106 0.8444317 0.8298484
0.5954657 0.84289217 0.8313419
0.65339315 0.84117645 0.8333333
0.72913605 0.8366268 0.83295035
0.8296415 0.8308824 0.82849264
0.9671569 0.7941177 0.7332721
0.7715686 0.9960785 0.76666665
0.7789216 0.9960785 0.76666665
0.7818628 0.9960785 0.76666665
0.7818628 0.9960785 0.76666665
0.7897059 0.9960785 0.76666665
0.7939951 0.9960785 0.7658088
0.8078432 0.9960785 0.7656863
0.83143383 0.9990809 0.76421565
0.972549 0.9960785 0.7367647
0.52156866 0.58431375 0.98431367
0.5411765 0.58431375 0.98431367
0.57254905 0.5882353 0.9882353
0.62107843 0.59656864 0.9960785
0.6627451 0.6 0.9960785
0.7029411 0.607353 1.0
0.7715686 0.6127451 1.0
0.86421573 0.62598044 1.0
0.98039216 0.6901961 0.99215686
0.5029412 0.59607846 0.98039216
0.5196079 0.597549 0.9828431
0.55049026 0.6014706 0.98431367
0.5927696 0.60588235 0.98854166
0.6362745 0.61127454 0.99215686
0.69460785 0.61715686 0.9995098
0.7558823 0.625 1.0
0.84705883 0.63529414 1.0
0.98039216 0.69411767 0.99215686
0.46274507 0.6147059 0.9696079
0.4852941 0.6147059 0.9735294
0.5171569 0.6186275 0.9772059
0.56556374 0.62254906 0.9817402
0.61421573 0.6269608 0.9887255
0.67279416 0.6339461 0.9960785
0.73578435 0.64142156 0.99779415
0.82843137 0.6488971 1.0
0.98039216 0.69803923 0.99215686
0.41274512 0.6397059 0.9607843
0.43590686 0.6398897 0.9642157
0.48039213 0.64276963 0.9681373
0.5240809 0.64411765 0.97297794
0.5781863 0.6480392 0.97990197
0.6389706 0.6519608 0.9877451
0.7078431 0.6602941 0.99571085
0.81060046 0.6696079 0.9998162
0.98039216 0.70686275 0.99215686
0.38823527 0.6666667 0.9509804
0.40980393 0.6666667 0.9529412
0.43823528 0.6686275 0.9568627
0.48700982 0.67058825 0.96323526
0.5470588 0.6745098 0.97156864
0.6120099 0.67622554 0.97843134
0.67990196 0.6843138 0.9887255
0.7894608 0.69068635 0.99730396
0.98039216 0.72352946 0.99215686
0.36029413 0.69705886 0.94117653
0.3872549 0.69705886 0.94509804
0.41200978 0.69754905 0.9490196
0.45600492 0.69754905 0.9538603
0.53088236 0.69754905 0.9647059
0.5852941 0.70147055 0.97205883
0.65637255 0.70882356 0.98088235
0.76525736 0.71519613 0.9947917
0.98039216 0.7367647 0.9882353
0.33333334 0.73529416 0.9294118
0.3617647 0.73529416 0.93333334
0.40980393 0.73529416 0.94019616
0.43970588 0.73627454 0.94460785
0.49803925 0.73578435 0.9519608
0.55625 0.73823535 0.9602941
0.63284314 0.739951 0.97181374
0.7447304 0.7449755 0.986397
0.98039216 0.7558824 0.9882353
0.3656863 0.7877451 0.9254902
0.39313728 0.78627455 0.9294118
0.41176468 0.7887255 0.9308824
0.43529412 0.79019606 0.9338235
0.49068627 0.79019606 0.9419118
0.54062504 0.79019606 0.94871324
0.61715686 0.7877451 0.9593137
0.7205882 0.7916666 0.9764706
0.98431367 0.79313725 0.9882353
0.67058825 0.9764706 0.94117653
0.67058825 0.9764706 0.94117653
0.6862745 0.9764706 0.94117653
0.6862745 0.9764706 0.94117653
0.69411767 0.9764706 0.9431373
0.70196074 0.9764706 0.94509804
0.72156864 0.9764706 0.9490196
0.7563726 0.9764706 0.9529412
0.972549 0.9764706 0.972549
