StreetStamps/fuji_reala_ace.cube
#Generated by PennL1
#小红书号：PennL1
#公众号：胶片感
#闲鱼号：LOOK胶片感
TITLE Standard-REALA-ACE
LUT_3D_SIZE 5
0.0 0.0 0.0
0.10392157 0.0 0.0
0.49607843 0.0019607844 0.0
0.7794118 0.08235294 0.038235296
0.99215686 0.63529414 0.29411766
0.01764706 0.22156863 0.0
0.23112744 0.22426471 0.0
0.5093137 0.22058824 0.0
0.77156866 0.26274508 0.008088236
0.99313724 0.65686274 0.29509807
0.21764706 0.5235294 0.11960785
0.3107843 0.5200981 0.07696079
0.5156863 0.5137255 0.0
0.78088236 0.5382353 0.0
0.9960785 0.7058823 0.3137255
0.5529412 0.82254905 0.39803922
0.5872549 0.8166667 0.36078432
0.6745098 0.82058823 0.28284314
0.8115196 0.8186275 0.1007353
0.99705887 0.78039217 0.34411764
0.86274505 0.972549 0.74509805
0.86274505 0.972549 0.74509805
0.87058824 0.972549 0.74509805
0.8833333 0.9764706 0.7441177
0.99215686 0.99215686 0.64705884
0.0 0.0 0.10784314
0.22377452 0.0 0.16960785
0.5725491 0.0 0.2127451
0.80980396 0.074264705 0.25686276
0.9960785 0.63823533 0.40294117
0.0 0.2252451 0.23602942
0.24356619 0.24803922 0.24338235
0.5411765 0.23235294 0.21764705
0.80729175 0.2639706 0.23455882
0.9960785 0.65710783 0.39730394
0.16666667 0.54852945 0.26813728
0.29852945 0.544853 0.23786765
0.554902 0.53431374 0.2125
0.8101716 0.5539216 0.22340687
0.9960785 0.7058823 0.4034314
0.53333336 0.8186275 0.47990197
0.5735294 0.8211398 0.4528799
0.66409314 0.81825984 0.3767157
0.82009804 0.8139707 0.2794118
1.0 0.7764706 0.42132354
0.86274505 0.972549 0.7529412
0.86274505 0.972549 0.7558824
0.8666667 0.972549 0.7558824
0.8833333 0.9764706 0.75098044
0.99215686 0.99215686 0.6578432
0.003921569 0.003921569 0.327451
0.27303922 0.009313726 0.44460782
0.6186274 0.068627454 0.52647066
0.8475491 0.22205883 0.5808824
0.9960785 0.6431373 0.5470588
0.0 0.22794119 0.5387255
0.19840688 0.25012258 0.5457108
0.5776961 0.28088236 0.5688726
0.8463236 0.32953432 0.5737746
1.0 0.6632353 0.5480392
0.10686275 0.5617647 0.5715686
0.25612748 0.5622549 0.57034314
0.579902 0.58431375 0.58382356
0.8465687 0.58676475 0.5686275
1.0 0.7058823 0.54509807
0.504902 0.8235294 0.6666667
0.5488971 0.82941175 0.65661764
0.6531863 0.8218137 0.61127454
0.82867646 0.8155638 0.5609069
1.0 0.7715686 0.54509807
0.85882354 0.972549 0.7764706
0.85882354 0.972549 0.7764706
0.8666667 0.972549 0.7745098
0.87941176 0.9764706 0.7705882
0.99215686 0.99215686 0.67647064
0.039215688 0.021568628 0.61372554
0.34117648 0.12181373 0.6926471
0.6514706 0.26911765 0.76323533
0.84019613 0.39779413 0.8068627
0.9960785 0.6627451 0.7019608
0.11838236 0.33480394 0.7928922
0.25674018 0.3346814 0.7982843
0.6093137 0.40085784 0.8138481
0.8400735 0.47971812 0.8176471
1.0 0.6784314 0.69705886
0.15931374 0.5921569 0.8088235
0.23137255 0.59080887 0.81274515
0.55122554 0.6066177 0.84411764
0.84411764 0.63823533 0.8450981
1.0 0.7142157 0.69411767
0.46862745 0.80465686 0.80759805
0.48915443 0.80153185 0.80563724
0.6080882 0.8083334 0.8176471
0.813848 0.8159314 0.81538
1.0 0.7676471 0.68602943
0.85490197 0.972549 0.80588233
0.85808825 0.972549 0.8088236
0.8637255 0.975 0.8063726
0.87254906 0.9764706 0.8039216
0.99215686 0.99215686 0.7107843
0.5058824 0.54509807 0.890196
0.56078434 0.5568628 0.89411765
0.6686275 0.59019613 0.90588236
0.79019606 0.6284314 0.9147059
0.9372549 0.72156864 0.93333334
0.4362745 0.57156867 0.8833333
0.49754906 0.5816177 0.8941176
0.60882354 0.604902 0.9083333
0.752451 0.64656866 0.9247549
0.94117653 0.7294117 0.9372549
0.3627451 0.61960787 0.8745099
0.40686274 0.627451 0.88186276
0.5264706 0.6431373 0.904902
0.6867647 0.6759804 0.9318628
0.94509804 0.7509804 0.9431373
0.34705883 0.70000005 0.8715687
0.38137254 0.70000005 0.8813726
0.46764708 0.70490193 0.89754903
0.62205887 0.7269608 0.9306373
0.95392156 0.78627455 0.95392156
0.7607843 0.9568627 0.9529412
0.77254903 0.9607843 0.9568627
0.77647066 0.9627451 0.9568627
0.7911765 0.9656863 0.9617647
0.98431367 0.9882353 0.98431367
