StreetStamps/fuji_reala_ace.cube
#Generated by PennL1
#小红书号：PennL1
#公众号：胶片感
#闲鱼号：LOOK胶片感
TITLE Standard-REALA-ACE
LUT_3D_SIZE 9
0.0 0.0 0.0
0.031862747 0.0 0.0
0.10392157 0.0 0.0
0.2897059 0.0 0.0
0.49607843 0.0019607844 0.0
0.64411765 0.011764706 0.003921569
0.7794118 0.08235294 0.038235296
0.90931374 0.2392157 0.1397059
0.99215686 0.63529414 0.29411766
0.0014705884 0.04950981 0.0
0.06813726 0.06568628 0.0
0.20281863 0.08026961 0.0
0.3708946 0.08118873 0.0
0.5171569 0.087990195 0.0
0.6425858 0.10245098 0.0
0.77708334 0.15784314 0.020465687
0.91568625 0.28376228 0.11862746
0.99215686 0.6431373 0.3019608
0.01764706 0.22156863 0.0
0.09914216 0.22071078 0.0
0.23112744 0.22426471 0.0
0.37941176 0.2199755 0.0
0.5093137 0.22058824 0.0
0.6365196 0.22965688 0.0
0.77156866 0.26274508 0.008088236
0.9259804 0.35931373 0.097058825
0.99313724 0.65686274 0.29509807
0.10539216 0.37352943 0.0377451
0.15484068 0.3759804 0.023039216
0.25183824 0.36960784 0.0055147065
0.37824756 0.36911765 0.0
0.50784314 0.36764705 0.0
0.6245711 0.36911762 0.0
0.76715684 0.38370097 0.0
0.9306986 0.46348038 0.066360295
0.9960785 0.6759804 0.30980393
0.21764706 0.5235294 0.11960785
0.25196078 0.52156866 0.104411766
0.3107843 0.5200981 0.07696079
0.4017157 0.5110294 0.023529412
0.5156863 0.5137255 0.0
0.64362746 0.5178922 0.0
0.78088236 0.5382353 0.0
0.9477941 0.58161765 0.044607844
0.9960785 0.7058823 0.3137255
0.35294122 0.6808824 0.22696078
0.36813724 0.6756741 0.21029411
0.41421568 0.67107844 0.17990196
0.4754902 0.6632353 0.1310049
0.57058823 0.67107844 0.075
0.67352945 0.6722427 0.027205884
0.79350495 0.6803922 0.004289216
0.9529412 0.6903799 0.035110295
0.9960785 0.73578435 0.3259804
0.5529412 0.82254905 0.39803922
0.5647059 0.81960785 0.38431373
0.5872549 0.8166667 0.36078432
0.6284314 0.8235294 0.34276962
0.6745098 0.82058823 0.28284314
0.7300245 0.8166667 0.20110294
0.8115196 0.8186275 0.1007353
0.9454657 0.8170343 0.08039216
0.99705887 0.78039217 0.34411764
0.7308824 0.9313725 0.5803922
0.7390932 0.9313725 0.5779412
0.75735295 0.9338236 0.5699755
0.7759804 0.93412995 0.5610907
0.8039216 0.9401961 0.55196077
0.8333334 0.94264704 0.52732843
0.8740196 0.9435049 0.4738971
0.94797796 0.94319856 0.33357844
1.0 0.8475491 0.36813727
0.86274505 0.972549 0.74509805
0.86274505 0.972549 0.74509805
0.86274505 0.972549 0.74509805
0.87058824 0.972549 0.74509805
0.87058824 0.972549 0.74509805
0.8745099 0.972549 0.74117655
0.8833333 0.9764706 0.7441177
0.89901966 0.9789216 0.7372549
0.99215686 0.99215686 0.64705884
0.0 0.0 0.031862747
0.04209559 0.0 0.033333335
0.15710784 0.0 0.04522059
0.36047795 0.0 0.063909315
0.5316177 0.0 0.062009804
0.67175245 0.003921569 0.06648284
0.79264706 0.064705886 0.104411766
0.9171569 0.2416054 0.22359069
0.9960785 0.63529414 0.3377451
0.0 0.07303922 0.07506128
0.087783396 0.09077053 0.08686428
0.23895527 0.08553922 0.07719057
0.39234835 0.07941177 0.06593137
0.53651965 0.078431375 0.05790441
0.6558211 0.09467678 0.06232384
0.7934896 0.14276962 0.09241728
0.92197454 0.28670347 0.20354626
0.9960785 0.6431373 0.3362745
0.01262255 0.23333333 0.0757353
0.09624694 0.23449755 0.068719365
0.23587622 0.23213847 0.060355395
0.3862745 0.22156864 0.050612748
0.5229167 0.22579658 0.04969363
0.65110296 0.23010111 0.053906254
0.7887255 0.25784314 0.079258576
0.9339002 0.36262256 0.18492648
0.9960785 0.6578432 0.3411765
0.0973652 0.38253677 0.084987745
0.14331342 0.38156405 0.06930147
0.24914217 0.3716912 0.047625616
0.38320312 0.3695006 0.041996017
0.51936275 0.36954656 0.038082108
0.6377451 0.37105542 0.042256437
0.78408396 0.38871014 0.06352635
0.94399506 0.46808365 0.15496324
0.9960785 0.67941177 0.34540442
0.21348038 0.5289216 0.14583334
0.24246323 0.52745104 0.13232231
0.30667892 0.5249387 0.104963236
0.41249996 0.51593137 0.055300247
0.5272059 0.51875 0.042892158
0.65637255 0.5232843 0.04935662
0.79283094 0.5416054 0.05814951
0.9558823 0.5830883 0.13440564
0.9960785 0.7058823 0.34877452
0.35441178 0.6831495 0.24981618
0.3673943 0.68026197 0.23277421
0.41384804 0.67504597 0.19964768
0.4852558 0.66856617 0.14971662
0.57745105 0.67377454 0.10873163
0.6796186 0.67589617 0.078783706
0.8003217 0.6811275 0.075536154
0.9583333 0.6909314 0.13217679
0.9960785 0.7344976 0.36121327
0.54509807 0.8192402 0.41776964
0.5583334 0.8186275 0.40366113
0.5810662 0.8171569 0.38308823
0.62296265 0.8230852 0.35857844
0.66850495 0.81942403 0.30379903
0.7289216 0.81761646 0.23609067
0.8147059 0.81470597 0.16115198
0.94900423 0.8160539 0.15813419
1.0 0.78039217 0.3707108
0.7289216 0.9313725 0.5960172
0.7367418 0.9313725 0.59154415
0.750429 0.9338236 0.58682597
0.7694776 0.9338236 0.5773821
0.7988052 0.9387255 0.56516546
0.8266545 0.9387255 0.5372473
0.86917895 0.939277 0.48679537
0.9440564 0.93870246 0.3539905
1.0 0.8475491 0.3939951
0.86274505 0.972549 0.7490196
0.86274505 0.972549 0.7490196
0.86274505 0.972549 0.7490196
0.87058824 0.972549 0.7490196
0.87058824 0.972549 0.7490196
0.8745099 0.972549 0.74509805
0.8833333 0.9764706 0.7444853
0.89901966 0.9789216 0.74080884
0.99215686 0.99215686 0.65000004
0.0 0.0 0.10784314
0.067524515 0.0 0.12071078
0.22377452 0.0 0.16960785
0.39705884 0.0025735297 0.19914216
0.5725491 0.0 0.2127451
0.6931373 0.007843138 0.22205882
0.80980396 0.074264705 0.25686276
0.92218137 0.25367647 0.35232845
0.9960785 0.63823533 0.40294117
0.0 0.07585785 0.2105392
0.072426476 0.08844976 0.22568935
0.24911152 0.09656863 0.2359375
0.40520835 0.087882966 0.22504596
0.5509804 0.08743873 0.21875
0.6786765 0.10165442 0.21757047
0.8068627 0.15520835 0.2443321
0.93149513 0.29978555 0.33606005
0.9960785 0.64705884 0.39901963
0.0 0.2252451 0.23602942
0.070159316 0.2331495 0.2375
0.24356619 0.24803922 0.24338235
0.3923713 0.23780638 0.22708333
0.5411765 0.23235294 0.21764705
0.6633885 0.23553923 0.21963848
0.80729175 0.2639706 0.23455882
0.94325984 0.36957723 0.31960785
0.9960785 0.65710783 0.39730394
0.030882353 0.38284314 0.23517157
0.10876226 0.39270833 0.232981
0.24880517 0.3892157 0.22827817
0.39738053 0.38301164 0.21911764
0.53265935 0.3840686 0.21329658
0.6566789 0.3843137 0.21122856
0.80355394 0.40934438 0.22362132
0.9562347 0.47769606 0.29635417
0.9960785 0.67941177 0.4009804
0.16666667 0.54852945 0.26813728
0.21599266 0.5513481 0.25808826
0.29852945 0.544853 0.23786765
0.41470587 0.53511035 0.21911764
0.554902 0.53431374 0.2125
0.67352945 0.53676474 0.21280637
0.8101716 0.5539216 0.22340687
0.96838236 0.59013486 0.27359068
0.9960785 0.7058823 0.4034314
0.3519608 0.6965686 0.35784316
0.36755514 0.69301474 0.33794424
0.4074755 0.6878983 0.30297184
0.48380822 0.6804534 0.25844055
0.5864584 0.6840686 0.24307598
0.68950677 0.68437505 0.22562806
0.8124694 0.68713236 0.22956495
0.96580887 0.6965686 0.2674786
1.0 0.732353 0.4139706
0.53333336 0.8186275 0.47990197
0.5486826 0.8186275 0.4654718
0.5735294 0.8211398 0.4528799
0.6127451 0.82254905 0.4228554
0.66409314 0.81825984 0.3767157
0.7279412 0.81976104 0.3298407
0.82009804 0.8139707 0.2794118
0.95150125 0.81587017 0.28431374
1.0 0.7764706 0.42132354
0.71568626 0.92990196 0.6284314
0.7240809 0.92990196 0.6249387
0.73872554 0.92990196 0.6181679
0.75992644 0.9305147 0.6068628
0.7867647 0.9348039 0.5935049
0.8155331 0.9331955 0.5666054
0.863266 0.9344363 0.5173101
0.93829656 0.9331342 0.39296874
1.0 0.84362745 0.42843136
0.86274505 0.972549 0.7529412
0.86274505 0.972549 0.7529412
0.86274505 0.972549 0.7558824
0.8666667 0.972549 0.7558824
0.8666667 0.972549 0.7558824
0.8745099 0.972549 0.7519608
0.8833333 0.9764706 0.75098044
0.89656866 0.9789216 0.7465686
0.99215686 0.99215686 0.6578432
0.0 0.003921569 0.22990197
0.08186275 0.0014705884 0.25226715
0.25049022 0.003921569 0.30833334
0.43045342 0.0034926473 0.35110295
0.59656864 0.0066176476 0.37377453
0.71568626 0.020159315 0.38823527
0.8321078 0.103431374 0.41139707
0.9300858 0.2772672 0.5006128
0.9960785 0.6392157 0.47303924
0.0 0.080085784 0.35214463
0.0486826 0.08338695 0.36812192
0.24990809 0.103875615 0.39644605
0.42811733 0.10517004 0.39699754
0.571538 0.10965074 0.39090073
0.6967524 0.122503065 0.3858456
0.83057594 0.18075982 0.4101869
0.9387868 0.31868106 0.48792893
0.9960785 0.64705884 0.47297794
0.0 0.22034314 0.39411765
0.047104783 0.22722122 0.39321384
0.21969976 0.24313726 0.40137866
0.40202206 0.25477943 0.39852944
0.5555147 0.2509804 0.3894608
0.6870864 0.25840992 0.38711703
0.8290441 0.2860294 0.40502453
0.95084256 0.38803616 0.47041976
1.0 0.66078436 0.47401962
0.005453432 0.38088235 0.38976714
0.07251072 0.38578433 0.39019606
0.22135417 0.3977941 0.39909622
0.40377605 0.4058747 0.40276504
0.55306375 0.40928307 0.3989277
0.68930763 0.4071691 0.3910156
0.83463544 0.4316023 0.40575984
0.9636489 0.48835784 0.45219058
1.0 0.67941177 0.47009805
0.123284325 0.5588236 0.4267157
0.18121937 0.5644608 0.42506126
0.28308827 0.5647059 0.4204044
0.4239583 0.5708333 0.4117647
0.56801474 0.56053925 0.40661767
0.6933824 0.55784315 0.40281865
0.82775736 0.5720588 0.4053309
0.9766238 0.59705883 0.4351409
1.0 0.7058823 0.47083333
0.33835787 0.7093138 0.49595588
0.3539522 0.7071308 0.48692554
0.40382966 0.70343137 0.46099877
0.4813725 0.6963924 0.43621323
0.5909314 0.697549 0.41449144
0.6999464 0.6973882 0.40870866
0.8239124 0.6945619 0.39852944
0.97273284 0.7005131 0.42132354
1.0 0.732353 0.47303924
0.5226716 0.82193625 0.571201
0.53391546 0.8215686 0.5660233
0.561489 0.8241422 0.55652577
0.6008579 0.8227635 0.52925867
0.66176474 0.8186275 0.48897064
0.7316177 0.8207261 0.447932
0.8303921 0.8137256 0.42043507
0.9546262 0.8150889 0.42112437
1.0 0.772549 0.48149508
0.70134807 0.9259804 0.67561275
0.71176475 0.9259804 0.67040443
0.72207415 0.9259804 0.66806066
0.74313724 0.925674 0.65530795
0.77107847 0.928125 0.6397978
0.8062117 0.9279412 0.6095588
0.85159314 0.9259804 0.5696385
0.93541664 0.92568165 0.46356463
1.0 0.8397059 0.48443627
0.85882354 0.972549 0.7612745
0.85882354 0.972549 0.7612745
0.85882354 0.972549 0.7612745
0.8666667 0.972549 0.7612745
0.8666667 0.972549 0.7612745
0.8745099 0.972549 0.7607843
0.8803922 0.9764706 0.75980395
0.89509803 0.9789216 0.7547181
0.99215686 0.99215686 0.6632353
0.003921569 0.003921569 0.327451
0.092156865 0.0 0.37303925
0.27303922 0.009313726 0.44460782
0.46078432 0.034558825 0.50171566
0.6186274 0.068627454 0.52647066
0.73333335 0.11813726 0.53700984
0.8475491 0.22205883 0.5808824
0.9142157 0.33161765 0.63529414
0.9960785 0.6431373 0.5470588
0.0 0.09656863 0.5029412
0.03851103 0.0921875 0.5161152
0.23866421 0.11243872 0.5438113
0.43823528 0.13342527 0.55088854
0.5898285 0.14730394 0.5409314
0.71712625 0.1811581 0.5518689
0.84013486 0.25183824 0.574326
0.9313725 0.36393994 0.62714463
0.9960785 0.6509804 0.54656863
0.0 0.22794119 0.5387255
0.023223039 0.23167893 0.53468144
0.19840688 0.25012258 0.5457108
0.40551472 0.26954657 0.56648284
0.5776961 0.28088236 0.5688726
0.71397066 0.29215685 0.5640319
0.8463236 0.32953432 0.5737746
0.9542279 0.42126226 0.6161765
1.0 0.6632353 0.5480392
0.0007352942 0.39166665 0.5495098
0.034344364 0.39166665 0.54886645
0.19767156 0.40606618 0.5558824
0.39276963 0.422549 0.56752455
0.57279414 0.4348039 0.5737745
0.70882356 0.44607842 0.5764706
0.8504902 0.45704657 0.57316184
0.969087 0.5075674 0.6000613
1.0 0.67941177 0.5428922
0.10686275 0.5617647 0.5715686
0.13982844 0.55980396 0.5686275
0.25612748 0.5622549 0.57034314
0.41458336 0.5805147 0.5764706
0.579902 0.58431375 0.58382356
0.70906866 0.58296573 0.57573533
0.8465687 0.58676475 0.5686275
0.97953427 0.60465693 0.5832108
1.0 0.7058823 0.54509807
0.314951 0.70416665 0.60906863
0.3326593 0.70465684 0.6079351
0.378125 0.70484066 0.5995711
0.48204654 0.7136949 0.5946079
0.59497553 0.7102941 0.58676475
0.7012868 0.7089155 0.57484686
0.8304534 0.7022059 0.5640319
0.9779105 0.7035539 0.5669731
1.0 0.72892153 0.54656863
0.504902 0.8235294 0.6666667
0.52181375 0.8215686 0.6582721
0.5488971 0.82941175 0.65661764
0.59405637 0.82549024 0.6357843
0.6531863 0.8218137 0.61127454
0.7238971 0.82450986 0.58707106
0.82867646 0.8155638 0.5609069
0.95526963 0.81102943 0.5550858
1.0 0.7715686 0.54509807
0.68480396 0.92156863 0.7257353
0.6894608 0.92083335 0.72181374
0.70514715 0.92083335 0.7151961
0.72781867 0.9196079 0.70251226
0.7512255 0.92132354 0.69325984
0.787163 0.92068017 0.67049634
0.8386643 0.91991425 0.62671566
0.92763484 0.9157169 0.5569853
1.0 0.8357843 0.5431373
0.85882354 0.972549 0.7764706
0.85882354 0.972549 0.7764706
0.85882354 0.972549 0.7764706
0.86470586 0.972549 0.7745098
0.8666667 0.972549 0.7745098
0.87058824 0.972549 0.7745098
0.87941176 0.9764706 0.7705882
0.8938725 0.9789216 0.76666665
0.99215686 0.99215686 0.67647064
0.010784313 0.003921569 0.44411767
0.105882354 0.0012867649 0.49264705
0.29852942 0.033088237 0.57438725
0.4893995 0.109865196 0.6216299
0.6276961 0.17034315 0.642402
0.7308824 0.22794119 0.6598039
0.8373774 0.31580883 0.7
0.8929534 0.39491424 0.72990197
0.9995098 0.6504902 0.61764705
0.0 0.11335784 0.6379289
0.036611523 0.10926011 0.63805914
0.2474418 0.14085479 0.64759505
0.44932598 0.18579963 0.66208637
0.60355395 0.22346814 0.6643076
0.72499996 0.27843136 0.6829044
0.8420037 0.34957108 0.70441175
0.9050322 0.42237285 0.7334559
1.0 0.654902 0.6150123
0.0 0.25049022 0.6745098
0.018719364 0.252114 0.6700368
0.18777573 0.26976106 0.68973655
0.40614277 0.30191484 0.7040441
0.59693635 0.32990196 0.70741427
0.72843134 0.36024818 0.70620406
0.8462623 0.40784314 0.7100491
0.93057597 0.47599572 0.73290443
1.0 0.66825986 0.6193628
0.0068627456 0.41225493 0.6911765
0.02570466 0.4084942 0.6887255
0.17835478 0.42435664 0.70114887
0.38753065 0.4432062 0.7115886
0.58676475 0.45906863 0.72205883
0.72879905 0.4766544 0.72205883
0.85579044 0.49750307 0.7211397
0.959398 0.54056376 0.7222197
1.0 0.68333334 0.61366427
0.07696079 0.56617653 0.6906863
0.107659325 0.5625 0.6932598
0.21703431 0.5639706 0.70386034
0.3879902 0.58085173 0.71200985
0.5654412 0.5976716 0.71875
0.7152574 0.6065564 0.72015935
0.8519608 0.60392165 0.70998776
0.9764706 0.6232537 0.7108762
1.0 0.7058823 0.60857844
0.29068628 0.69558823 0.6965686
0.3080882 0.6920956 0.6960784
0.33961397 0.6882353 0.70165443
0.44093904 0.7025812 0.70589006
0.5782169 0.70735294 0.7124081
0.70618874 0.715625 0.71219367
0.83866423 0.709804 0.6993872
0.9777956 0.7137255 0.6960784
1.0 0.73192406 0.6098039
0.48713237 0.8138481 0.74031866
0.50726104 0.82222736 0.740625
0.52484685 0.8229167 0.7363971
0.5710478 0.8229167 0.7283701
0.63774514 0.82205886 0.71838236
0.7148438 0.82644 0.7045343
0.82475495 0.81593144 0.6860294
0.95594364 0.8083946 0.6743873
1.0 0.7689951 0.6077206
0.6626226 0.91568625 0.77138484
0.67168355 0.91568625 0.7667968
0.68483454 0.912791 0.76292896
0.7039216 0.912523 0.75386035
0.73719364 0.91461396 0.7421263
0.7661535 0.91425395 0.7271446
0.8220588 0.9142157 0.70121014
0.9202206 0.9070389 0.6457874
0.99871325 0.83186275 0.6015932
0.85882354 0.972549 0.7882353
0.85882354 0.972549 0.7882353
0.85882354 0.972549 0.7882353
0.86274505 0.972549 0.78431374
0.8666667 0.972549 0.78431374
0.87058824 0.972549 0.78431374
0.8764706 0.9764706 0.78382355
0.8913603 0.9789216 0.77990204
0.99215686 0.99215686 0.6936275
0.039215688 0.021568628 0.61372554
0.1517157 0.042034313 0.6376226
0.34117648 0.12181373 0.6926471
0.5254902 0.20392157 0.74105394
0.6514706 0.26911765 0.76323533
0.7518382 0.33247548 0.7854167
0.84019613 0.39779413 0.8068627
0.8794118 0.45294118 0.81666666
0.9960785 0.6627451 0.7019608
0.13235295 0.19080883 0.74215686
0.16706496 0.19375 0.7427083
0.3031863 0.21642157 0.7511029
0.48451287 0.26769304 0.7714001
0.6321691 0.31893384 0.786152
0.7417892 0.3689338 0.7980546
0.8387868 0.4276348 0.81063116
0.88921565 0.48581496 0.82549024
1.0 0.66764706 0.69803923
0.11838236 0.33480394 0.7928922
0.13927697 0.32873774 0.79215693
0.25674018 0.3346814 0.7982843
0.4404718 0.36102945 0.8042892
0.6093137 0.40085784 0.8138481
0.7306066 0.43756127 0.8166667
0.8400735 0.47971812 0.8176471
0.9063726 0.53039217 0.83170956
1.0 0.6784314 0.69705886
0.1324755 0.48039216 0.80588233
0.15212929 0.4701287 0.80490196
0.23547794 0.46363357 0.81207114
0.40340075 0.47535232 0.82892156
0.58382356 0.50232846 0.83639705
0.72054225 0.5268383 0.83713233
0.8439338 0.5563726 0.8376225
0.9295956 0.58892465 0.8333334
1.0 0.69215685 0.69301474
0.15931374 0.5921569 0.8088235
0.17653187 0.5867034 0.8086397
0.23137255 0.59080887 0.81274515
0.38750002 0.5920956 0.8302083
0.55122554 0.6066177 0.84411764
0.7102941 0.6242647 0.8525735
0.84411764 0.63823533 0.8450981
0.95300245 0.65545344 0.8297794
1.0 0.7142157 0.69411767
0.28002453 0.6957108 0.7993873
0.28774512 0.6917892 0.7993873
0.31706494 0.6926777 0.8030943
0.4151501 0.6957108 0.8153187
0.5566177 0.7014706 0.82892156
0.6981771 0.7151961 0.83589154
0.83275115 0.7221201 0.8435662
0.9669424 0.7269608 0.82303923
1.0 0.7343137 0.6889706
0.46862745 0.80465686 0.80759805
0.47503066 0.8039216 0.80465686
0.48915443 0.80153185 0.80563724
0.53406864 0.8039216 0.8118567
0.6080882 0.8083334 0.8176471
0.6979167 0.82058823 0.8216912
0.813848 0.8159314 0.81538
0.94868267 0.8051164 0.7981924
1.0 0.7676471 0.68602943
0.63186276 0.90085787 0.8221814
0.63812804 0.90085787 0.8197304
0.65085787 0.90085787 0.8186275
0.6717678 0.90392154 0.81544113
0.69975495 0.90392154 0.80955887
0.73714775 0.9066789 0.80033696
0.79926467 0.9050245 0.78161764
0.90428925 0.8976869 0.7498468
1.0 0.82794124 0.6784314
0.85490197 0.972549 0.80588233
0.85490197 0.972549 0.8088236
0.85808825 0.972549 0.8088236
0.85882354 0.972549 0.8088236
0.8637255 0.975 0.8063726
0.8666667 0.9764706 0.80490196
0.87254906 0.9764706 0.8039216
0.890196 0.98039216 0.7970588
0.99215686 0.99215686 0.7107843
0.22205883 0.16666667 0.7583333
0.3103554 0.20055148 0.77653193
0.44154412 0.2519608 0.7996324
0.58817405 0.31060052 0.8210784
0.70073533 0.36691177 0.83431375
0.7934436 0.4189338 0.84540445
0.85404414 0.46372548 0.85625
0.8833334 0.5140319 0.8715687
0.98970586 0.6808824 0.7926471
0.17150736 0.2941177 0.80784315
0.2198989 0.29882047 0.80992645
0.36559436 0.321875 0.8201593
0.536129 0.36781558 0.83724725
0.6744792 0.4130515 0.8517463
0.7740962 0.45563725 0.8607843
0.85981923 0.5028799 0.86934745
0.88929987 0.5431373 0.88010114
0.98970586 0.68872553 0.7926471
0.17009804 0.42806375 0.82708335
0.19511336 0.4227022 0.83146447
0.28820467 0.4250613 0.8436275
0.45994177 0.4475337 0.8602788
0.6303309 0.48192403 0.87254906
0.7537837 0.5163144 0.88227636
0.8554228 0.55364585 0.8877451
0.90094984 0.5851869 0.8929688
0.9936275 0.6990196 0.7911765
0.20196079 0.54172796 0.8418505
0.2166054 0.5382507 0.8421569
0.2660233 0.5325981 0.85035235
0.4223269 0.54307604 0.8789599
0.5911459 0.56161153 0.8954963
0.7314645 0.5879672 0.9050628
0.84482235 0.6166666 0.9090074
0.9148208 0.6412301 0.90870863
0.9936275 0.7091299 0.7911765
0.23480393 0.6365197 0.85294116
0.24145222 0.631587 0.85294116
0.29276964 0.62665445 0.8619485
0.40520835 0.6311275 0.88293505
0.55294126 0.63982844 0.90686274
0.6963848 0.6540748 0.9245098
0.8267157 0.67898285 0.929228
0.92594975 0.693413 0.92012864
0.9960785 0.7279412 0.7897059
0.29889706 0.7047794 0.85882354
0.30515474 0.7013327 0.8602941
0.3469976 0.7004902 0.8699755
0.409375 0.6983456 0.8838235
0.53189343 0.70814955 0.9079351
0.66061586 0.7210172 0.928171
0.80211395 0.73382354 0.9408701
0.92791826 0.7432675 0.9295956
0.9960785 0.75098044 0.79087013
0.41335785 0.77610296 0.86335784
0.41706496 0.77241117 0.86410844
0.43897057 0.77156866 0.87193626
0.47239584 0.7697304 0.88203126
0.5445466 0.78094363 0.9012255
0.6407935 0.7881588 0.9261489
0.77328426 0.8018382 0.94050246
0.9209406 0.80085784 0.9214002
0.9981618 0.7740196 0.78480387
0.57156867 0.8652574 0.87254906
0.5773744 0.8661765 0.87346816
0.5872856 0.8686275 0.87101716
0.61070776 0.87082565 0.8750536
0.64068633 0.8733149 0.8813726
0.68200827 0.87874544 0.8863358
0.756587 0.8840074 0.8899357
0.8787684 0.8788603 0.8772518
1.0 0.82549024 0.7769608
0.8485294 0.972549 0.8362745
0.8509804 0.972549 0.8362745
0.85245097 0.972549 0.8362745
0.85245097 0.972549 0.8362745
0.8602941 0.9764706 0.83480394
0.8624387 0.9764706 0.8360907
0.87205887 0.9764706 0.83382356
0.88780636 0.98039216 0.832353
0.99215686 0.9960785 0.75
0.5058824 0.54509807 0.890196
0.5254902 0.54901963 0.890196
0.56078434 0.5568628 0.89411765
0.62107843 0.57303923 0.8985294
0.6686275 0.59019613 0.90588236
0.71813726 0.6039216 0.9132353
0.79019606 0.6284314 0.9147059
0.8759804 0.6598039 0.92156863
0.9372549 0.72156864 0.93333334
0.48333332 0.5529412 0.8862745
0.502451 0.55833334 0.890196
0.5362745 0.5676471 0.89411765
0.58523285 0.5771446 0.90245104
0.6375 0.59411764 0.9085784
0.7083334 0.61127454 0.9137255
0.77365196 0.63480395 0.9186274
0.86421573 0.66672796 0.9254902
0.94117653 0.7254902 0.9372549
0.4362745 0.57156867 0.8833333
0.45980394 0.57254905 0.8872549
0.49754906 0.5816177 0.8941176
0.55122554 0.5887255 0.90330887
0.60882354 0.604902 0.9083333
0.6763481 0.6221814 0.916299
0.752451 0.64656866 0.9247549
0.8465686 0.6754902 0.9290442
0.94117653 0.7294117 0.9372549
0.3852941 0.5892157 0.87500006
0.40845588 0.59313726 0.88235295
0.452451 0.6 0.8900735
0.49803925 0.60882354 0.89509803
0.5642157 0.6218138 0.907598
0.63504905 0.6357843 0.917647
0.7166667 0.65772057 0.9268383
0.8328432 0.69166666 0.93596816
0.9416667 0.7377451 0.9377451
0.3627451 0.61960787 0.8745099
0.37843138 0.6215687 0.8764706
0.40686274 0.627451 0.88186276
0.45980394 0.6335784 0.892647
0.5264706 0.6431373 0.904902
0.60343134 0.65637255 0.9174019
0.6867647 0.6759804 0.9318628
0.81102943 0.71004903 0.942402
0.94509804 0.7509804 0.9431373
0.33284315 0.6534314 0.87058824
0.3563726 0.6539216 0.8745099
0.38112745 0.6582108 0.878799
0.4250613 0.66268384 0.8871936
0.5034314 0.6696079 0.9034314
0.5656863 0.6813726 0.9166666
0.6529412 0.6984069 0.9334559
0.78700984 0.7294118 0.95116425
0.9490196 0.7642157 0.9485294
0.34705883 0.70000005 0.8715687
0.35784316 0.70000005 0.8745099
0.38137254 0.70000005 0.8813726
0.40392157 0.701103 0.8867647
0.46764708 0.70490193 0.89754903
0.53137255 0.71519613 0.91017157
0.62205887 0.7269608 0.9306373
0.7585784 0.7558824 0.95649505
0.95392156 0.78627455 0.95392156
0.41862747 0.76127446 0.8769608
0.42794117 0.7588235 0.8808824
0.4372549 0.76127446 0.88235295
0.44803923 0.7627451 0.8867647
0.48284316 0.7651961 0.89730394
0.5298407 0.7705883 0.9116422
0.60183823 0.77941173 0.9318628
0.72996324 0.80049026 0.9632966
0.9671569 0.82058823 0.9647059
0.7607843 0.9568627 0.9529412
0.7607843 0.9568627 0.9529412
0.77254903 0.9607843 0.9568627
0.77254903 0.9607843 0.9568627
0.77647066 0.9627451 0.9568627
0.7803922 0.9647059 0.9568627
0.7911765 0.9656863 0.9617647
0.81274515 0.9686275 0.9671569
0.98431367 0.9882353 0.98431367
