StreetStamps/fuji_eterna.cube
#Generated by PennL1
#小红书号：PennL1
#公众号：胶片感
#闲鱼号：LOOK胶片感
TITLE Standard-ETERNA
LUT_3D_SIZE 33
0.007843138 0.007843138 0.007843138
0.008946079 0.007843138 0.007843138
0.024754902 0.007843138 0.008578432
0.055882353 0.007843138 0.012867647
0.085784316 0.007843138 0.017156864
0.10539216 0.007843138 0.019607844
0.12696078 0.007843138 0.021813726
0.15012255 0.007843138 0.026102941
0.16862746 0.007843138 0.02745098
0.19240196 0.011151961 0.030759806
0.22181372 0.015441177 0.03504902
0.24779412 0.023651961 0.039215688
0.27450982 0.028921569 0.039705884
0.3079657 0.040931374 0.043995097
0.34044117 0.049509805 0.047058824
0.37904412 0.06127451 0.048651963
0.41960785 0.07254902 0.054901965
0.46249998 0.0814951 0.061151966
0.49730393 0.09166667 0.06544118
0.53651965 0.10330883 0.06666667
0.5656863 0.11617648 0.07009804
0.60281867 0.12524511 0.07438726
0.63725495 0.1382353 0.07475491
0.67156863 0.15539217 0.07904412
0.70686275 0.17254902 0.08235294
0.7481618 0.18970588 0.083700985
0.7901961 0.20857844 0.08627451
0.8307598 0.23419118 0.08627451
0.8803922 0.26666668 0.08872549
0.92058825 0.3094363 0.08737745
0.93259805 0.3661765 0.083088234
0.93333334 0.42622548 0.0752451
0.93333334 0.60784316 0.2117647
0.0074754907 0.010049021 0.0071078436
0.0065295654 0.010083487 0.004254749
0.030376839 0.010485601 0.008210785
0.061887257 0.011783855 0.012396599
0.08628983 0.015808824 0.015088849
0.10963159 0.02009804 0.017156864
0.1333793 0.022388175 0.021446079
0.15723807 0.02512255 0.023161765
0.18005516 0.03207721 0.026102941
0.20159315 0.040563725 0.027083334
0.23372397 0.04914216 0.030759806
0.25305226 0.057241883 0.031483613
0.28745404 0.062331498 0.03541667
0.32495788 0.071365654 0.03970588
0.3606694 0.081495106 0.04410999
0.39468825 0.08737746 0.048651963
0.42873776 0.095955886 0.052941177
0.4684628 0.10431602 0.057012103
0.5063649 0.11299786 0.061151966
0.5356618 0.12418046 0.06266468
0.5716912 0.13377759 0.06585478
0.59616655 0.14620098 0.07009804
0.6329657 0.15847887 0.07081036
0.6673369 0.1691253 0.0747549
0.70284927 0.18710172 0.07815564
0.7439989 0.19999999 0.07977942
0.7878294 0.22144608 0.08235294
0.8285042 0.24686351 0.084436275
0.87647057 0.27916667 0.08627451
0.9192211 0.31964615 0.08601026
0.9325291 0.37489274 0.082720585
0.93333334 0.42802924 0.07521063
0.93333334 0.60784316 0.2117647
0.003921569 0.03651961 0.0
0.015441177 0.036887255 0.0032552085
0.04117647 0.04117647 0.004518995
0.066911764 0.04456955 0.0073146448
0.09237132 0.04656863 0.00903799
0.11615349 0.050857842 0.012867648
0.14198837 0.054733455 0.017156864
0.16445313 0.058700982 0.01887255
0.1877451 0.0629902 0.021813726
0.21017158 0.06996783 0.023414522
0.23897058 0.078431375 0.026516544
0.2643842 0.083065264 0.030660234
0.29623163 0.09044118 0.031862747
0.33059898 0.09558824 0.03615196
0.367402 0.102941185 0.04143689
0.4030101 0.10852482 0.04791667
0.44080883 0.11703432 0.052205883
0.47336856 0.12365197 0.05460325
0.5038756 0.13282782 0.05709253
0.53309596 0.1399127 0.061151963
0.56767774 0.14993873 0.06265319
0.60220593 0.16262256 0.06583181
0.62867653 0.17161459 0.06985295
0.66360295 0.1849418 0.070465684
0.7012255 0.19693626 0.07475491
0.7409314 0.21335019 0.07904412
0.7865043 0.23431373 0.08193934
0.827137 0.25784314 0.08404565
0.8757353 0.2884804 0.08553922
0.91645986 0.33354014 0.083249085
0.9318628 0.38480392 0.079166666
0.932667 0.43982843 0.074877456
0.93333334 0.60784316 0.21397057
0.006127451 0.06875 0.0
0.02512255 0.06911765 0.00026424637
0.050857842 0.07320006 0.003025429
0.07659314 0.07659314 0.004714308
0.10044424 0.080882356 0.0067401966
0.12252221 0.08465457 0.008578432
0.14767157 0.086151965 0.012867648
0.17083333 0.08872549 0.014583334
0.19522059 0.09301471 0.01752451
0.21857767 0.09730393 0.021813726
0.24754903 0.104235604 0.023460478
0.27097505 0.10759804 0.026470589
0.3056679 0.11216299 0.030759806
0.33848038 0.11899893 0.03504902
0.37279412 0.1254902 0.03933824
0.40576366 0.12977941 0.043179385
0.43811277 0.13743873 0.046813726
0.47410005 0.14509805 0.05110294
0.50222886 0.15132506 0.05345435
0.53627455 0.16042049 0.05686275
0.56361824 0.16580883 0.061151966
0.5978822 0.1766276 0.062710635
0.6276961 0.18681833 0.06563266
0.6626226 0.20127529 0.06727941
0.6996936 0.2098652 0.07129289
0.73736596 0.22868797 0.07475491
0.78639704 0.2478018 0.07904412
0.82908624 0.2712967 0.08183594
0.8733762 0.3010723 0.08235294
0.9155637 0.34301472 0.08235294
0.9318628 0.39427847 0.079166666
0.92977947 0.44950983 0.073877916
0.93443626 0.61004907 0.2235294
0.014705883 0.10294118 0.0
0.037990198 0.10330883 0.0
0.063725494 0.106862746 0.00045955885
0.08904718 0.10755208 0.0028645834
0.110784315 0.110784315 0.003921569
0.12977941 0.113235295 0.005070466
0.15343137 0.1140625 0.008578432
0.17562807 0.118244484 0.010294118
0.1995098 0.12193628 0.013235295
0.22648591 0.12585784 0.01752451
0.25612748 0.13014707 0.021813726
0.28210783 0.13051471 0.023651961
0.3093137 0.13541667 0.027941177
0.34609374 0.14431679 0.031908702
0.37696078 0.14975491 0.03504902
0.40828738 0.15404412 0.038342528
0.4382353 0.16029412 0.04117647
0.46992955 0.16654411 0.044592526
0.5000919 0.17083335 0.049295343
0.5329504 0.1801011 0.05289522
0.56072307 0.18578431 0.05686275
0.59364283 0.19387256 0.061151966
0.63186276 0.20652574 0.061519615
0.66678923 0.21763174 0.065808825
0.7031863 0.22879903 0.0694853
0.73685664 0.24445467 0.071430765
0.7821079 0.2628983 0.0747549
0.82928926 0.2863511 0.07904412
0.8740196 0.31323528 0.080882356
0.91409314 0.35412073 0.080882356
0.93158704 0.4056985 0.078890935
0.92977947 0.4582414 0.07132353
0.9372549 0.6156863 0.2235294
0.023284314 0.13051471 0.0018382354
0.050857842 0.13088235 0.0018382354
0.07624847 0.13443628 0.0014935663
0.09938726 0.13443628 0.0005859375
0.11936275 0.13521753 0.0020833334
0.13835785 0.13738129 0.0029450064
0.1609758 0.13952972 0.005093444
0.1831725 0.14558823 0.007211244
0.20609681 0.14828432 0.010784314
0.23313037 0.15159313 0.013522519
0.264591 0.15588236 0.01752451
0.29062882 0.15625 0.021813726
0.31559438 0.16053922 0.025873162
0.34875536 0.16528417 0.028500307
0.37761182 0.17120098 0.032023594
0.4091682 0.1754902 0.03504902
0.44129902 0.18082108 0.03933824
0.47190177 0.1872434 0.042390473
0.50258124 0.19227941 0.047265626
0.53314185 0.19963235 0.05057828
0.56332725 0.20638786 0.052803308
0.59492576 0.21470588 0.05686275
0.62757355 0.2235294 0.058953743
0.6625 0.23272058 0.061519608
0.70058215 0.24610908 0.065808825
0.7369907 0.26117113 0.0693819
0.77862287 0.27787223 0.07230392
0.8258617 0.30036765 0.075616576
0.8697304 0.32840073 0.07659314
0.9098039 0.36846277 0.07791437
0.9307828 0.4151961 0.07693781
0.92977947 0.46237746 0.0711512
0.9372549 0.6156863 0.2235294
0.040686276 0.1627451 0.003921569
0.069722734 0.16311274 0.0037147673
0.08831189 0.16666667 0.0013939952
0.107965685 0.16666667 0.0
0.12876838 0.16666667 0.0
0.14810815 0.16850491 0.000804228
0.16838235 0.17058824 0.0029564952
0.19240198 0.17284007 0.005047488
0.21519607 0.17567402 0.008578432
0.23808976 0.1776731 0.009558824
0.27083334 0.18161765 0.013235295
0.2970052 0.18198529 0.01752451
0.32156864 0.18655026 0.021599265
0.35196844 0.19228707 0.024762562
0.38195467 0.19485295 0.029166669
0.40914524 0.2000383 0.030759806
0.44252452 0.2045343 0.03504902
0.47401196 0.20873927 0.039338235
0.5002451 0.21524203 0.04211091
0.53210783 0.22328432 0.045710787
0.5595588 0.22800246 0.048498776
0.5966912 0.23602942 0.05257353
0.62328434 0.24303003 0.056617647
0.65821075 0.25394455 0.057230394
0.6968137 0.264951 0.06151961
0.7363435 0.2791667 0.06580883
0.77800244 0.29632354 0.07009804
0.82151496 0.31647518 0.07230392
0.86544114 0.34607843 0.0736826
0.90710014 0.38479626 0.07574296
0.9285999 0.4285999 0.07483149
0.9295727 0.47736675 0.07095589
0.9372549 0.62009805 0.22573528
0.061274514 0.19448529 0.0013480394
0.082349114 0.19485293 0.0012216605
0.09828432 0.19840686 0.0
0.11654411 0.19840686 0.00072380516
0.13702513 0.1974418 0.0025735295
0.15623085 0.19646522 0.0025735295
0.17696078 0.2000766 0.0033318016
0.19929151 0.20232843 0.003921569
0.22120099 0.20140931 0.004932598
0.24264707 0.20544577 0.0052696085
0.27512255 0.20751378 0.008946079
0.29885495 0.21021369 0.013235294
0.32757354 0.2125 0.01752451
0.35647213 0.21936275 0.021813726
0.3824372 0.22058824 0.024877451
0.41397062 0.2243796 0.027516086
0.4463848 0.2285539 0.03204657
0.4763978 0.23345588 0.03504902
0.5036765 0.23690256 0.03841146
0.5295075 0.24387255 0.040268846
0.5620251 0.2500919 0.043995097
0.59264326 0.25833336 0.048284315
0.6267157 0.26699603 0.052489277
0.66043586 0.27683827 0.055112593
0.6925245 0.28639707 0.057230394
0.73382354 0.30061278 0.061519615
0.7758578 0.31889552 0.065808825
0.81642157 0.33958337 0.06801471
0.86597735 0.36516544 0.07046569
0.9080652 0.4031863 0.073786005
0.9272059 0.44816944 0.07450981
0.9294118 0.49398747 0.07095589
0.9372549 0.62352943 0.22745097
0.07254902 0.227451 0.0058823535
0.09558824 0.22460172 0.0058823535
0.11219363 0.2254902 0.0058823535
0.12806374 0.2254902 0.0061580883
0.14803922 0.2262255 0.0068627456
0.16703431 0.227451 0.005484069
0.18682599 0.22855394 0.003921569
0.2069853 0.22748163 0.003921569
0.22843137 0.23014705 0.0017156862
0.2523591 0.23302695 0.00346201
0.27977943 0.23333332 0.0075980397
0.30193016 0.2372549 0.008946079
0.33480394 0.2382353 0.013235294
0.36311275 0.24509805 0.01752451
0.3882353 0.24724266 0.021507353
0.41896445 0.25196078 0.024325982
0.4470588 0.25441176 0.026960785
0.4768995 0.25744486 0.030759806
0.5034314 0.26188728 0.03504902
0.53299636 0.26985294 0.038572308
0.56237745 0.27328432 0.04007353
0.59702826 0.28112745 0.043995097
0.62665445 0.28970587 0.048284315
0.6634191 0.2987439 0.052420344
0.6970588 0.3107843 0.055882353
0.7363358 0.32297796 0.059160545
0.77708334 0.3379902 0.06151961
0.8162684 0.35943627 0.063725494
0.8642157 0.38333333 0.06801471
0.90588236 0.4224571 0.07129289
0.92665446 0.46219367 0.07156863
0.9294118 0.5041667 0.06801471
0.9372549 0.6294118 0.22450979
0.09436275 0.25514707 0.014460785
0.10974648 0.25422412 0.014460785
0.12916666 0.25246632 0.014460785
0.14330961 0.25784314 0.013530178
0.15966606 0.25807294 0.0099111525
0.17659314 0.2569049 0.0060049025
0.19769454 0.25514707 0.003921569
0.21887255 0.2590878 0.0017501533
0.23535538 0.26207107 0.00015318627
0.2584559 0.26237747 0.0033088238
0.2841912 0.25927544 0.0075980397
0.30945542 0.26629904 0.007965687
0.34048715 0.26727945 0.012254902
0.37169117 0.27414218 0.015820313
0.39681372 0.27452514 0.01752451
0.42634803 0.27671188 0.021564798
0.4536765 0.27898285 0.025490196
0.48333335 0.28321844 0.027814798
0.50906867 0.2867494 0.030759806
0.53576136 0.2932598 0.03504902
0.5617647 0.2949755 0.035906866
0.5956917 0.30577898 0.03970588
0.6224265 0.31466758 0.043995097
0.66041666 0.3264438 0.048284315
0.6957108 0.3365196 0.051746324
0.73317635 0.34803924 0.05334329
0.7727711 0.36321235 0.057230394
0.81335783 0.38300398 0.059436277
0.85992646 0.403799 0.06433824
0.90159315 0.44124922 0.06965763
0.9258503 0.48062962 0.07058824
0.9294118 0.5136757 0.06703432
0.9372549 0.6313726 0.2334559
0.1127451 0.29191178 0.019362746
0.12933518 0.2918888 0.019707415
0.14264706 0.2917586 0.02234988
0.15765166 0.29112285 0.018259805
0.1759804 0.2884804 0.013970589
0.18907782 0.29008886 0.009681373
0.20661765 0.29191178 0.01173407
0.22806373 0.29223347 0.012377451
0.24638481 0.29240197 0.011029412
0.27009806 0.29240197 0.014338236
0.29583335 0.2956189 0.011734068
0.3180147 0.29632354 0.015088849
0.34806988 0.29730394 0.011795344
0.37659314 0.30416667 0.012009804
0.4028646 0.30416667 0.013235294
0.43492648 0.3072534 0.01752451
0.4567402 0.31176472 0.01997549
0.48743108 0.31642157 0.022280945
0.5176471 0.31960785 0.028998164
0.5433824 0.32860756 0.031564035
0.56911767 0.33112746 0.03483456
0.602451 0.33896294 0.035531558
0.6291667 0.34388787 0.039705884
0.6654335 0.3526961 0.04342065
0.69142157 0.3622549 0.04454657
0.7324679 0.3750383 0.04865196
0.7759497 0.38967523 0.052941177
0.81665134 0.40893075 0.057100184
0.8574755 0.43259802 0.0614277
0.8962699 0.4643229 0.06580883
0.925046 0.5019608 0.0698989
0.9294118 0.5334559 0.06703432
0.9372549 0.6387255 0.23529413
0.13382354 0.3302696 0.035661764
0.14976639 0.32634804 0.031851258
0.15566024 0.32634804 0.031027881
0.16969594 0.32641697 0.028975183
0.18534008 0.32512257 0.030193016
0.2018459 0.3226716 0.027876072
0.22095588 0.3226716 0.025735294
0.24060585 0.32765782 0.026432293
0.25925246 0.3301777 0.024754902
0.2764706 0.32694164 0.02377451
0.30465686 0.32657784 0.01998315
0.33418736 0.33418736 0.016050093
0.35651043 0.33406863 0.015441177
0.3849533 0.33412224 0.012894454
0.4076823 0.33550093 0.016015626
0.43642005 0.33811274 0.017574295
0.4667892 0.3382966 0.021813726
0.49264705 0.34524742 0.025980392
0.51577055 0.34987745 0.030185357
0.54912686 0.35610068 0.028308824
0.57732844 0.35784316 0.030882355
0.5997396 0.36924022 0.03137255
0.62609535 0.37033546 0.03542433
0.6639323 0.38304994 0.039828435
0.6990196 0.39283088 0.04408701
0.73627454 0.40101868 0.046936274
0.7706955 0.42144608 0.048651963
0.81113666 0.43444392 0.05294118
0.8532629 0.45225182 0.05975797
0.8947304 0.4848384 0.06547565
0.92497706 0.51384807 0.06664369
0.9294118 0.54291517 0.06677773
0.9372549 0.6394608 0.23566177
0.15196079 0.36127454 0.048039217
0.16357231 0.35784316 0.048207723
0.17432599 0.35784316 0.04500613
0.1897212 0.3596354 0.04364277
0.2038603 0.36292896 0.04117647
0.21848959 0.36147368 0.042555146
0.23437499 0.3619792 0.0421875
0.25196078 0.36176473 0.038112745
0.27426472 0.35882354 0.03382353
0.29355088 0.35784316 0.032429535
0.3208946 0.36427698 0.026378676
0.34221813 0.36557907 0.028829657
0.3630515 0.36225495 0.025490196
0.39436275 0.36364892 0.02345282
0.41902572 0.36862743 0.027512256
0.4422028 0.36922485 0.028278187
0.47181374 0.3752451 0.030392159
0.5014246 0.38039216 0.030177698
0.5269608 0.38106617 0.03137255
0.55001533 0.38941485 0.02869179
0.5745711 0.39166668 0.030943628
0.6102176 0.40306374 0.03184743
0.6367954 0.4039522 0.03327206
0.67049634 0.41230085 0.040165443
0.69963235 0.4172794 0.04264706
0.73612136 0.42875308 0.042815566
0.7740809 0.44408703 0.04463848
0.8109528 0.46087623 0.049172796
0.84871316 0.47971815 0.05821079
0.8914216 0.50762874 0.062607236
0.9243567 0.5352942 0.06593138
0.9294118 0.55747557 0.07066483
0.9372549 0.64754903 0.24705881
0.17598039 0.39987746 0.057475492
0.18198912 0.39979702 0.06053922
0.19566482 0.3990196 0.059964772
0.2073606 0.39815792 0.057234224
0.21983762 0.39659926 0.05693934
0.23044577 0.40197992 0.05603937
0.25110295 0.40465686 0.05344669
0.27056527 0.40294117 0.05068551
0.28777575 0.40000004 0.04669118
0.30845588 0.3990196 0.043849573
0.33151042 0.3990196 0.045572918
0.35028723 0.40686274 0.041911766
0.3807445 0.40686274 0.04522059
0.40379903 0.40619257 0.041306682
0.42926624 0.40353096 0.04027267
0.45316714 0.40772057 0.041440718
0.48253676 0.41427696 0.03897059
0.51190645 0.41384804 0.034681376
0.5346278 0.41806066 0.033678003
0.56089926 0.42198607 0.03327589
0.5820772 0.422549 0.034589462
0.60960096 0.43228403 0.037771907
0.63529414 0.43494177 0.04319087
0.6728822 0.44463083 0.043382354
0.70349264 0.4490196 0.03985907
0.7353171 0.4612975 0.040563725
0.77365196 0.4743796 0.04388787
0.81213236 0.4889706 0.05064721
0.8525736 0.5067402 0.057674635
0.89461166 0.5310049 0.061642163
0.92430305 0.5567402 0.06593138
0.9293314 0.5789216 0.07377452
0.9372549 0.6509804 0.24705881
0.19313726 0.4372549 0.07034314
0.20146292 0.43700215 0.06934743
0.20860907 0.43432903 0.071338855
0.22225797 0.43436736 0.0692402
0.2346201 0.43903187 0.067432605
0.24829197 0.4418275 0.0685432
0.26488972 0.43965992 0.06485907
0.27979475 0.43767616 0.06330423
0.2980392 0.43523285 0.061703432
0.3194853 0.4345588 0.062270224
0.34598652 0.43340993 0.059972428
0.36899507 0.43884036 0.058379292
0.39077818 0.44224876 0.059313726
0.4154412 0.44117644 0.05647212
0.44033396 0.44033393 0.05735294
0.46371785 0.44126838 0.053063728
0.4914216 0.44583333 0.05
0.51912534 0.44632354 0.046208642
0.5388021 0.44632354 0.046813726
0.5662224 0.45264247 0.04497549
0.5860601 0.45762867 0.04990809
0.6186198 0.4607001 0.05192249
0.6447917 0.46657473 0.046982232
0.67653954 0.47339156 0.048897058
0.7019608 0.48088238 0.044301473
0.73585325 0.49189645 0.04221048
0.76936275 0.5012255 0.048483457
0.80784315 0.51344216 0.05637255
0.8482843 0.5291054 0.059283093
0.89252454 0.552451 0.062522985
0.92158395 0.5771906 0.065165445
0.9290442 0.596921 0.075880826
0.9372549 0.6534314 0.24828431
0.20870097 0.47316176 0.08321079
0.21757813 0.47316176 0.081169575
0.22934282 0.47242647 0.083509505
0.24052544 0.47120482 0.08096278
0.25245097 0.4762255 0.078691795
0.26579735 0.47662762 0.07660463
0.2797794 0.47708336 0.07626379
0.29455042 0.4755553 0.07848882
0.31639093 0.47356004 0.07809436
0.3382353 0.47316176 0.075731464
0.35968137 0.46948528 0.07686122
0.3833563 0.4694585 0.07762332
0.4023131 0.47633272 0.074877456
0.42879903 0.47708336 0.07144608
0.45304075 0.47708336 0.070718445
0.4745443 0.4754902 0.068818934
0.49889708 0.4766544 0.06795344
0.52230394 0.48298487 0.063813575
0.5464461 0.4849265 0.06397059
0.5721814 0.4849265 0.062132355
0.5965227 0.49103862 0.064705886
0.62205887 0.49654183 0.0659084
0.65101105 0.49712777 0.06107537
0.6787952 0.50417435 0.05772442
0.70474875 0.5086091 0.053799022
0.7370672 0.5178922 0.051160388
0.76985294 0.5307598 0.058371633
0.8057943 0.5423905 0.062155332
0.8439951 0.553171 0.060891546
0.8893804 0.57389706 0.06560585
0.92107844 0.5938572 0.06377911
0.9290442 0.6104857 0.08340227
0.9372549 0.66200984 0.2557598
0.2254902 0.5117647 0.09411765
0.2346201 0.5117647 0.09411765
0.24889708 0.5110294 0.09411765
0.2601716 0.5094976 0.09356618
0.27156863 0.5137255 0.091421574
0.28290445 0.5146446 0.09019608
0.29791668 0.5156863 0.09019608
0.31421572 0.5156863 0.09019608
0.33578432 0.51274514 0.09166667
0.35275736 0.5117647 0.090502456
0.37512255 0.50808823 0.09203431
0.3966299 0.50784314 0.08829657
0.41715688 0.5088235 0.08995098
0.4458946 0.5156863 0.087806374
0.4682598 0.51507354 0.08566177
0.4875613 0.51292896 0.08590686
0.50980395 0.5117647 0.08529412
0.5343751 0.51525736 0.08235294
0.5579657 0.5203432 0.08235294
0.5830883 0.52156866 0.07928922
0.6071079 0.52156866 0.08186275
0.63069856 0.5272672 0.07665442
0.6528187 0.53333336 0.07622549
0.6840687 0.5348652 0.071629904
0.7102941 0.5426471 0.06666667
0.73952204 0.5452206 0.06868873
0.77254903 0.5555147 0.074264705
0.8068627 0.5650736 0.07334559
0.8448529 0.5767157 0.06568628
0.88841915 0.5944853 0.07120098
0.9207108 0.6095588 0.06654412
0.9290442 0.62775743 0.09313726
0.9372549 0.67058825 0.2627451
0.24926472 0.55036765 0.10502451
0.2579925 0.5501494 0.10517387
0.2684513 0.5477405 0.106617644
0.27981773 0.5477903 0.10616958
0.29155943 0.55122554 0.10502451
0.30233994 0.54938734 0.10393306
0.31838238 0.547304 0.101799935
0.3346814 0.5457759 0.10110294
0.34993875 0.5437807 0.105238974
0.366188 0.54927623 0.10527344
0.39056373 0.5466912 0.10284161
0.41215914 0.54637337 0.10122549
0.43112743 0.54451597 0.10502451
0.45651424 0.547304 0.104166664
0.4810049 0.5460785 0.09987745
0.5010149 0.5462201 0.09972044
0.5183824 0.55036765 0.10147059
0.5441177 0.5489851 0.099073224
0.56875765 0.5502298 0.09928003
0.592176 0.55122554 0.09644608
0.61128986 0.55733764 0.09901961
0.63235295 0.5582108 0.09416743
0.6566636 0.5628447 0.09355852
0.68664986 0.5625 0.08662684
0.71292895 0.5720282 0.08535539
0.7435049 0.57407707 0.0877451
0.77524513 0.58026963 0.08812041
0.8079312 0.58651966 0.08358992
0.84571075 0.5993873 0.07571998
0.890805 0.61507356 0.07876073
0.9212163 0.6290441 0.07309283
0.9290442 0.6433556 0.105418965
0.9372549 0.6791667 0.26973042
0.26691177 0.5808824 0.11789216
0.27574298 0.58860296 0.11789216
0.28699452 0.58504903 0.11789216
0.29732692 0.58504903 0.117133886
0.3093137 0.58504903 0.11519609
0.32034314 0.5832108 0.11462163
0.33250612 0.58112746 0.11397059
0.3499847 0.5785539 0.1157399
0.36470592 0.5772059 0.117585786
0.386466 0.58030796 0.11789216
0.40442708 0.5772059 0.11421569
0.4282322 0.57683825 0.11409314
0.44678313 0.57405025 0.11789216
0.46544117 0.58112746 0.117034316
0.49117646 0.579902 0.113587625
0.5116345 0.57869947 0.1148361
0.5296569 0.5808824 0.11593138
0.5537914 0.5785539 0.11164216
0.57843137 0.5769608 0.1127451
0.594784 0.5832797 0.11301318
0.6146753 0.58590686 0.11145833
0.63876384 0.5860294 0.11269915
0.66174936 0.5864583 0.10729167
0.68790597 0.59304535 0.10656403
0.7170956 0.59387255 0.10625
0.7439951 0.59749544 0.10220589
0.77455574 0.6067709 0.1040288
0.80605084 0.6117571 0.10220588
0.8424326 0.6191483 0.09102329
0.889951 0.6357614 0.08740043
0.9191176 0.65049016 0.08575368
0.9287914 0.6560279 0.115946695
0.9372549 0.68235296 0.27450982
0.2889706 0.61580884 0.1307598
0.30098042 0.61523825 0.13047259
0.31196386 0.6144608 0.12769608
0.31580502 0.6144608 0.12745482
0.32647058 0.61331195 0.12913604
0.3375 0.610995 0.13152957
0.35345435 0.6139859 0.12990198
0.37146908 0.6161037 0.13046493
0.3849265 0.61580884 0.1307598
0.3973805 0.61580884 0.1307598
0.41878828 0.6121324 0.12708333
0.4440487 0.6087967 0.13289677
0.45972732 0.6082874 0.1307598
0.48120022 0.60986906 0.13057216
0.49975494 0.6072074 0.13085938
0.5244447 0.60910696 0.13206954
0.54405636 0.6127451 0.13033089
0.5628677 0.6122358 0.1312117
0.58700985 0.60978097 0.1305913
0.60288376 0.6108341 0.12990198
0.6231771 0.6106465 0.13183211
0.64556146 0.6164752 0.12997091
0.67009807 0.61682755 0.122303925
0.69194627 0.6191062 0.1264591
0.7170956 0.61991423 0.12708333
0.7468865 0.62539446 0.121200986
0.7762408 0.63051474 0.121951595
0.8065295 0.6349265 0.1171224
0.8447304 0.63982844 0.109865196
0.88738513 0.6546607 0.101972274
0.919807 0.66887254 0.10436581
0.9289638 0.67385495 0.13116957
0.9372549 0.68848044 0.28063726
0.30784315 0.6509804 0.14362746
0.31727943 0.6504902 0.14325982
0.32794118 0.6504902 0.1397059
0.33111215 0.64952517 0.1397059
0.34362745 0.646875 0.14264706
0.3562653 0.64656866 0.14731924
0.36969975 0.64518994 0.14512868
0.3899663 0.64411765 0.14362746
0.40379903 0.6415441 0.14362746
0.41539523 0.6406863 0.14362746
0.4392157 0.6370098 0.1431679
0.4542892 0.6362745 0.14753371
0.46862745 0.6358456 0.1466299
0.49404106 0.6349878 0.14362746
0.51541054 0.6415748 0.14485294
0.53406864 0.639614 0.14734988
0.5539216 0.6401961 0.14534314
0.5714461 0.6381587 0.14391851
0.58851105 0.6364277 0.14613971
0.60988057 0.63359374 0.14705883
0.63186276 0.64185053 0.14448531
0.65330887 0.644087 0.14696692
0.6690258 0.6406863 0.14289215
0.7001226 0.64175856 0.14610907
0.72181374 0.6477941 0.14338236
0.74685967 0.6485294 0.14264706
0.77677697 0.6519608 0.14114584
0.80859375 0.65637255 0.13661152
0.84344363 0.6612745 0.13002452
0.88604474 0.6754902 0.1239277
0.92034316 0.68388486 0.1205576
0.9290442 0.6852482 0.14808518
0.9372549 0.69705886 0.28578433
0.33259806 0.68529415 0.16409314
0.34047565 0.68149513 0.16408165
0.34294578 0.68149513 0.16325827
0.3555147 0.6814607 0.16017157
0.36838236 0.679948 0.16026348
0.3830308 0.67757356 0.16041668
0.39791667 0.6775046 0.16034774
0.41102558 0.6749579 0.16029412
0.42392772 0.6735601 0.16314338
0.43676472 0.67352945 0.16409314
0.46066177 0.669853 0.16409314
0.4742647 0.6696079 0.16041668
0.48860297 0.6691177 0.15992647
0.5118452 0.6657667 0.15815718
0.52737445 0.66839004 0.16413143
0.5456151 0.67352945 0.16267234
0.56439954 0.6716299 0.1603554
0.5831112 0.66965765 0.1625498
0.6039139 0.6696079 0.16417739
0.61766243 0.66951215 0.16421568
0.6399663 0.66648287 0.16410846
0.6618873 0.66605395 0.16421187
0.6726639 0.67352945 0.16053921
0.708701 0.6729741 0.16300935
0.73014706 0.6699755 0.15744486
0.7542892 0.67258734 0.16029412
0.78431374 0.6776808 0.15857843
0.81440336 0.6818551 0.15630746
0.8421875 0.69031864 0.15609682
0.88756895 0.6963427 0.1422641
0.91796875 0.7069087 0.13987438
0.9321308 0.7056258 0.16555223
0.9372549 0.7056373 0.2976716
0.3625 0.70759803 0.17769608
0.36360297 0.7072304 0.17769608
0.37426472 0.7036764 0.17769608
0.37757352 0.7036764 0.17769608
0.39044118 0.7036764 0.17769608
0.40296417 0.7019531 0.17941943
