StreetStamps/fuji_classic_neg.cube
#Generated by PennL1
#小红书号：PennL1
#公众号：胶片感
#闲鱼号：LOOK胶片感
TITLE Standard-CLASSIC-Neg
LUT_3D_SIZE 5
0.0 0.0 0.0
0.105882354 0.007843138 0.0
0.4019608 0.043137256 0.0
0.80980396 0.13333334 0.0
0.9607843 0.6313726 0.34117648
0.009803921 0.15392157 0.04117647
0.13995099 0.1620098 0.027205883
0.4259804 0.19754902 0.009803921
0.7943628 0.26446077 0.010784313
0.9647059 0.6578432 0.35980394
0.0882353 0.4764706 0.19019608
0.20784314 0.4789216 0.16911766
0.48039216 0.4901961 0.13627452
0.80735296 0.5372549 0.12352942
0.9686275 0.7156863 0.40588236
0.22647059 0.7794118 0.40392157
0.34191176 0.7794118 0.3754902
0.5735294 0.7911765 0.34166667
0.8117647 0.79803926 0.31691176
0.972549 0.7921569 0.48039213
0.8156863 0.9882353 0.81960785
0.8156863 0.9882353 0.81960785
0.827451 0.9882353 0.8156863
0.85 0.9882353 0.8147059
0.972549 0.99215686 0.7686274
0.010784314 0.014705883 0.0754902
0.15735295 0.024754902 0.07058824
0.5647059 0.078431375 0.07058824
0.85 0.15882353 0.09877451
0.9676471 0.6421569 0.42352942
0.03627451 0.21397059 0.24558824
0.18952206 0.21151961 0.20343138
0.52144605 0.23909315 0.15968138
0.8367647 0.29944852 0.16360295
0.9686275 0.6671569 0.43259802
0.12254903 0.52745104 0.40588236
0.2509804 0.5279412 0.36948532
0.55980396 0.53161764 0.3142157
0.83431375 0.56372553 0.29105395
0.9700981 0.72156864 0.47058824
0.24901961 0.78921574 0.5732843
0.3582108 0.7916055 0.5484682
0.60220593 0.7973039 0.49865198
0.8308824 0.80196077 0.46029413
0.9757353 0.79509807 0.5357843
0.8156863 0.9882353 0.827451
0.8156863 0.9882353 0.8333334
0.827451 0.9882353 0.8303922
0.85 0.9882353 0.822549
0.972549 0.99215686 0.7754902
0.04901961 0.04901961 0.18431373
0.25 0.084803924 0.25196078
0.6960784 0.14901961 0.30882353
0.8960784 0.22107843 0.36960784
0.972549 0.6647059 0.54509807
0.10098039 0.3156863 0.5705883
0.2796569 0.30661765 0.5040442
0.64656866 0.33137256 0.4519608
0.87781864 0.3718137 0.43823528
0.972549 0.6882353 0.55980396
0.17941177 0.6166667 0.7176471
0.3264706 0.60269606 0.6661765
0.6348039 0.6068628 0.59852946
0.8688725 0.6176471 0.5522059
0.9764706 0.73529416 0.5862745
0.29509804 0.8068627 0.7892157
0.40588236 0.81274515 0.7676471
0.6507353 0.8139706 0.7112745
0.8579657 0.816299 0.6626226
0.97892153 0.7990196 0.6284314
0.8156863 0.9882353 0.8509804
0.8156863 0.9882353 0.8509804
0.8294118 0.9882353 0.84803927
0.85 0.9882353 0.8426471
0.972549 0.99215686 0.7941176
0.16960785 0.13725491 0.49901962
0.45955884 0.1992647 0.60465693
0.81127447 0.2642157 0.629902
0.9333334 0.32524508 0.6526961
0.9764706 0.70392156 0.6813726
0.21004902 0.46936277 0.85563725
0.43560052 0.46023285 0.8010417
0.7622549 0.4665441 0.73786765
0.9158088 0.48088235 0.7085784
0.9796569 0.7223039 0.6901961
0.26372552 0.6985294 0.925
0.42058825 0.69705886 0.8910539
0.717402 0.69191176 0.8262255
0.8985294 0.6886029 0.7794118
0.98039216 0.75784314 0.70735294
0.34779412 0.8352941 0.94411767
0.46654412 0.8360294 0.91973037
0.70134807 0.8362745 0.87512255
0.87530637 0.8373775 0.8327206
0.98431367 0.81004906 0.7323529
0.8156863 0.9882353 0.8803922
0.8252451 0.9882353 0.88014704
0.83480394 0.9882353 0.8769608
0.85 0.9882353 0.8745098
0.9764706 0.99215686 0.82450974
0.84313726 0.74117655 0.9764706
0.86274505 0.74509805 0.972549
0.90000004 0.7529412 0.9686275
0.9421569 0.7617647 0.9647059
0.99215686 0.8 0.9529412
0.8029412 0.7637255 0.98431367
0.83406866 0.76691175 0.98039216
0.8789216 0.77205884 0.9754902
0.92671573 0.78333336 0.97083336
0.99215686 0.8039216 0.9529412
0.7411765 0.7980392 0.9960785
0.7745098 0.8019608 0.99460787
0.8392157 0.8058824 0.9862745
0.90245104 0.8137255 0.97990197
0.99215686 0.8215686 0.95490193
0.6539216 0.8401961 1.0
0.7227941 0.84338236 1.0
0.7872549 0.845098 0.9960785
0.8708334 0.8522059 0.9889706
0.99215686 0.84901965 0.9607843
0.7647059 0.98039216 1.0
0.78431374 0.98039216 1.0
0.7941177 0.9823529 1.0
0.82843137 0.98431367 1.0
0.9882353 0.9882353 0.9882353
