StreetStamps/fuji_classic_chrome.cube
#Generated by PennL1
#小红书号：PennL1
#公众号：胶片感
#闲鱼号：LOOK胶片感
TITLE Standard-CLASSIC-CHROME
LUT_3D_SIZE 9
0.0 0.0 0.0
0.025490198 0.0 0.0
0.10784314 0.0 0.003921569
0.24901961 0.008333334 0.007843138
0.45098037 0.025490196 0.01764706
0.64362746 0.06176471 0.03529412
0.7921569 0.12745099 0.073529415
0.92696077 0.26862746 0.15539217
0.9529412 0.6627451 0.43137252
0.0 0.033333335 0.0
0.04564951 0.03872549 0.0
0.1447304 0.049509805 0.0011029413
0.30667892 0.063541666 0.008333334
0.48333335 0.09240197 0.01764706
0.63817406 0.13039216 0.034803923
0.7845589 0.19693628 0.0757353
0.92156863 0.3259804 0.1538603
0.9529412 0.67058825 0.44313726
0.01764706 0.15392157 0.0
0.07855392 0.15514706 0.0
0.18995099 0.1622549 0.0007352941
0.34411767 0.17794117 0.007843138
0.49901962 0.20686275 0.01764706
0.64031863 0.24338236 0.034803923
0.7745098 0.30269608 0.07647059
0.9142157 0.40502453 0.16004902
0.9529412 0.6843138 0.44313726
0.06960785 0.33970588 0.011764706
0.1391544 0.34430146 0.00882353
0.25134805 0.33970588 0.009313726
0.38363972 0.34754902 0.018075982
0.52254903 0.36789218 0.034558825
0.64509803 0.3886642 0.058455884
0.7692402 0.42389706 0.09411765
0.902451 0.5033701 0.17469363
0.9529412 0.6990196 0.4593137
0.15490197 0.5176471 0.04901961
0.22671568 0.5181373 0.05294118
0.32205886 0.5176471 0.058333337
0.4375 0.51323533 0.06666667
0.554902 0.5205883 0.08039216
0.66764706 0.53308827 0.101225495
0.775 0.5593138 0.13480392
0.89607847 0.6014706 0.20931372
0.9529412 0.72156864 0.47254902
0.26029414 0.65882355 0.11568628
0.31715688 0.654902 0.11470588
0.40098038 0.65208334 0.11960784
0.48921567 0.6480392 0.12751226
0.59338236 0.652451 0.13946079
0.68719363 0.658027 0.15183824
0.7775735 0.66740197 0.18529412
0.89068633 0.68511033 0.25404412
0.9529412 0.74460787 0.49362746
0.39607844 0.76666665 0.20686275
0.43137255 0.76666665 0.20686275
0.49313724 0.76274514 0.20686275
0.5588235 0.76752454 0.21875
0.6392157 0.76323533 0.22598039
0.7078432 0.7601716 0.2442402
0.78553927 0.76666665 0.26911765
0.88884807 0.77549016 0.32867646
0.9568627 0.7833334 0.52156866
0.55 0.87745094 0.36519608
0.5717525 0.87745094 0.36764705
0.6166667 0.875 0.37095588
0.6560662 0.87352943 0.3759804
0.70465684 0.8759804 0.38357845
0.75214463 0.8745098 0.39528185
0.80735296 0.87352943 0.4091912
0.8901348 0.875 0.43927696
0.9607843 0.8333333 0.5627451
0.82352936 0.9764706 0.7176471
0.82352936 0.9764706 0.7176471
0.82352936 0.9764706 0.7176471
0.83137256 0.9764706 0.7176471
0.83137256 0.9764706 0.7176471
0.8392157 0.9764706 0.7176471
0.84901965 0.97745097 0.72156864
0.86764705 0.98039216 0.72156864
0.98039216 0.9882353 0.71372557
0.0 0.0 0.018627452
0.03125 0.0 0.018627452
0.13125001 0.003921569 0.023651961
0.305576 0.009620098 0.040379904
0.5051471 0.029411767 0.060294118
0.6806986 0.0653799 0.08529412
0.8094363 0.13284314 0.13112746
0.9338236 0.27493873 0.22604167
0.9529412 0.6666667 0.4617647
0.0 0.04411765 0.047058824
0.048039217 0.050834864 0.048039217
0.17230393 0.05703125 0.049739584
0.34496784 0.07450981 0.058195468
0.5171569 0.09779412 0.07184436
0.6607231 0.13626686 0.09204198
0.7994026 0.20404412 0.13592218
0.9275123 0.33137256 0.22751227
0.9529412 0.6745098 0.4642157
0.011642157 0.18100491 0.08161765
0.07671569 0.1805913 0.07547488
0.19690564 0.18330269 0.073897064
0.36127454 0.19109988 0.077879906
0.517402 0.22034314 0.09056373
0.65796566 0.25306374 0.11265319
0.784712 0.31145832 0.15389094
0.92071074 0.4097733 0.23647365
0.9529412 0.68529415 0.47205883
0.0627451 0.36029413 0.116053924
0.12941177 0.36354935 0.111397065
0.2538756 0.3568168 0.10870098
0.39251685 0.36290598 0.115870096
0.54053307 0.37935048 0.12720588
0.6542279 0.39803922 0.14415595
0.77673095 0.43247548 0.17818627
0.9063725 0.5073606 0.25258884
0.9529412 0.70030636 0.4816789
0.15343139 0.5269608 0.1627451
0.2192402 0.52837014 0.15931372
0.31599265 0.5268995 0.16127452
0.44460785 0.52172184 0.1631434
0.56078434 0.5289216 0.17426471
0.67392766 0.5392157 0.1898897
0.7780024 0.56378675 0.2151348
0.9 0.6046569 0.28391543
0.9529412 0.72352946 0.49509805
0.26078433 0.66292894 0.22058824
0.30778188 0.66145074 0.21819854
0.39551166 0.65637255 0.21988358
0.499326 0.6529795 0.22078738
0.5963848 0.65637255 0.23039216
0.68735445 0.6616192 0.24120712
0.78112745 0.668413 0.26625308
0.89068633 0.68780637 0.32696077
0.9529412 0.74460787 0.5123775
0.3867647 0.76666665 0.2939951
0.42205882 0.76666665 0.29445466
0.48489586 0.7642157 0.29880518
0.554902 0.76752454 0.2988971
0.6378064 0.7648897 0.3098652
0.70736825 0.76467526 0.31515014
0.78553927 0.76666665 0.33566174
0.8905637 0.7761795 0.38460478
0.9568627 0.7833334 0.53823537
0.55441177 0.87653184 0.42046568
0.5771216 0.875 0.42081037
0.6119945 0.875 0.4276348
0.65225947 0.87352943 0.42873776
0.7029718 0.8759804 0.4356924
0.75091916 0.8722503 0.44532782
0.80735296 0.87352943 0.4552543
0.8906863 0.875 0.48180914
0.9607843 0.8333333 0.57928926
0.82352936 0.9764706 0.72156864
0.82352936 0.9764706 0.72156864
0.82352936 0.9764706 0.72156864
0.83137256 0.9764706 0.72156864
0.83137256 0.9764706 0.72156864
0.8392157 0.9764706 0.72156864
0.84901965 0.97745097 0.7219363
0.86764705 0.98039216 0.7245711
0.98039216 0.9882353 0.7166667
0.0 0.003921569 0.06764706
0.03872549 0.003921569 0.065808825
0.15931374 0.0068627456 0.09117647
0.3504902 0.01875 0.12843138
0.56960785 0.042156864 0.16617647
0.7112745 0.07990196 0.2
0.8262255 0.15 0.25465685
0.94031864 0.29240197 0.33688724
0.9529412 0.67058825 0.5029412
0.0 0.06421569 0.14889705
0.050658703 0.06799939 0.15219057
0.19203432 0.075612746 0.15860906
0.37334558 0.09117647 0.1714614
0.54908085 0.11838236 0.18884805
0.69232535 0.15795039 0.2149663
0.8126839 0.22533701 0.2611826
0.93123466 0.34575674 0.33805147
0.9529412 0.677451 0.5058824
0.003921569 0.21593137 0.23210785
0.0694853 0.21234682 0.22018996
0.21004902 0.21341911 0.21207108
0.37784928 0.22478554 0.2096201
0.54301476 0.24509805 0.22144608
0.672549 0.27423406 0.24001226
0.79871327 0.32843137 0.27830884
0.925 0.4196385 0.34718138
0.9529412 0.6882353 0.50784314
0.04742647 0.38860294 0.2781863
0.12061887 0.38969055 0.2704963
0.25266546 0.38192403 0.25670958
0.40680152 0.38265932 0.25215995
0.54901963 0.39693627 0.26078433
0.6655025 0.4148131 0.27290136
0.7844363 0.4517157 0.29978555
0.91619176 0.5147366 0.35900736
0.9529412 0.7029411 0.5196079
0.12745099 0.54558825 0.31715688
0.20269608 0.5461397 0.3122549
0.31433827 0.54215693 0.30588236
0.44142157 0.53578436 0.30257353
0.57573533 0.54215693 0.30784315
0.6772059 0.55006135 0.3151961
0.78468144 0.57181376 0.33357844
0.902451 0.6091299 0.3832108
0.9529412 0.7254902 0.53137255
0.23823528 0.67058825 0.3632353
0.30075064 0.6667586 0.3560049
0.38284314 0.6634804 0.35171568
0.49327514 0.6594669 0.34764096
0.5975491 0.66176474 0.35245097
0.68786764 0.66606927 0.35577512
0.78112745 0.67242646 0.37371323
0.8942402 0.69211096 0.4150429
0.95551467 0.74803925 0.54828435
0.36740196 0.7705883 0.40661764
0.41139704 0.76804537 0.40367645
0.4706495 0.77089465 0.40618873
0.5470895 0.7705883 0.4049939
0.63480395 0.76666665 0.4115196
0.7046262 0.7678922 0.41565564
0.7877451 0.76666665 0.43057597
0.8926777 0.78036153 0.46583948
0.9568627 0.7833334 0.5708333
0.54362744 0.875 0.50098044
0.5674633 0.875 0.50098044
0.6041667 0.8741728 0.50098044
0.65099573 0.8716146 0.50098044
0.69773287 0.8750613 0.5060049
0.7483303 0.8720588 0.51375616
0.8101103 0.8730699 0.52132356
0.88976717 0.875 0.5385111
0.9607843 0.8333333 0.60294116
0.82352936 0.9764706 0.7294117
0.82352936 0.9764706 0.7294117
0.82058823 0.9764706 0.732353
0.83137256 0.9764706 0.732353
0.83137256 0.9764706 0.732353
0.8392157 0.9764706 0.7313726
0.84901965 0.9796569 0.7313726
0.86764705 0.98039216 0.7294117
0.98039216 0.9882353 0.72450984
0.0 0.007843138 0.13088235
0.050000004 0.007843138 0.14509803
0.1882353 0.014705883 0.1930147
0.40496325 0.028492648 0.25355393
0.6068628 0.059803925 0.30686277
0.7348039 0.10490196 0.34411767
0.84154415 0.17463236 0.38553923
0.94754905 0.3151961 0.4543505
0.9529412 0.6745098 0.55098045
0.0 0.08645833 0.2938113
0.047771145 0.09362745 0.3067249
0.21412377 0.10093444 0.31524205
0.4114277 0.11666667 0.32591915
0.5791973 0.14773285 0.34188113
0.7092525 0.18592218 0.35882354
0.82709867 0.25148588 0.39659926
0.93639714 0.36249235 0.45661
0.9529412 0.68235296 0.5556985
0.0033088238 0.2560049 0.40735298
0.06375613 0.24987745 0.39019608
0.21645221 0.24748775 0.37610295
0.39803922 0.25893077 0.36809132
0.56550246 0.27818626 0.37634805
0.69535846 0.30621937 0.38655022
0.8090687 0.350337 0.41136643
0.93102026 0.43435967 0.46170345
0.9529412 0.6921569 0.5613971
0.029044118 0.4288603 0.44552696
0.1060049 0.42048103 0.43251377
0.24303003 0.41550243 0.4228707
0.40904567 0.41114432 0.40765932
0.56237745 0.42643994 0.4132353
0.6854397 0.43750763 0.41710323
0.7981158 0.47107843 0.4351256
0.9189568 0.52516854 0.47124696
0.9529412 0.70686275 0.5637255
0.10563726 0.5710784 0.47524506
0.18391545 0.56911767 0.466973
0.30177698 0.5612745 0.45827204
0.43976715 0.56473655 0.45318627
0.57524514 0.5604167 0.4509804
0.6818628 0.5651961 0.4522978
0.78651965 0.58596814 0.45912993
0.9078431 0.61749387 0.49378064
0.9529412 0.72769606 0.5742647
0.2180147 0.6789216 0.50098044
0.26827514 0.67673874 0.49703586
0.3717218 0.6722273 0.49025735
0.48094362 0.66856617 0.4826746
0.5911765 0.67058825 0.47797182
0.6886107 0.6751609 0.48480392
0.7823529 0.68082106 0.48927698
0.8949142 0.69650733 0.51587015
0.9568627 0.74852943 0.5857843
0.35306373 0.7745098 0.53223044
0.3896293 0.7721967 0.5308824
0.45257354 0.77601105 0.5284008
0.53356314 0.77331495 0.52772677
0.63302696 0.76844364 0.52450985
0.70906866 0.7718137 0.5241422
0.7970588 0.770864 0.53560054
0.89293814 0.78460485 0.553554
0.9568627 0.7833334 0.6084559
0.5257966 0.87469363 0.5844363
0.5547182 0.872549 0.5844363
0.5879749 0.8714461 0.59087014
0.64005053 0.87107843 0.59087014
0.6889706 0.87352943 0.5887255
0.7503294 0.8720588 0.58927697
0.8071078 0.87107843 0.60004604
0.88940716 0.872549 0.6060279
0.9632353 0.8333333 0.63737744
0.81960785 0.9764706 0.7382353
0.81960785 0.9764706 0.7382353
0.81960785 0.9764706 0.7382353
0.827451 0.9764706 0.7377451
0.827451 0.9764706 0.7377451
0.8352942 0.9764706 0.74117655
0.84607846 0.98039216 0.74117655
0.86764705 0.98039216 0.7414829
0.98039216 0.9882353 0.7303921
0.0019607844 0.011764706 0.20980391
0.06642157 0.01642157 0.2620098
0.23137257 0.025490196 0.32892156
0.4583333 0.048284315 0.40637255
0.6431373 0.08627451 0.4509804
0.7588235 0.13357845 0.47745097
0.86225486 0.20588236 0.5196079
0.9514706 0.33382353 0.5654412
0.9529412 0.68235296 0.6039216
0.0014705884 0.125 0.4620098
0.050337013 0.12772672 0.47469366
0.23143382 0.13253677 0.47653186
0.43440562 0.14975491 0.4762255
0.60575986 0.17965686 0.48100492
0.72981 0.21862745 0.50242037
0.8364583 0.28020835 0.52463233
0.9417892 0.3855086 0.5669118
0.9529412 0.68897057 0.607353
0.003921569 0.29705885 0.5583334
0.05386029 0.2908701 0.5411765
0.21593139 0.2889706 0.5251226
0.41243875 0.29564953 0.52273285
0.5803921 0.3127451 0.5208334
0.7071692 0.33811274 0.52426475
0.81727946 0.3772059 0.53651965
0.9337623 0.45625 0.57101715
0.9529412 0.6985294 0.61274517
0.020588236 0.4632353 0.59436274
0.090502456 0.45122552 0.5795037
0.23700981 0.44797796 0.5661765
0.40968138 0.44727328 0.55548406
0.56911767 0.45306373 0.54865193
0.688174 0.470864 0.5534314
0.8034314 0.4920956 0.5540441
0.925337 0.5431067 0.58149517
0.9529412 0.71250004 0.61397064
0.092156865 0.59313726 0.60882354
0.15833333 0.5878677 0.6012255
0.29044122 0.579902 0.59019613
0.4332108 0.5811275 0.5830883
0.57500005 0.57892156 0.5779412
0.6875 0.58406866 0.57549024
0.7941177 0.5975491 0.57573533
0.91053915 0.6276961 0.596201
0.9568627 0.732353 0.6254902
0.18186274 0.6877451 0.6213236
0.24240196 0.6862745 0.61945474
0.34607846 0.681924 0.6128677
0.4704657 0.68308824 0.6044425
0.58774513 0.6810049 0.6019608
0.6854167 0.6841606 0.59950984
0.7849265 0.6901348 0.6009804
0.9007966 0.70649517 0.6131741
0.9568627 0.7519608 0.63480395
0.3156863 0.7794118 0.63774514
0.37132353 0.77689946 0.6347427
0.43946075 0.7814951 0.6356618
0.53094363 0.77794117 0.6313726
0.62696075 0.7742647 0.627451
0.7045343 0.7796569 0.6308824
0.7941177 0.7775735 0.628799
0.89411765 0.78884804 0.6408088
0.9573529 0.7833334 0.6490196
0.5056373 0.872549 0.6637255
0.5291667 0.87107843 0.6637255
0.57279414 0.87107843 0.6637255
0.6314032 0.8686275 0.6661765
0.6770834 0.87230396 0.6676471
0.7408395 0.86960787 0.66590077
0.8041667 0.87107843 0.6651961
0.8869485 0.8716299 0.67248774
0.9632353 0.8333333 0.6696079
0.81960785 0.9764706 0.7529412
0.81960785 0.9764706 0.7529412
0.81960785 0.9764706 0.7529412
0.827451 0.9764706 0.754902
0.8294118 0.9764706 0.754902
0.8352942 0.9764706 0.754902
0.845098 0.97892153 0.754902
0.8637255 0.98039216 0.754902
0.98431367 0.9882353 0.7431373
0.0073529417 0.019607844 0.3377451
0.09099265 0.028431373 0.3983456
0.28002453 0.04901961 0.47745097
0.5120711 0.07849265 0.5540441
0.6666667 0.11862746 0.5794118
0.77009803 0.16666669 0.59705883
0.8685049 0.2401961 0.6285539
0.9529412 0.3599265 0.65361524
0.9529412 0.6897059 0.6534314
0.003921569 0.16433823 0.61764705
0.045733765 0.16698836 0.6201593
0.24860603 0.17250307 0.61227024
0.4598039 0.19051777 0.6078202
0.62864584 0.21822916 0.60906863
0.7466299 0.25782013 0.6245098
0.85346204 0.31341913 0.6377451
0.94686735 0.40508577 0.6582108
0.9529412 0.69411767 0.654228
0.0064950986 0.3327206 0.68149513
0.038786765 0.3304841 0.6682598
0.2106924 0.33036155 0.65940565
0.41649815 0.33990502 0.64852947
0.5977329 0.3497549 0.6420956
0.7224418 0.3697151 0.64100796
0.8307904 0.407261 0.64469975
0.93512565 0.4775123 0.665242
0.95551467 0.70392156 0.6595589
0.027512256 0.49019608 0.70392156
0.06203278 0.47873777 0.6958946
0.2191636 0.47818628 0.6813725
0.40627298 0.47714463 0.67156863
0.5791667 0.48014706 0.6586091
0.70140934 0.49233302 0.6534314
0.8077359 0.51395535 0.6599265
0.92628676 0.5631128 0.6676471
0.9568627 0.71770835 0.66176474
0.062009808 0.61127454 0.7107843
0.122916676 0.6053922 0.70545346
0.261152 0.59852946 0.6958333
0.41838235 0.60076594 0.68875617
0.5683824 0.60306376 0.6819853
0.68529415 0.6050552 0.6745098
0.7941177 0.614277 0.6723039
0.91161156 0.6435968 0.6834866
0.9568627 0.7352941 0.6661765
0.15006128 0.7 0.71176475
0.211803 0.6963465 0.70765936
0.3206955 0.6925858 0.70686275
0.44332874 0.6947304 0.70191485
0.5804228 0.6916667 0.6969975
0.68738514 0.69558823 0.6925858
0.7926471 0.6995098 0.68822
0.9029795 0.720098 0.6978554
0.9568627 0.7558824 0.67689955
0.2851716 0.784804 0.72352946
0.32568935 0.78875613 0.72352946
0.4050858 0.78593755 0.71960783
0.5054075 0.7844823 0.71568626
0.6161765 0.7810049 0.71225494
0.69964767 0.78526354 0.7134038
0.7914522 0.7837929 0.70980394
0.89672184 0.79373467 0.71568626
0.9607843 0.78627455 0.6888481
0.48020837 0.8686275 0.72745097
0.51147366 0.8686275 0.72745097
0.55811894 0.8686275 0.72745097
0.60791975 0.8687347 0.7261642
0.67190564 0.86960787 0.72444856
0.72726715 0.86960787 0.7248162
0.79508275 0.8686275 0.7300858
0.88393843 0.8695466 0.7281403
0.9647059 0.8333333 0.70502454
0.8156863 0.9764706 0.7686274
0.8156863 0.9764706 0.7686274
0.8156863 0.9764706 0.7686274
0.82352936 0.9764706 0.7686274
0.827451 0.9764706 0.7686274
0.83137256 0.9764706 0.7686274
0.84129906 0.97745097 0.7719363
0.8637255 0.98039216 0.77156866
0.98431367 0.9882353 0.76029414
0.026470589 0.056862745 0.5539216
0.12598039 0.071078435 0.60392165
0.32794118 0.09852941 0.67303926
0.5459559 0.13431373 0.7058824
0.6857843 0.17450981 0.7132353
0.7857843 0.22120099 0.7231618
0.8803922 0.28774512 0.732353
0.9568627 0.39215687 0.7455883
0.9568627 0.7029412 0.70882356
0.003921569 0.22990195 0.76875
0.056541055 0.22948837 0.7594363
0.25545347 0.23602942 0.74721205
0.47800246 0.2513021 0.7377451
0.64620095 0.2764706 0.73382354
0.75926775 0.30749083 0.73543197
0.8559436 0.35594365 0.73921573
0.9485294 0.4406863 0.75173104
0.9568627 0.70686275 0.70882356
0.010784314 0.3887255 0.7931373
0.04378064 0.38517156 0.78409934
0.20710784 0.38039216 0.7707721
0.42625615 0.3833946 0.7577512
0.6025735 0.39583334 0.7509804
0.724663 0.41194853 0.7464155
0.83345586 0.44203433 0.7460785
0.93863356 0.5044118 0.7575674
0.9568627 0.7169118 0.71274513
0.020710785 0.53039217 0.8018382
0.067080274 0.5217831 0.79375005
0.19620098 0.51317406 0.7831189
0.39941788 0.5101563 0.7710172
0.5740197 0.51629907 0.76299024
0.6985141 0.52308524 0.7588082
0.81583947 0.54068637 0.7593137
0.9269914 0.58455884 0.76087624
0.9568627 0.7269608 0.7142157
0.04950981 0.63235295 0.80784315
0.10300245 0.6284314 0.8028186
0.20759803 0.6301471 0.794853
0.40183824 0.624326 0.7859682
0.5575981 0.6259804 0.7794118
0.6889706 0.62959564 0.7727941
0.7970588 0.63823533 0.7665441
0.9164216 0.66139704 0.7683211
0.9568627 0.7441177 0.7220588
0.099509805 0.7158088 0.8050245
0.17363665 0.71242344 0.8016391
0.26789218 0.71161157 0.7968137
0.41640624 0.70914525 0.78970593
0.5713236 0.70490193 0.7836397
0.68883276 0.70882356 0.77875304
0.7876532 0.71485907 0.7798407
0.90591294 0.7327972 0.777451
0.9607843 0.7617647 0.72536767
0.21838236 0.79607844 0.8039216
0.27840075 0.7933211 0.80073524
0.36102942 0.7921569 0.7977941
0.47576597 0.7891238 0.79607844
0.59828436 0.78602946 0.79350495
0.6936581 0.78995097 0.7906863
0.7884804 0.7918505 0.7886642
0.89304537 0.79598653 0.78612137
0.9607843 0.79019606 0.73529416
0.4252451 0.86372554 0.7904412
0.45549938 0.86372554 0.7904412
0.5106618 0.86372554 0.78933823
0.56861216 0.86507356 0.78933823
0.6354779 0.8632353 0.7911765
0.70697004 0.86456805 0.79154414
0.78054535 0.8647059 0.7912684
0.875 0.8669578 0.78892463
0.9647059 0.8372549 0.75012255
0.8117647 0.9764706 0.7872549
0.8117647 0.9764706 0.79313725
0.8181373 0.9764706 0.79313725
0.81960785 0.9764706 0.79313725
0.8245098 0.9764706 0.79313725
0.827451 0.9764706 0.79313725
0.83725494 0.98039216 0.79019606
0.86274505 0.98039216 0.79019606
0.98431367 0.9882353 0.7784314
0.07058824 0.16421568 0.8235294
0.20343137 0.18339461 0.84080887
0.38811275 0.20723039 0.84411764
0.5739584 0.23627451 0.8428309
0.70514715 0.275 0.8455882
0.8039216 0.31452206 0.8495098
0.8857843 0.3694853 0.8534314
0.95349264 0.45778188 0.85337013
0.9568627 0.7200981 0.7705883
0.017647058 0.32303923 0.8867647
0.074892774 0.32382047 0.8813725
0.28007048 0.32723653 0.8719669
0.4959023 0.34504443 0.8627451
0.6571079 0.3635417 0.86001843
0.7713848 0.3886106 0.85790443
0.8675858 0.4286918 0.85790443
0.9467908 0.5012715 0.85674024
0.9568627 0.72401965 0.77450985
0.017892158 0.46090686 0.9049019
0.051822916 0.45687807 0.89918816
0.18118873 0.4544424 0.8908089
0.4069853 0.458027 0.87967217
0.5991422 0.4680147 0.87328434
0.7332261 0.48223042 0.8686428
0.84528184 0.50625 0.86274517
0.9387255 0.5564645 0.86000305
0.9568627 0.73578435 0.77450985
0.028063726 0.5784927 0.9098039
0.05495558 0.5749464 0.9058823
0.14410233 0.57181376 0.89707416
0.37209716 0.5709176 0.88841915
0.5663297 0.5738665 0.8810662
0.70564497 0.5779029 0.8745481
0.81835175 0.5926471 0.8692862
0.93027735 0.6258349 0.86194855
0.9594975 0.7441177 0.77843136
0.041911766 0.67034316 0.9080882
0.062346816 0.6656863 0.90536153
0.16531864 0.6608456 0.9009804
0.34074757 0.6624081 0.89304537
0.5329658 0.6612745 0.8865196
0.67898285 0.6648591 0.8778492
0.7947917 0.67279416 0.87254906
0.9141544 0.6857537 0.86277574
0.9607843 0.7612745 0.7823529
0.06574755 0.73223037 0.902451
0.08384651 0.7313037 0.8987209
0.19924939 0.72801775 0.8954504
0.3540901 0.7262025 0.8907935
0.51914835 0.7279105 0.8840686
0.6528263 0.7283472 0.87763476
0.777451 0.7316943 0.8716146
0.8984222 0.7385417 0.8656863
0.9607843 0.7784314 0.7898897
0.12316176 0.79154414 0.891054
0.1649663 0.78933823 0.888603
0.2625 0.7878983 0.8852328
0.39741117 0.7854167 0.8807598
0.5205883 0.7891544 0.87757355
0.6485754 0.78933823 0.8746017
0.76384807 0.79298407 0.8703738
0.8784007 0.7973039 0.86285233
0.9617647 0.797549 0.7941177
0.32928923 0.8544117 0.865625
0.36715686 0.8519608 0.865625
0.41079962 0.8544117 0.86507356
0.49252453 0.85294116 0.86262256
0.57582724 0.85386026 0.8622549
0.6597733 0.8568627 0.86133575
0.75272673 0.8572457 0.8607843
0.85732234 0.8583333 0.8572074
0.9671569 0.8387255 0.80588233
0.7990196 0.9764706 0.82303923
0.8039216 0.9764706 0.82303923
0.8068628 0.9764706 0.82303923
0.8068628 0.9764706 0.82303923
0.81715685 0.9764706 0.82303923
0.82144606 0.9786152 0.824326
0.8352942 0.98039216 0.8245098
0.85888475 0.98039216 0.8245098
0.98431367 0.9882353 0.82058823
0.45490193 0.5764706 0.9607843
0.47843134 0.5803922 0.9607843
0.52156866 0.58431375 0.9607843
0.597549 0.59656864 0.9607843
0.64705884 0.6058824 0.9607843
0.6985294 0.6151961 0.9607843
0.7715686 0.6284314 0.95980394
0.8617647 0.6519608 0.9607843
0.9607843 0.74117655 0.9568627
0.42303923 0.5897059 0.9607843
0.44607842 0.59362745 0.9607843
0.49178922 0.5993873 0.9607843
0.55649513 0.608027 0.9607843
0.6132353 0.6159314 0.9607843
0.6887255 0.62714463 0.9607843
0.7564951 0.6410539 0.9568627
0.84852946 0.6612745 0.96023285
0.9607843 0.74509805 0.9568627
0.35196078 0.61372554 0.9607843
0.3872549 0.6147059 0.9607843
0.44240195 0.6200981 0.9607843
0.5169118 0.62303925 0.9607843
0.5828432 0.6338236 0.9607843
0.66360295 0.6457108 0.9607843
0.7330882 0.65710783 0.9568627
0.8308824 0.67598045 0.9593137
0.9607843 0.7490196 0.9568627
0.2759804 0.6401961 0.9607843
0.31513482 0.6403799 0.9607843
0.3867647 0.64411765 0.9607843
0.44797796 0.64846814 0.9607843
0.53112745 0.657598 0.9607843
0.6193015 0.6671569 0.9607843
0.704902 0.6764706 0.9568627
0.8145221 0.69577205 0.9593137
0.9647059 0.75735295 0.9568627
0.24901962 0.67058825 0.9607843
0.27450982 0.67058825 0.9607843
0.31323528 0.6745098 0.9607843
0.39068627 0.67671573 0.9607843
0.4892157 0.68235296 0.9568627
0.58382356 0.6882353 0.9568627
0.6740196 0.702451 0.9568627
0.7933824 0.71813726 0.9593137
0.9647059 0.7705882 0.9568627
0.18382353 0.70098037 0.9607843
0.22303921 0.70098037 0.9607843
0.26691177 0.70147055 0.9607843
0.3380515 0.7058211 0.9607843
0.46004903 0.70882356 0.9585784
0.5372549 0.7166667 0.9568627
0.6450981 0.725 0.9568627
0.7726103 0.73921573 0.9568627
0.9647059 0.78382355 0.9607843
0.18627451 0.7431373 0.9568627
0.21568626 0.7431373 0.9568627
0.26887256 0.7431373 0.9568627
0.3093137 0.74411774 0.9568627
0.40441173 0.74411774 0.9568627
0.49950984 0.75085783 0.95600486
0.607353 0.7558824 0.9568627
0.74828434 0.76911765 0.9568627
0.9656863 0.8019608 0.9607843
0.20686273 0.7941177 0.9568627
0.24362746 0.7941177 0.9568627
0.26666668 0.7941177 0.95441175
0.30183825 0.79558825 0.95441175
0.38553923 0.7968137 0.9529412
0.46488973 0.7980392 0.9568627
0.5852941 0.80012256 0.9568627
0.7221201 0.80980396 0.9607843
0.97107846 0.83382356 0.9647059
0.62352943 0.9568627 0.9529412
0.62352943 0.9568627 0.9529412
0.64705884 0.9607843 0.9568627
0.64705884 0.9607843 0.9568627
0.65882355 0.9607843 0.9568627
0.67058825 0.9607843 0.9568627
0.70392156 0.9607843 0.9607843
0.74705887 0.9647059 0.9632353
0.972549 0.9764706 0.9764706
