StreetStamps/fuji_reala_ace.cube
#Generated by PennL1
#小红书号：PennL1
#公众号：胶片感
#闲鱼号：LOOK胶片感
TITLE Standard-REALA-ACE
LUT_3D_SIZE 33
0.0 0.0 0.0
0.0003676471 0.0 0.0
0.005392157 0.0 0.0
0.01617647 0.0 0.0
0.031862747 0.0 0.0
0.044730395 0.0 0.0
0.062009804 0.0 0.0
0.080882356 0.0 0.0
0.10392157 0.0 0.0
0.13296568 0.0 0.0
0.18137255 0.0 0.0
0.23676473 0.0 0.0
0.2897059 0.0 0.0
0.35061276 0.0 0.0
0.3990196 0.0 0.0
0.44889703 0.0015931374 0.0
0.49607843 0.0019607844 0.0
0.54325986 0.0 0.0
0.5796569 0.0026960785 0.0
0.61580884 0.010049019 0.0030637258
0.64411765 0.011764706 0.003921569
0.677451 0.011764706 0.003921569
0.71176475 0.03259804 0.016176471
0.7460785 0.054656863 0.025367647
0.7794118 0.08235294 0.038235296
0.8134804 0.11531863 0.053799022
0.8512255 0.1504902 0.07696079
0.8854167 0.19754902 0.104779415
0.90931374 0.2392157 0.1397059
0.92781866 0.28762257 0.1754902
0.94289213 0.34656864 0.20661765
0.95931375 0.42438722 0.21887255
0.99215686 0.63529414 0.29411766
0.0 0.0011029412 0.0
0.0011029413 0.0011029413 0.0
0.009681373 0.0039905026 0.0
0.019466147 0.0022058825 0.0
0.03406863 0.0050245104 0.0
0.05139783 0.0050245104 0.0
0.07116269 0.0050245104 0.0
0.095343135 0.0026922491 0.0
0.12484682 0.0044117654 0.0
0.1623851 0.008700981 0.0
0.22580422 0.009313726 0.0
0.27472046 0.009313726 0.0
0.32936582 0.009313726 0.0
0.38300782 0.010091146 0.0
0.42867646 0.011757047 0.0
0.4672373 0.008019302 0.0
0.50557595 0.009681372 0.0
0.54937196 0.015563726 0.0
0.5887178 0.019852942 0.0
0.61801475 0.021365657 0.0
0.6506128 0.028308824 0.0
0.6745979 0.037243415 0.0037990198
0.7078432 0.053822 0.011887255
0.7420994 0.072989434 0.020465687
0.77521443 0.10012255 0.031004904
0.8095588 0.12426471 0.048161767
0.8473039 0.16099112 0.07030485
0.8835784 0.20777038 0.100317866
0.9117647 0.25010723 0.1329657
0.9291858 0.29783243 0.17265242
0.9461473 0.35847118 0.20359221
0.9596814 0.42655864 0.217873
0.99215686 0.63529414 0.29411766
0.0 0.013970588 0.0
0.004656863 0.010416667 0.0
0.013373162 0.014108457 0.0
0.024754902 0.015602022 0.0
0.0421875 0.018167892 0.0
0.06198683 0.018972121 0.0
0.086443014 0.019362746 0.0
0.113947615 0.019845283 0.0
0.15275736 0.022487747 0.0
0.19852175 0.025972733 0.0
0.25225186 0.027159927 0.0
0.30151656 0.027941177 0.0
0.346538 0.027941177 0.0
0.39436275 0.027941177 0.0
0.4372549 0.027941177 0.0
0.47984838 0.029235601 0.0
0.52156866 0.031495098 0.0
0.5557215 0.0337546 0.0
0.58622855 0.0377451 0.0
0.6154489 0.042608768 0.0
0.6465993 0.049203433 0.0
0.6806373 0.062109377 0.0037990198
0.7071079 0.074800864 0.008287378
0.7409237 0.09620864 0.016176471
0.7723652 0.11390932 0.026531864
0.8090763 0.13835019 0.043390013
0.8479473 0.1733609 0.06510417
0.88426775 0.21588542 0.09466146
0.91222423 0.25808823 0.12794119
0.93247545 0.31172642 0.16560203
0.947549 0.36897978 0.20441176
0.9604167 0.43909314 0.21236213
0.99215686 0.63529414 0.29558825
0.0 0.027941177 0.0
0.004760264 0.026593138 0.0
0.015487133 0.030882353 0.0
0.031560205 0.03406863 0.0
0.050980393 0.035952818 0.0
0.07426471 0.040931374 0.0
0.10282629 0.04301471 0.0
0.13920419 0.04558824 0.0
0.18324143 0.04776348 0.0
0.22776885 0.048969824 0.0
0.2781863 0.05178462 0.0
0.31665137 0.05367647 0.0
0.3627911 0.05381434 0.0
0.4049058 0.054779414 0.0
0.4465916 0.054779414 0.0
0.4853401 0.05522748 0.0
0.5199142 0.057291668 0.0
0.556453 0.058700982 0.0
0.5845818 0.06139706 0.0
0.6177658 0.06875 0.0
0.64336705 0.071430765 0.0
0.67741656 0.08462776 0.0037990198
0.70612746 0.09643076 0.008019302
0.7404412 0.11825981 0.01205959
0.77322304 0.13351716 0.022273285
0.8066062 0.15797718 0.036630668
0.8501149 0.19204964 0.0625
0.88784087 0.23232614 0.0917356
0.9146293 0.27068016 0.121568635
0.9356618 0.321201 0.16151962
0.95073533 0.38014707 0.20032935
0.96360296 0.45085785 0.21384802
0.99215686 0.63750005 0.3019608
0.0014705884 0.04950981 0.0
0.006770834 0.053936888 0.0
0.02377451 0.05928309 0.0
0.045634195 0.061688114 0.0
0.06813726 0.06568628 0.0
0.09211092 0.0710478 0.0
0.123866424 0.07322304 0.0
0.16204044 0.077083334 0.0
0.20281863 0.08026961 0.0
0.24865198 0.08295037 0.0
0.29813117 0.08471201 0.0
0.33480394 0.080882356 0.0
0.3708946 0.08118873 0.0
0.41753983 0.08365503 0.0
0.4522365 0.084803924 0.0
0.48524818 0.085799634 0.0
0.5171569 0.087990195 0.0
0.5516851 0.08872549 0.0
0.58143383 0.09142157 0.0
0.6119179 0.09762561 0.0
0.6425858 0.10245098 0.0
0.67599577 0.11053922 0.0037990198
0.7102942 0.12726717 0.006464461
0.74460787 0.14151348 0.009451593
0.77708334 0.15784314 0.020465687
0.8075674 0.1780331 0.032337625
0.8485294 0.20891544 0.05539216
0.88933825 0.2466912 0.0868413
0.91568625 0.28376228 0.11862746
0.93671876 0.33377758 0.15857844
0.9522059 0.39074755 0.19748776
0.9637408 0.4569087 0.21102941
0.99215686 0.6431373 0.3019608
0.003921569 0.08504902 0.0
0.0131855095 0.08953355 0.0
0.033310357 0.095320165 0.0
0.05735294 0.09739967 0.0
0.08161765 0.10045956 0.0
0.10760187 0.10381051 0.0
0.14301471 0.105966605 0.0
0.1814568 0.11076517 0.0
0.21721815 0.11136643 0.0
0.2599686 0.11245787 0.0
0.30686277 0.114698224 0.0
0.34393767 0.11096431 0.0
0.37725186 0.11297488 0.0
0.416525 0.114234835 0.0
0.44959405 0.11356465 0.0
0.48293123 0.115575224 0.0
0.5159314 0.11770834 0.0
0.5508234 0.11984146 0.0
0.58166367 0.12328432 0.0
0.6130094 0.12757353 0.0
0.6438113 0.1334712 0.0
0.67544043 0.14178923 0.0020182293
0.70611984 0.15441944 0.004051777
0.7418696 0.16311274 0.0072303927
0.77463233 0.18265931 0.016789217
0.8089461 0.19840688 0.029656863
0.84749544 0.225 0.050298717
0.88933825 0.26042053 0.078435205
0.9168351 0.29931068 0.10935969
0.9403186 0.3500536 0.15264247
0.9550015 0.40418965 0.19507506
0.96563655 0.46311274 0.21085708
0.99215686 0.6431373 0.3019608
0.008333333 0.13235295 0.0
0.021568628 0.13464308 0.0
0.039782476 0.14051777 0.0
0.064345896 0.14191177 0.0
0.09102329 0.14191177 0.0
0.117294736 0.14455424 0.0
0.1527114 0.14658394 0.0
0.19485295 0.14663756 0.0
0.22892156 0.14742647 0.0
0.26515013 0.14713542 0.0
0.30896142 0.14912684 0.0
0.34375 0.14539675 0.0
0.37454045 0.14754903 0.0
0.4116422 0.14974725 0.0
0.4481771 0.14725797 0.0
0.47854626 0.15216759 0.0
0.5128677 0.15208334 0.0
0.5486443 0.15330882 0.0
0.5764706 0.15911458 0.0
0.6113971 0.16409314 0.0
0.63820463 0.1660233 0.0
0.67512256 0.17377451 0.0
0.7018229 0.18238357 0.0017156864
0.737477 0.19257048 0.0029411765
0.7708946 0.2079044 0.0125
0.8091375 0.22293966 0.02612592
0.8490809 0.24905024 0.0444087
0.88830423 0.2785386 0.06888787
0.91813725 0.3156863 0.10220589
0.94240195 0.3658012 0.15085019
0.95718443 0.41928613 0.19159007
0.96973044 0.48018536 0.20645681
0.9943628 0.64754903 0.29975492
0.011764706 0.17867647 0.0
0.02757353 0.17941177 0.0
0.045465685 0.18651961 0.0
0.06839384 0.18579581 0.0
0.09509804 0.18394609 0.0
0.12203968 0.18337163 0.0
0.15651809 0.18561581 0.0
0.19490656 0.186983 0.0
0.22913603 0.18560049 0.0
0.26311275 0.18632813 0.0
0.30719212 0.18537071 0.0
0.33962163 0.18643919 0.0
0.37529105 0.18411459 0.0
0.41051626 0.18499924 0.0
0.44303 0.18559283 0.0
0.4775812 0.18712468 0.0
0.5137255 0.18468137 0.0
0.546741 0.18762255 0.0
0.5773821 0.19106925 0.0
0.6050705 0.19698606 0.0
0.637883 0.19947916 0.0
0.6685011 0.2072304 0.0
0.70273435 0.21331955 0.0
0.7382544 0.2233724 0.0012254902
0.7670343 0.23406862 0.009497549
0.80833334 0.2509804 0.01985294
0.84977794 0.2767157 0.037009805
0.8875 0.30381817 0.06041667
0.9213542 0.33895528 0.10016851
0.94569933 0.3874885 0.14924173
0.96115196 0.4414292 0.18762255
0.9716874 0.49704736 0.20294501
0.9960785 0.6509804 0.29803923
0.01764706 0.22156863 0.0
0.03213848 0.22175245 0.0
0.05214461 0.22297794 0.0
0.07230392 0.2203125 0.0
0.09914216 0.22071078 0.0
0.12855393 0.22208947 0.0
0.1613358 0.22267157 0.0
0.19800858 0.22159927 0.0
0.23112744 0.22426471 0.0
0.2671875 0.2238358 0.0
0.3074755 0.21985294 0.0
0.34129906 0.22340687 0.0
0.37941176 0.2199755 0.0
0.41222426 0.22190563 0.0
0.44209558 0.22083333 0.0
0.47683823 0.22153798 0.0
0.5093137 0.22058824 0.0
0.54295343 0.22138481 0.0
0.5717525 0.22463235 0.0
0.6039216 0.23030025 0.0
0.6365196 0.22965688 0.0
0.671538 0.23700981 0.0
0.70104164 0.24166667 0.0
0.7362745 0.25070468 0.0012254902
0.77156866 0.26274508 0.008088236
0.8098346 0.2766238 0.0132046575
0.84993875 0.2978554 0.031004904
0.89181983 0.32576594 0.05615809
0.9259804 0.35931373 0.097058825
0.9503676 0.40848655 0.14148286
0.96305144 0.45680147 0.17984068
0.97181374 0.50735295 0.19960172
0.99313724 0.65686274 0.29509807
0.02622549 0.25784314 0.0
0.043137256 0.25753295 0.0
0.06322764 0.25566024 0.0
0.08083257 0.26053923 0.0
0.10793505 0.2595282 0.0
0.13382353 0.25784314 0.0
0.16791514 0.25784314 0.0
0.20190717 0.25961244 0.0
0.22987133 0.26145834 0.0
0.26568627 0.25845587 0.0
0.30428922 0.25416666 0.0
0.33907402 0.26092604 0.0
0.38039216 0.25482538 0.0
0.41299018 0.26029414 0.0
0.44343597 0.25535387 0.0
0.47953433 0.253665 0.0
0.51115197 0.25588235 0.0
0.5431335 0.2561351 0.0
0.5713925 0.25579813 0.0
0.6021829 0.2607958 0.0
0.6324755 0.2589461 0.0
0.66689265 0.26605394 0.0
0.6933824 0.2740196 0.0
0.7283088 0.2826938 0.00070848654
0.76691175 0.29194242 0.004534314
0.8053041 0.30232844 0.008578432
0.8483839 0.32205883 0.025145529
0.891502 0.3482422 0.04901961
0.92572 0.3797794 0.08946079
0.95372623 0.42965686 0.13485372
0.96654415 0.47854626 0.17169884
0.9751226 0.5201708 0.19790901
0.99546576 0.65882355 0.30404413
0.049509805 0.3031863 0.0036764708
0.06232384 0.29948685 0.0
0.0736826 0.2986673 0.0
0.095902264 0.29607844 0.0
0.11896446 0.29598653 0.0
0.13661918 0.29928005 0.0
0.16519608 0.30111828 0.0
0.20347732 0.29967067 0.0
0.23308823 0.29699758 0.0
0.27185205 0.29587165 0.0
0.31102943 0.30249697 0.0
0.3384804 0.2996247 0.0
0.38039216 0.29610908 0.0
0.41379443 0.2988971 0.0
0.44615504 0.29453126 0.0
0.48014706 0.2933594 0.0
0.50625 0.2957108 0.0
0.5410846 0.29791668 0.0
0.57549024 0.29681376 0.0
0.6026425 0.3017157 0.0
0.62864584 0.3 0.0
0.66557145 0.30710787 0.0
0.6960631 0.30465686 0.0
0.73271286 0.3132353 3.8296566e-05
0.7620098 0.32181373 0.00024509802
0.80440414 0.333004 0.0055530025
0.8505668 0.35193014 0.024264708
0.89140624 0.3775582 0.04779412
0.92686886 0.4099571 0.081341915
0.9568091 0.45581344 0.12832414
0.97083336 0.5011796 0.16392463
0.97607994 0.54056376 0.18377759
0.9960785 0.6661765 0.3022059
0.079166666 0.3420343 0.01629902
0.09165518 0.33811274 0.016176471
0.10085785 0.33811274 0.015441177
0.11375996 0.3371132 0.012220435
0.12965687 0.33455884 0.012086397
0.15638787 0.3327206 0.010114124
0.1837546 0.33063728 0.005690871
0.21278723 0.33554307 0.003921569
0.2414522 0.33811274 0.0010723039
0.27058825 0.3348039 1.9148283e-05
0.3078508 0.33442098 0.0
0.34595588 0.33799404 0.0
0.37745097 0.33382353 0.0
0.41691175 0.32958794 0.0
0.44268534 0.3290901 0.0
0.4747281 0.33272058 0.0
0.5116422 0.32855394 0.0
0.5395336 0.33115426 0.0
0.56801474 0.33157936 0.0
0.6037837 0.33355165 0.0
0.63209254 0.33100492 0.0
0.65831804 0.33811277 0.0
0.6886107 0.3387255 0.0
0.72729015 0.34726563 0.0
0.76666665 0.35376838 0.0
0.80821073 0.3633119 0.004044118
0.8486366 0.38786763 0.016911766
0.8915365 0.4052849 0.035899203
0.9294118 0.43462008 0.07377452
0.9581764 0.47876456 0.12104397
0.971201 0.51323533 0.16497397
0.9796684 0.5535884 0.18329887
0.9960785 0.6669118 0.3022059
0.10539216 0.37352943 0.0377451
0.116681986 0.37005207 0.03373162
0.12359069 0.36960784 0.032107845
0.13676472 0.37140012 0.02768076
0.15484068 0.3759804 0.023039216
0.17352942 0.37506127 0.017601104
0.19178921 0.3737439 0.009803923
0.21720281 0.37095588 0.006050858
0.25183824 0.36960784 0.0055147065
0.2830423 0.36629903 0.0020833332
0.31574756 0.3721201 0.0010110295
0.34551165 0.3700827 0.00094975496
0.37824756 0.36911765 0.0
0.4165288 0.36632967 0.0
0.44387254 0.36862743 0.0
0.47369793 0.36763173 0.0
0.50784314 0.36764705 0.0
0.5419884 0.3667892 0.0
0.57181376 0.36587012 0.0
0.59647673 0.37115502 0.0
0.6245711 0.36911762 0.0
0.6645068 0.37670037 0.0
0.6921569 0.3735294 0.0
0.7334405 0.38088235 0.0
0.76715684 0.38370097 0.0
0.80790436 0.396538 0.003875613
0.85251224 0.41155022 0.016207108
0.89561886 0.43598348 0.031663604
0.9306986 0.46348038 0.066360295
0.96167284 0.5036305 0.11582414
0.97509193 0.53848046 0.15640318
0.98046875 0.5685049 0.18540135
0.9960785 0.6759804 0.30980393
0.13541667 0.41470587 0.058333334
0.1414254 0.41433823 0.053756893
0.15436582 0.41078433 0.04669118
0.16263404 0.40992266 0.04154029
0.17596507 0.40836397 0.035692405
0.1890242 0.41374463 0.035347734
0.21361059 0.41642156 0.031625308
0.24071309 0.41213238 0.025245098
0.26492035 0.41078433 0.020312501
0.2904412 0.40747547 0.015085019
0.31858915 0.40605852 0.009053309
0.34403723 0.4137255 0.0067670043
0.38307294 0.40954354 0.0
0.41384804 0.40619257 0.0
0.4441406 0.40353096 0.0
0.47316176 0.40612745 0.0
0.50827205 0.40882355 0.0
0.5438917 0.4045343 0.0
0.5709023 0.40656406 0.0
0.6021331 0.40782785 0.0
0.6270374 0.40428922 0.0
0.65957415 0.41187194 0.0
0.6904412 0.41202515 0.0
0.73293126 0.4181717 0.0
0.7705883 0.42251837 0.0
0.80715376 0.4343099 0.0026960785
0.8555147 0.44988513 0.010899205
0.8988626 0.46694624 0.029867494
0.940242 0.49725798 0.06711091
0.96789217 0.5305186 0.11126686
0.97659314 0.56078434 0.1420343
0.9836588 0.5908088 0.17843138
0.9960785 0.6862745 0.30980393
0.16421568 0.4490196 0.07671569
0.17120098 0.44865197 0.07242647
0.176731 0.44509804 0.068367034
0.18743107 0.44578737 0.065073535
0.19886643 0.44957107 0.062806375
0.2136489 0.45236674 0.060738362
0.23111212 0.45019916 0.052113973
0.24977022 0.4464461 0.04385723
0.26936275 0.44417894 0.034865197
0.29411766 0.4415977 0.025980392
0.32743567 0.4375 0.01372549
0.35110295 0.4414522 0.0039139097
0.38161767 0.44240195 0.0035232843
0.4150735 0.44213387 0.0021829046
0.44594055 0.44033393 0.0008425246
0.47672334 0.44017312 0.0
0.5091912 0.4425245 0.0
0.5432598 0.44080114 0.0
0.5677237 0.4370098 0.0
0.602497 0.44114584 0.0
0.62405026 0.4435049 0.0
0.66420805 0.44101563 0.0
0.69878983 0.4480239 0.0
0.736397 0.45273438 0.0
0.76936275 0.4625 0.0
0.8113281 0.47258732 0.0022748162
0.8519149 0.48132658 0.008333334
0.896852 0.49844518 0.0259038
0.9421568 0.5229167 0.06151961
0.97095585 0.5553922 0.100122556
0.9806526 0.58552396 0.13016237
0.9840609 0.6130974 0.17012103
0.9960785 0.68872553 0.30857843
0.18995099 0.4849265 0.098161764
0.1945389 0.48455885 0.095166974
0.20245098 0.48100492 0.08842678
0.21233916 0.4818666 0.08602942
0.22426471 0.48406863 0.0817402
0.2365196 0.48447078 0.07601486
0.24926472 0.4849265 0.07009804
0.26556373 0.48235294 0.060661767
0.2870098 0.4792586 0.04898897
0.31176472 0.47733226 0.038484223
0.33600643 0.47340685 0.025980394
0.3631587 0.47100183 0.013576133
0.3878983 0.4768229 0.015655637
0.42414215 0.4801471 0.007881435
0.4526731 0.47708336 0.0016007967
0.47941178 0.4754902 0.0
0.51023287 0.47549018 0.0
0.54105395 0.48065642 0.0
0.5710785 0.47990197 0.0
0.6041667 0.47561276 0.0
0.63301164 0.48086706 0.0
0.6650008 0.4863703 0.0
0.70248157 0.4830346 0.0
0.7384804 0.4903301 0.0
0.77144605 0.4957108 0.0
0.81433827 0.50434667 0.0013480393
0.8555147 0.5182598 0.0056372555
0.8969822 0.5344478 0.019496785
0.9415594 0.5536918 0.049846817
0.9721009 0.5804305 0.08610984
0.9831418 0.6035922 0.12306986
0.98575747 0.6306526 0.17205882
0.9960785 0.6973039 0.30906865
0.21764706 0.5235294 0.11960785
0.2242647 0.52138484 0.11691177
0.23284313 0.5196079 0.10906863
0.24197306 0.52015936 0.10588236
0.25196078 0.52156866 0.104411766
0.26237744 0.52248776 0.101041675
0.27634805 0.5235294 0.09558824
0.29136032 0.52224267 0.0870098
0.3107843 0.5200981 0.07696079
0.32892156 0.51795346 0.06789216
0.35159314 0.5139706 0.053799022
0.37904412 0.51170343 0.036887255
0.4017157 0.5110294 0.023529412
0.43345588 0.519179 0.007659314
0.4622549 0.51703435 0.0
0.48719364 0.5148897 0.0
0.5156863 0.5137255 0.0
0.5488358 0.5160539 0.0
0.5796569 0.5203432 0.0013480393
0.6127451 0.5200368 0.00042892154
0.64362746 0.5178922 0.0
0.67555153 0.5233456 0.0
0.70612746 0.52745104 0.0
0.7444241 0.52928925 0.0
0.78088236 0.5382353 0.0
0.81868875 0.54068625 0.0013480393
0.8594363 0.5526961 0.0056372555
0.90122545 0.5632353 0.018259805
0.9477941 0.58161765 0.044607844
0.9759804 0.60514706 0.07604167
0.9835784 0.6213235 0.117769614
0.98786765 0.6501838 0.17346814
0.9960785 0.7058823 0.3137255
0.24767157 0.56213236 0.14105393
0.2537722 0.5582108 0.13909315
0.26047027 0.5582108 0.13480392
0.26760495 0.5584521 0.13141085
0.27732843 0.5590687 0.12941177
0.28699833 0.5583219 0.124031104
0.30212167 0.55616575 0.115402885
0.31482846 0.5551471 0.10870098
0.32699144 0.5539522 0.10027574
0.34462318 0.5594478 0.094607845
0.36936277 0.5568628 0.07492341
0.39492956 0.5526961 0.0535769
0.41524202 0.55280334 0.036642157
0.44095054 0.55355394 0.018278953
0.473292 0.55232847 0.013242953
0.4996324 0.5534161 0.013534008
0.5246324 0.55778193 0.013970588
0.5575636 0.55567175 0.010259652
0.5898361 0.5567096 0.008808211
0.623652 0.5574755 0.005514706
0.64638484 0.5621937 0.0026194854
0.6767885 0.5628677 7.2763476e-05
0.70962775 0.56531864 0.0
0.74694777 0.56715685 0.0
0.7827512 0.576103 0.0
0.82151115 0.57775354 0.0013480393
0.86233914 0.58582264 0.0056372555
0.9043773 0.5932598 0.015785847
0.9540288 0.6089614 0.038495712
0.97818625 0.6308824 0.07266774
0.9835784 0.64705884 0.112323835
0.98786765 0.66847813 0.1767693
0.9960785 0.7144608 0.31838235
0.2776961 0.5953432 0.16519609
0.28749233 0.60220593 0.1702206
0.2933977 0.60220593 0.16593137
0.3009804 0.601103 0.16088389
0.3095588 0.59828436 0.15465687
0.31871173 0.59828436 0.14979321
0.32931986 0.59607846 0.14416361
0.3407399 0.5943628 0.13579963
0.35226715 0.5923407 0.12469363
0.37248006 0.5947687 0.11192555
0.3902114 0.5916667 0.09557292
0.41524205 0.59011185 0.0745481
0.4341299 0.58869493 0.060784318
0.456273 0.5964691 0.05987286
0.48725492 0.5931373 0.04757966
0.51250005 0.5924326 0.0410769
0.53615195 0.59473044 0.034313727
0.5683901 0.59251684 0.023766853
0.60220593 0.59057903 0.0165288
0.62598807 0.596515 0.011397059
0.6519914 0.5991422 0.004748775
0.6817402 0.59926474 0.00012254901
0.71322 0.5985447 0.0
0.7483763 0.6062807 0.0
0.7884191 0.6068015 0.0
0.8243183 0.6089997 0.0004212623
0.8637255 0.6184896 0.0041207112
0.90376073 0.6256434 0.015525429
0.95174634 0.63529414 0.033639707
0.97742796 0.65661764 0.06668964
0.985769 0.6727941 0.10782782
0.99056375 0.6854397 0.1802543
0.9960785 0.7176471 0.32156864
0.3169118 0.63455886 0.19093138
0.3232039 0.63713235 0.18921569
0.329856 0.63713235 0.18550092
0.33259422 0.6360294 0.18345971
0.33897057 0.6332108 0.17855394
0.3461129 0.6332108 0.17282858
0.35995713 0.6378983 0.16863512
0.37446 0.6395336 0.16456035
0.38397673 0.63783705 0.15609682
0.39752606 0.6376226 0.14585632
0.41640624 0.6339461 0.1304611
0.4385072 0.63061047 0.11259574
0.45726103 0.6302084 0.099157475
0.4803424 0.63235295 0.08792509
0.5031863 0.62902117 0.073429845
0.5309207 0.6321653 0.05915288
0.5530025 0.6376226 0.04840686
0.57894075 0.63529414 0.035332415
0.6120099 0.63159466 0.022158395
0.6333985 0.6326479 0.013292739
0.6614124 0.6324602 0.002221201
0.6915442 0.6412569 0.0029947918
0.72176015 0.63864124 0.0030637258
0.75519305 0.6404412 0.0025850185
0.78964466 0.63943017 0.0
0.82801396 0.6458602 0.0021063113
0.8646063 0.6501225 0.008218444
0.9050054 0.6567402 0.019240195
0.95519304 0.66217834 0.036397062
0.97794497 0.68235296 0.0610409
0.9867647 0.6985294 0.11269149
0.9917892 0.7078432 0.18488817
0.9960785 0.72377455 0.32769608
0.35294122 0.6808824 0.22696078
0.35727635 0.677451 0.22234988
0.36127448 0.677451 0.21568628
0.36237743 0.67731315 0.21458334
0.36813724 0.6756741 0.21029411
0.37648588 0.67352945 0.20416667
0.38590688 0.67435664 0.19806986
0.40209866 0.67242646 0.18949142
0.41421568 0.67107844 0.17990196
0.42610294 0.67107844 0.17132354
0.4431066 0.66740197 0.15860908
0.4606771 0.66655946 0.1452206
0.4754902 0.6632353 0.1310049
0.5017617 0.66537994 0.110952824
0.52742034 0.67303926 0.10597427
0.5487745 0.6722427 0.08998162
0.57058823 0.67107844 0.075
0.5947304 0.66875 0.05972733
0.61801475 0.6668199 0.04623162
0.6438266 0.6639859 0.029457722
0.67352945 0.6722427 0.027205884
0.703554 0.67495406 0.021277575
0.72417283 0.67429537 0.017003678
0.7669884 0.6726103 0.0067401966
0.79350495 0.6803922 0.004289216
0.82691485 0.67757356 0.00837929
0.8696997 0.68014705 0.012990197
0.9085171 0.68494177 0.021706495
0.9529412 0.6903799 0.035110295
0.9772212 0.70905334 0.06401654
0.9867647 0.71311283 0.12132354
0.9917892 0.7229627 0.18965992
0.9960785 0.73578435 0.3259804
0.410049 0.72426474 0.2769608
0.4139821 0.7203432 0.27301624
0.41551778 0.7203432 0.2713695
0.42279413 0.7203432 0.26409313
0.4285539 0.7188726 0.2583793
0.43713236 0.7164216 0.25165826
0.4457108 0.7164216 0.24516699
0.4520374 0.7138481 0.23905483
0.45943627 0.7125001 0.2317402
0.46811813 0.7125001 0.22316176
0.49119177 0.70882356 0.20378369
0.501103 0.7085746 0.19044118
0.51496637 0.70798105 0.1765778
0.5349112 0.7047373 0.15682063
0.55294883 0.7085861 0.14898898
0.57649744 0.7163718 0.1449257
0.5953432 0.7143996 0.124019615
0.6165173 0.7124273 0.10762485
0.6390472 0.7097657 0.08583793
0.6558977 0.7084827 0.07103631
0.6859222 0.70545346 0.05605086
0.7164216 0.70502454 0.03552773
0.73162526 0.7161765 0.029319854
0.77277493 0.7125575 0.0040249694
0.8026654 0.71188736 0.004901961
0.8366842 0.7128217 0.007885264
0.87794113 0.7187194 0.011343445
0.91654414 0.7207606 0.019918047
0.95055145 0.7292433 0.028630517
0.9749464 0.7354014 0.065176934
0.9867647 0.7458027 0.11992954
0.9917892 0.7482499 0.19328278
0.9960785 0.74485296 0.33308825
0.45392162 0.75122553 0.30490196
0.4546339 0.75122553 0.30453432
0.4615196 0.75122553 0.3009804
0.46262252 0.7501915 0.29877454
0.46691176 0.74745715 0.29157478
0.47280943 0.74730396 0.28724724
0.47947305 0.7456496 0.28157172
0.48660386 0.74436283 0.2735294
0.49509805 0.744179 0.264951
0.50988054 0.75342375 0.27188268
0.52351415 0.7551471 0.26204044
0.53946847 0.75146294 0.24214919
0.54828435 0.75122553 0.2333027
0.5601333 0.7504213 0.22038144
0.58177084 0.74747247 0.19552696
0.5949755 0.74730396 0.18039215
0.61360294 0.74546576 0.15735295
0.6322304 0.743482 0.13431373
0.65268075 0.74085486 0.10957415
0.669761 0.75157785 0.101225495
0.6957108 0.7516851 0.074632354
0.72537535 0.7476639 0.044002756
0.73969054 0.74705887 0.02622549
0.7689109 0.74510574 0.008838848
0.79944855 0.7536152 0.013235294
0.8404871 0.7498775 0.009872856
0.8726562 0.75041366 0.010998775
0.90919113 0.75271904 0.019600185
0.9448835 0.7561275 0.04154412
0.97398895 0.7617111 0.07983302
0.99004287 0.77170646 0.12319241
0.99215686 0.7702205 0.19727328
0.9960785 0.75392157 0.33357844
0.50477946 0.7892157 0.35514706
0.5052045 0.7891582 0.354722
0.50931376 0.78860295 0.35061276
0.5104167 0.78860295 0.34840688
0.5144761 0.78736216 0.340288
0.5171186 0.7852942 0.33557752
0.52776504 0.79087776 0.33982077
0.5381128 0.7952206 0.3388825
0.54534316 0.7922794 0.33051473
0.55392164 0.79285 0.32555532
0.56927854 0.79313725 0.30719212
0.57571614 0.7930147 0.29720053
0.58750004 0.7892157 0.28492647
0.5968023 0.7892157 0.27133504
0.6112592 0.7881817 0.25174633
0.62892544 0.785658 0.22768842
0.6454657 0.7852942 0.20514706
0.66127837 0.78332955 0.18333334
0.6751609 0.78156406 0.16449143
0.698943 0.78654265 0.1569087
0.71416974 0.7879902 0.14318322
0.73835784 0.789771 0.11565564
0.7523284 0.78570014 0.09718903
0.778485 0.7825023 0.074249394
0.8064951 0.78348655 0.0567402
0.83606386 0.78727406 0.043382354
0.8745328 0.78392315 0.03539369
0.9134804 0.78456265 0.045833334
0.94227946 0.7922794 0.057245716
0.9773782 0.79566103 0.09201134
0.9914216 0.79583335 0.14203432
0.9927122 0.7911688 0.20416668
0.9960785 0.7698529 0.3384804
0.5529412 0.82254905 0.39803922
0.5535846 0.8222733 0.39739585
0.55980396 0.81960785 0.39117646
0.5611826 0.81960785 0.38924634
0.5647059 0.81960785 0.38431373
0.56792283 0.81960785 0.38063726
0.5748775 0.81960785 0.37316176
0.58002454 0.81960785 0.36801472
0.5872549 0.8166667 0.36078432
0.5974878 0.8256128 0.37454045
0.6091299 0.827451 0.3636642
0.6208027 0.82732844 0.35171568
0.6284314 0.8235294 0.34276962
0.6370098 0.8235294 0.33097428
