StreetStamps/mlut_sterling.cube
TITLE "Sterling - Created by MotionVFX"
LUT_3D_SIZE 8
DOMAIN_MIN 0.000000 0.000000 0.000000
DOMAIN_MAX 0.903226 0.903226 0.903226
0.000000 0.044708 0.081299
0.030020 0.055595 0.092713
0.109583 0.081663 0.118530
0.252011 0.103691 0.137318
0.428254 0.118446 0.145197
0.569772 0.154651 0.175318
0.690383 0.197822 0.211419
0.787791 0.245525 0.250952
0.038884 0.093945 0.106533
0.071425 0.101951 0.106849
0.164817 0.116283 0.123282
0.297098 0.128968 0.128376
0.451342 0.146843 0.140282
0.585077 0.180752 0.173120
0.700509 0.220768 0.209956
0.795601 0.266064 0.249864
0.063223 0.198430 0.129011
0.103181 0.215028 0.131833
0.173004 0.211343 0.127100
0.331951 0.231242 0.154078
0.471294 0.233631 0.157828
0.605944 0.251857 0.177973
0.718125 0.280255 0.207640
0.812395 0.317365 0.246391
0.102682 0.328296 0.168905
0.138876 0.340621 0.174344
0.225292 0.364871 0.183657
0.307840 0.349046 0.174588
0.485054 0.376416 0.214115
0.631076 0.388019 0.235337
0.734643 0.392103 0.236481
0.829072 0.414034 0.260751
0.162742 0.471922 0.226414
0.192743 0.480590 0.230523
0.268415 0.502308 0.241010
0.377375 0.521137 0.248224
0.463098 0.502122 0.236291
0.630130 0.529329 0.282269
0.753375 0.545647 0.313980
0.848045 0.550701 0.319895
0.236700 0.615842 0.294020
0.262253 0.621257 0.297168
0.326043 0.634564 0.305525
0.427015 0.653996 0.316950
0.538146 0.664782 0.320774
0.619752 0.651187 0.309174
0.751855 0.672248 0.358480
0.861214 0.686537 0.396570
0.323345 0.738380 0.370901
0.344900 0.741333 0.373183
0.399066 0.748681 0.379575
0.485837 0.761370 0.390107
0.590430 0.774790 0.399878
0.684256 0.780912 0.400700
0.752159 0.774790 0.392514
0.863284 0.789904 0.442696
0.420997 0.850444 0.456268
0.439244 0.852368 0.457980
0.484171 0.857177 0.462473
0.555905 0.865409 0.470424
0.645883 0.875674 0.486097
0.732589 0.884551 0.511727
0.808201 0.889938 0.539832
0.872793 0.891701 0.566689
0.007190 0.047745 0.085449
0.040014 0.060322 0.106217
0.124562 0.085263 0.139693
0.271304 0.103691 0.162542
0.446307 0.114098 0.171147
0.587949 0.146363 0.193496
0.706154 0.184999 0.221240
0.799192 0.234546 0.259521
0.041864 0.103979 0.142613
0.087834 0.116011 0.155157
0.173409 0.122183 0.157828
0.299508 0.135818 0.165876
0.446953 0.155350 0.178452
0.581805 0.188148 0.205302
0.698447 0.227350 0.237809
0.794027 0.271902 0.274306
0.063824 0.207421 0.168152
0.107628 0.211927 0.169655
0.202255 0.225107 0.172874
0.345985 0.222472 0.177011
0.480420 0.232347 0.186906
0.610667 0.254117 0.208062
0.718800 0.283322 0.235337
0.811279 0.321627 0.271607
0.103429 0.333725 0.201429
0.143077 0.339782 0.204875
0.221719 0.355691 0.211419
0.331112 0.359174 0.208695
0.501277 0.370489 0.231879
0.633709 0.375904 0.242318
0.739032 0.389509 0.255445
0.832452 0.413216 0.281284
0.162326 0.475233 0.251675
0.196193 0.479307 0.254909
0.266479 0.495177 0.262500
0.373569 0.514640 0.270589
0.475432 0.507291 0.263544
0.644333 0.528294 0.298576
0.756208 0.539766 0.324267
0.850650 0.544413 0.326720
0.234964 0.617465 0.313980
0.264696 0.619528 0.317098
0.325902 0.630903 0.323977
0.424867 0.649940 0.335525
0.535411 0.661137 0.339708
0.624636 0.652820 0.331576
0.761432 0.672094 0.373057
0.865425 0.683753 0.406174
0.320487 0.739102 0.386467
0.347338 0.740200 0.390107
0.399787 0.746942 0.395620
0.484563 0.758869 0.405248
0.588607 0.772450 0.415535
0.683357 0.779188 0.417222
0.754284 0.775338 0.411226
0.870452 0.789640 0.455358
0.417321 0.850919 0.468184
0.441539 0.851560 0.472264
0.485543 0.856297 0.476489
0.556713 0.864494 0.484233
0.645823 0.874783 0.499325
0.731860 0.883475 0.523033
0.808072 0.889282 0.550628
0.873810 0.891877 0.578816
0.026474 0.058114 0.103363
0.052239 0.071402 0.132452
0.132363 0.092150 0.192822
0.293764 0.111892 0.230523
0.455684 0.128453 0.248224
0.594546 0.160881 0.266312
0.709863 0.197416 0.287472
0.806036 0.238363 0.312635
0.064721 0.102823 0.190111
0.096379 0.113549 0.202511
0.169751 0.123240 0.223441
0.322061 0.140530 0.238377
0.469159 0.159049 0.248041
0.603449 0.186683 0.263718
0.716727 0.220768 0.284881
0.812204 0.259625 0.310382
0.069125 0.226977 0.259873
0.108851 0.220958 0.253117
0.223509 0.251508 0.284393
0.348686 0.242498 0.269738
0.479527 0.253076 0.273802
0.604283 0.272398 0.284881
0.714512 0.301243 0.305830
0.807653 0.336130 0.331717
0.110070 0.352450 0.280626
0.144612 0.353669 0.279637
0.241693 0.361436 0.286826
0.375983 0.381248 0.301218
0.521330 0.376927 0.301836
0.642894 0.381501 0.306593
0.742618 0.398576 0.320188
0.833172 0.423717 0.343020
0.167086 0.487132 0.316802
0.196765 0.489929 0.316506
0.279232 0.497255 0.323397
0.378006 0.508389 0.326576
0.516755 0.524472 0.333697
0.673825 0.526562 0.346710
0.769333 0.525431 0.350228
0.859271 0.538678 0.364873
0.238945 0.624428 0.368988
0.264371 0.626626 0.368091
0.337645 0.634201 0.376455
0.427241 0.644304 0.381681
0.536781 0.657650 0.387927
0.652907 0.661893 0.384020
0.785560 0.671837 0.412251
0.876819 0.676711 0.430882
0.323202 0.742687 0.433361
0.345172 0.744186 0.432608
0.408701 0.748866 0.439962
0.487886 0.755988 0.445201
0.587655 0.768318 0.454446
0.683507 0.776978 0.458080
0.768174 0.779729 0.455763
0.887302 0.788321 0.486283
0.419278 0.853090 0.507729
0.437817 0.854254 0.507029
0.492241 0.856847 0.513279
0.559126 0.862360 0.517554
0.646476 0.872600 0.531048
0.731576 0.881598 0.552240
0.808491 0.888168 0.578182
0.881274 0.893131 0.610419
0.054838 0.077753 0.147741
0.075935 0.088259 0.179408
0.131455 0.107408 0.241197
0.276710 0.125077 0.317984
0.462684 0.151601 0.348744
0.604145 0.182245 0.364355
0.715707 0.217527 0.381062
0.811343 0.258084 0.402222
0.086514 0.112445 0.244361
0.119884 0.125077 0.257756
0.174217 0.134564 0.295441
0.277500 0.145400 0.325856
0.474930 0.184788 0.357030
0.611887 0.209780 0.367321
0.722323 0.241424 0.381681
0.816255 0.278305 0.400817
0.107873 0.215798 0.358217
0.146358 0.220958 0.366936
0.223509 0.232898 0.361103
0.346797 0.242855 0.374571
0.494735 0.258770 0.367963
0.622693 0.266568 0.363707
0.733476 0.294264 0.378330
0.826852 0.326711 0.397755
0.122932 0.374621 0.395739
0.157292 0.367885 0.388534
0.238428 0.373206 0.395858
0.391546 0.413567 0.434005
0.513673 0.390746 0.403505
0.643495 0.407091 0.415535
0.739744 0.421547 0.421795
0.826455 0.444145 0.434862
0.177433 0.510848 0.419906
0.205626 0.507200 0.415873
0.277500 0.514191 0.417895
0.415240 0.528985 0.434541
0.550853 0.540183 0.447483
0.678493 0.540350 0.448102
0.771853 0.543092 0.450571
0.858909 0.555439 0.460383
0.245951 0.637695 0.454953
0.271304 0.639186 0.455257
0.334182 0.646044 0.457175
0.447706 0.648573 0.464255
0.553226 0.657705 0.466225
0.683457 0.674492 0.482266
0.799226 0.676259 0.493911
0.888281 0.676911 0.497079
0.328021 0.749492 0.506766
0.350299 0.750669 0.506416
0.403613 0.753812 0.505097
0.503901 0.758940 0.516192
0.597331 0.765865 0.519503
0.688882 0.774996 0.523367
0.792107 0.785635 0.530394
0.911480 0.788816 0.549858
0.422595 0.857149 0.569675
0.441430 0.858137 0.569167
0.487009 0.861030 0.567930
0.573858 0.865570 0.578957
0.654688 0.871172 0.586047
0.735325 0.879970 0.602804
0.812140 0.887610 0.625765
0.895334 0.893406 0.691752
0.086249 0.100783 0.213702
0.105660 0.108819 0.243434
0.163366 0.126381 0.314576
0.251174 0.143462 0.378205
0.424754 0.171861 0.442905
0.604075 0.210953 0.471006
0.722949 0.243926 0.486469
0.816192 0.281711 0.502800
0.115135 0.129225 0.304606
0.151115 0.141021 0.325856
0.205626 0.150183 0.372930
0.279860 0.167205 0.408134
0.394958 0.179466 0.432177
0.614176 0.239446 0.479152
0.727661 0.268744 0.491081
0.820663 0.303083 0.505185
0.141314 0.209584 0.446551
0.188095 0.216951 0.485632
0.253846 0.236186 0.436783
0.336954 0.238363 0.457678
0.458205 0.260479 0.468281
0.632020 0.305372 0.492636
0.739981 0.324830 0.496628
0.832331 0.353263 0.507555
0.176231 0.361701 0.499056
0.209524 0.364871 0.495906
0.276710 0.369840 0.512935
0.388353 0.388889 0.514310
0.525497 0.402796 0.528342
0.656115 0.416012 0.517384
0.755606 0.422119 0.511727
0.846519 0.436055 0.513967
0.193512 0.529588 0.537437
0.223152 0.525170 0.532758
0.288716 0.518748 0.525283
0.408466 0.542180 0.551857
0.561919 0.575152 0.582731
0.671025 0.552877 0.551627
0.771602 0.567182 0.563304
0.864137 0.570774 0.559434
0.259140 0.659673 0.566103
0.283610 0.656990 0.562934
0.341082 0.653269 0.557783
0.439572 0.663823 0.562193
0.590212 0.681809 0.588305
0.701509 0.681760 0.593174
0.801434 0.686346 0.596640
0.893209 0.685773 0.588373
0.336124 0.760229 0.598358
0.358147 0.761014 0.598556
0.411048 0.763713 0.599279
0.495117 0.770234 0.600916
0.619489 0.772001 0.609914
0.710772 0.779594 0.611176
0.812395 0.792689 0.630437
0.906052 0.795064 0.654986
0.427241 0.863442 0.645844
0.445768 0.864278 0.646065
0.490601 0.866456 0.646340
0.564294 0.871093 0.646340
0.660510 0.874285 0.651134
0.744416 0.879840 0.665261
0.825047 0.885726 0.708152
0.903172 0.895278 0.782355
0.124097 0.125600 0.299043
0.142417 0.131272 0.325423
0.196002 0.145641 0.390710
0.278917 0.167874 0.457075
0.377248 0.191060 0.497529
0.563425 0.231795 0.560779
0.718420 0.277000 0.589190
0.820508 0.311563 0.603904
0.150470 0.148995 0.380567
0.187705 0.160196 0.403039
0.240149 0.170095 0.447586
0.305179 0.192093 0.483953
0.395807 0.212705 0.514053
0.523553 0.229394 0.542762
0.717066 0.297536 0.592301
0.824371 0.332588 0.607691
0.179629 0.212899 0.532920
0.227421 0.225856 0.532677
0.287946 0.248353 0.506679
0.365341 0.257397 0.538557
0.438805 0.269744 0.550089
0.567670 0.294577 0.573063
0.735285 0.356363 0.606861
0.834965 0.383895 0.616291
0.218297 0.350002 0.591829
0.255838 0.357437 0.607563
0.319770 0.364476 0.624269
0.412333 0.385775 0.589598
0.526993 0.389261 0.612495
0.630761 0.407566 0.613808
0.753754 0.443170 0.621009
0.846750 0.454399 0.619303
0.256832 0.517146 0.627430
0.284698 0.519014 0.622886
0.343404 0.521665 0.635026
0.435391 0.530705 0.652318
0.563583 0.555678 0.660441
0.682555 0.568333 0.669781
0.780354 0.572366 0.655092
0.877640 0.571912 0.649565
0.275444 0.670238 0.668535
0.301157 0.668052 0.666072
0.359069 0.663182 0.660233
0.449100 0.664623 0.662505
0.581207 0.689795 0.690497
0.705271 0.709864 0.709898
0.796103 0.698604 0.690677
0.903469 0.689935 0.678977
0.348821 0.775612 0.695904
0.370886 0.774653 0.694457
0.420539 0.771378 0.690317
0.500713 0.772898 0.689732
0.605323 0.783499 0.695160
0.730968 0.799608 0.719034
0.822862 0.798325 0.722816
0.908106 0.798582 0.721183
0.435612 0.872045 0.724673
0.454524 0.872362 0.724634
0.499959 0.873232 0.724595
0.571783 0.876015 0.725636
0.665094 0.882910 0.733400
0.744689 0.883372 0.732647
0.830464 0.888776 0.757860
0.908569 0.899389 0.818447
0.168113 0.151601 0.396926
0.185359 0.155815 0.417671
0.233571 0.168987 0.468769
0.312533 0.194970 0.527022
0.399547 0.225856 0.570615
0.502310 0.246942 0.605000
0.684654 0.297691 0.668085
0.814647 0.347814 0.693308
0.191393 0.172300 0.461877
0.223867 0.183307 0.475533
0.271944 0.195175 0.511035
0.342313 0.216568 0.555441
0.419737 0.245880 0.588782
0.516394 0.265896 0.616662
0.660733 0.297381 0.657520
0.809840 0.363289 0.694192
0.227775 0.230873 0.580780
0.266802 0.243391 0.582383
0.326185 0.266904 0.571913
0.395200 0.278631 0.604807
0.466807 0.297381 0.627963
0.550196 0.314698 0.643907
0.672509 0.340621 0.672154
0.814805 0.407921 0.701795
0.262580 0.346990 0.668035
0.298003 0.352721 0.690452
0.371654 0.367624 0.692643
0.445228 0.392103 0.654242
0.536525 0.398213 0.677783
0.605668 0.403755 0.685212
0.721279 0.439354 0.700180
0.843011 0.489641 0.717659
0.309018 0.506281 0.716516
0.337507 0.510303 0.718877
0.397137 0.517503 0.728205
0.476234 0.527256 0.744267
0.573552 0.545072 0.719621
0.679721 0.549079 0.736026
0.768355 0.567413 0.741664
0.873864 0.586625 0.740780
0.348417 0.662646 0.740078
0.369345 0.662108 0.734866
0.418128 0.661839 0.739634
0.498446 0.666897 0.752540
0.596975 0.677462 0.768310
0.710772 0.698247 0.776471
0.802680 0.707355 0.782685
0.902108 0.701340 0.771073
0.365860 0.782157 0.777408
0.387860 0.781215 0.776203
0.439025 0.779018 0.773275
0.516213 0.777455 0.770563
0.612360 0.783331 0.780338
0.723157 0.804603 0.802905
0.818263 0.818007 0.816186
0.907715 0.803971 0.796632
0.454946 0.881726 0.804683
0.473621 0.881391 0.804122
0.517837 0.880720 0.802842
0.584781 0.880229 0.801840
0.676483 0.882319 0.805523
0.755191 0.888953 0.814155
0.837608 0.894954 0.825360
0.915615 0.906496 0.863134
0.216484 0.180752 0.489612
0.231998 0.185421 0.503597
0.272582 0.199239 0.536956
0.343540 0.223980 0.587622
0.431614 0.256364 0.636862
0.525321 0.288751 0.674210
0.621390 0.308404 0.700691
0.781924 0.367755 0.757649
0.236700 0.201855 0.533407
0.264534 0.212511 0.541814
0.305623 0.223792 0.570760
0.381273 0.244104 0.619058
0.451022 0.275855 0.653656
0.539844 0.306132 0.685581
0.631894 0.324975 0.708682
0.767484 0.369450 0.752112
0.275444 0.255674 0.628023
0.307693 0.266568 0.632131
0.368058 0.290492 0.633293
0.427917 0.302930 0.662556
0.500147 0.323668 0.691796
0.575997 0.350956 0.712466
0.656456 0.367232 0.727516
0.759464 0.392963 0.754180
0.309753 0.351636 0.733927
0.342858 0.357570 0.744304
0.422595 0.381501 0.735316
0.481905 0.406141 0.710059
0.562078 0.416360 0.734678
0.631202 0.428698 0.751396
0.696406 0.442518 0.759336
0.799754 0.479109 0.781364
0.357223 0.499135 0.781133
0.384144 0.503699 0.789608
0.451342 0.513561 0.812816
0.519991 0.522193 0.814003
0.604769 0.543918 0.782157
0.697337 0.548428 0.802780
0.757259 0.552636 0.811135
0.848332 0.581530 0.814216
0.407995 0.654107 0.824621
0.430833 0.655996 0.823880
0.481510 0.660108 0.824265
0.546890 0.664782 0.836719
0.625795 0.672453 0.859455
0.722031 0.674340 0.874272
0.822954 0.667895 0.882252
0.893969 0.687108 0.860866
0.444796 0.778000 0.844373
0.461854 0.777626 0.841856
0.499959 0.775852 0.839781
0.568216 0.778984 0.850027
0.642955 0.783130 0.865069
0.726056 0.791282 0.882689
0.813570 0.797392 0.889300
0.905119 0.806903 0.884588
0.483778 0.886134 0.880600
0.501747 0.885803 0.880057
0.544390 0.885063 0.878761
0.608487 0.884218 0.876836
0.705093 0.882987 0.875530
0.771674 0.889408 0.884460
0.844813 0.900226 0.897928
0.921194 0.919450 0.917859
