StreetStamps/mlut_cold_snap.cube
TITLE "Cold Snap - Created by MotionVFX"
LUT_3D_SIZE 8
DOMAIN_MIN 0.000000 0.000000 0.000000
DOMAIN_MAX 0.903226 0.903226 0.903226
0.000000 0.000000 0.000000
0.057762 0.006171 0.003489
0.173067 0.022737 0.013085
0.296329 0.048381 0.029659
0.423152 0.078638 0.054187
0.551891 0.113469 0.079762
0.681768 0.150794 0.105641
0.811956 0.189910 0.131747
0.000341 0.080310 0.003489
0.066783 0.096078 0.000000
0.188511 0.101684 0.009596
0.307083 0.118826 0.038382
0.430357 0.141293 0.064218
0.556930 0.167862 0.089089
0.685946 0.197562 0.113113
0.815411 0.230667 0.137901
0.000682 0.180028 0.012212
0.053693 0.201310 0.002617
0.191947 0.227451 0.000872
0.325855 0.231172 0.004362
0.446596 0.246585 0.056438
0.568389 0.269733 0.102889
0.700322 0.287436 0.120967
0.825046 0.315796 0.149473
0.001359 0.297056 0.026170
0.045369 0.314097 0.004362
0.175409 0.350685 0.005234
0.324280 0.374639 0.001745
0.464287 0.379382 0.001745
0.596453 0.388690 0.044488
0.713714 0.407964 0.116479
0.833638 0.434052 0.167683
0.002368 0.428227 0.049489
0.039066 0.440905 0.007851
0.159726 0.467301 0.009596
0.310592 0.505926 0.009596
0.461141 0.523938 0.003489
0.604791 0.529160 0.000000
0.740588 0.532502 0.023553
0.866731 0.546042 0.104273
0.004032 0.566861 0.076848
0.032671 0.576005 0.012212
0.152640 0.593665 0.014829
0.295363 0.620537 0.017446
0.450851 0.648714 0.014829
0.601566 0.660963 0.005234
0.746718 0.665553 0.000000
0.884025 0.667172 0.017446
0.006335 0.700391 0.107441
0.023493 0.706745 0.019191
0.148723 0.717072 0.021808
0.290272 0.733942 0.025297
0.440540 0.756442 0.027042
0.595382 0.774219 0.020063
0.744514 0.782611 0.008723
0.889993 0.786474 0.000000
0.009917 0.834275 0.141055
0.010567 0.839402 0.034893
0.146069 0.845862 0.032276
0.291688 0.856954 0.036637
0.438920 0.870812 0.039254
0.591615 0.886916 0.037510
0.743014 0.897062 0.028787
0.889790 0.902122 0.012212
0.000000 0.002060 0.114807
0.068349 0.000516 0.139311
0.194262 0.004631 0.127995
0.322797 0.017509 0.108773
0.458114 0.033862 0.095213
0.590210 0.060132 0.083705
0.711436 0.110180 0.108773
0.835861 0.157283 0.133950
0.000341 0.091204 0.135039
0.068611 0.098756 0.142777
0.177233 0.102263 0.135039
0.295363 0.121449 0.140708
0.420467 0.144349 0.152070
0.547976 0.172052 0.165332
0.677004 0.203720 0.180861
0.808105 0.236505 0.197588
0.000341 0.190298 0.118538
0.055724 0.201124 0.126849
0.180999 0.218643 0.132853
0.314269 0.237165 0.144480
0.441714 0.251664 0.158378
0.566864 0.269733 0.174260
0.693177 0.291791 0.189804
0.820003 0.318264 0.206472
0.001021 0.302783 0.117307
0.051416 0.315665 0.126080
0.167276 0.338160 0.127614
0.317403 0.368710 0.137901
0.457124 0.382329 0.147164
0.586189 0.394419 0.166512
0.709766 0.412908 0.192857
0.835752 0.432913 0.216975
0.002033 0.431199 0.127995
0.050911 0.440719 0.134314
0.156122 0.461008 0.124527
0.302381 0.494521 0.134677
0.456628 0.519989 0.140360
0.600292 0.530908 0.146497
0.734610 0.535095 0.158995
0.857541 0.551147 0.197588
0.003369 0.567969 0.145492
0.053187 0.574286 0.149800
0.150598 0.590648 0.126465
0.292556 0.616669 0.134677
0.445725 0.643154 0.141055
0.598696 0.658636 0.142434
0.743639 0.666526 0.146163
0.879962 0.668735 0.155885
0.006008 0.700518 0.168265
0.057762 0.704290 0.171147
0.147400 0.715653 0.132485
0.288849 0.732851 0.138608
0.437443 0.752801 0.144141
0.592317 0.771542 0.146497
0.742847 0.781281 0.144480
0.887591 0.787201 0.146497
0.009267 0.834055 0.196107
0.064705 0.836501 0.198569
0.144921 0.845247 0.141401
0.290381 0.856141 0.145828
0.437591 0.869316 0.149800
0.590264 0.885493 0.153033
0.741342 0.895664 0.152070
0.889047 0.901457 0.146831
0.000000 0.007711 0.237883
0.059808 0.003089 0.272106
0.196098 0.001546 0.278924
0.331508 0.003603 0.281598
0.458255 0.032446 0.245585
0.593771 0.051512 0.230313
0.733637 0.068690 0.221808
0.871803 0.092436 0.206941
0.000000 0.087130 0.262581
0.061092 0.093659 0.262221
0.186774 0.097571 0.271413
0.319611 0.106266 0.267568
0.452285 0.116434 0.246553
0.591507 0.127606 0.237481
0.730962 0.141293 0.227376
0.868855 0.157724 0.212477
0.000682 0.212802 0.266154
0.061092 0.210287 0.262941
0.197618 0.234516 0.285884
0.306460 0.227451 0.271240
0.426808 0.246585 0.272279
0.550667 0.270180 0.278082
0.678859 0.294849 0.289614
0.808219 0.322383 0.301103
0.000682 0.326582 0.248476
0.055470 0.331857 0.252838
0.173907 0.344115 0.262221
0.305315 0.357490 0.267920
0.439215 0.379601 0.272279
0.571201 0.395155 0.283586
0.702374 0.412908 0.295816
0.829649 0.432247 0.309137
0.001696 0.445804 0.242261
0.052427 0.451363 0.245585
0.166584 0.468685 0.257853
0.291579 0.480746 0.259866
0.443031 0.509494 0.271587
0.587061 0.533441 0.283421
0.721146 0.545694 0.297070
0.849448 0.557522 0.310923
0.003036 0.576702 0.248476
0.053947 0.582230 0.253026
0.165891 0.595341 0.263480
0.284543 0.606770 0.258221
0.436777 0.633363 0.271413
0.591021 0.654354 0.279092
0.733806 0.668506 0.288323
0.869584 0.672599 0.297851
0.005023 0.705457 0.265622
0.057762 0.708897 0.268973
0.170701 0.717760 0.276220
0.284432 0.729088 0.262941
0.432757 0.747775 0.272796
0.586897 0.766504 0.280599
0.738195 0.778927 0.283586
0.880885 0.789135 0.290899
0.007966 0.837095 0.288969
0.063928 0.839371 0.291379
0.180185 0.845094 0.298006
0.287751 0.854241 0.271933
0.435143 0.866990 0.278251
0.585971 0.881026 0.284080
0.738910 0.893841 0.287837
0.886506 0.900598 0.287675
0.000341 0.018028 0.362005
0.043859 0.005144 0.419640
0.181648 0.010794 0.400332
0.329860 0.003089 0.418809
0.470447 0.002575 0.427837
0.604949 0.016471 0.407072
0.731685 0.072850 0.366801
0.868750 0.094570 0.352179
0.000000 0.085855 0.384931
0.054454 0.100226 0.373918
0.176902 0.097571 0.397021
0.319210 0.101684 0.402957
0.462961 0.107674 0.415991
0.591885 0.129617 0.388366
0.726908 0.145281 0.362872
0.867358 0.157724 0.356754
0.000000 0.207933 0.393116
0.055724 0.208478 0.394013
0.186615 0.221781 0.402085
0.315283 0.227961 0.410923
0.447754 0.236670 0.408575
0.585479 0.246585 0.397686
0.724807 0.255888 0.380641
0.865440 0.268240 0.370078
0.001359 0.351040 0.399563
0.060835 0.346398 0.395353
0.182779 0.355975 0.402085
0.332859 0.385577 0.429454
0.441640 0.371406 0.410178
0.564028 0.385793 0.409003
0.688001 0.408471 0.411773
0.812595 0.433673 0.416933
0.001021 0.475783 0.385621
0.057252 0.475613 0.385621
0.175576 0.485231 0.394348
0.310079 0.501691 0.408253
0.439436 0.505146 0.407394
0.572209 0.523419 0.407394
0.702908 0.539941 0.413361
0.833310 0.554688 0.423045
0.002033 0.594684 0.379589
0.056742 0.598727 0.382503
0.171380 0.607172 0.389617
0.299528 0.618554 0.398681
0.427641 0.624462 0.399893
0.578720 0.646774 0.410817
0.718895 0.664949 0.414837
0.853612 0.675742 0.426620
0.005023 0.715124 0.386309
0.058784 0.718083 0.388480
0.172225 0.722942 0.393116
0.301328 0.735264 0.405454
0.424679 0.739973 0.400990
0.577502 0.757846 0.412621
0.727422 0.773435 0.418289
0.867463 0.788790 0.424684
0.007966 0.842843 0.402848
0.064187 0.844817 0.405345
0.180836 0.849840 0.411455
0.309358 0.857585 0.420985
0.429981 0.863795 0.410071
0.581533 0.877479 0.418602
0.733975 0.889895 0.425296
0.881842 0.899431 0.426925
0.000341 0.031486 0.475478
0.028725 0.005658 0.550744
0.167793 0.012853 0.539291
0.312231 0.024851 0.532716
0.466927 0.006171 0.558576
0.611496 0.001546 0.572008
0.750319 0.016989 0.562189
0.881808 0.051898 0.529855
0.000000 0.089962 0.499264
0.049397 0.112379 0.479369
0.159904 0.100519 0.537238
0.309255 0.103703 0.528534
0.456415 0.105983 0.537542
0.607944 0.107112 0.565843
0.742136 0.121969 0.548893
0.869723 0.157724 0.511290
0.000000 0.202425 0.513314
0.050659 0.213337 0.513879
0.174409 0.220913 0.516211
0.303851 0.224544 0.528689
0.449917 0.232848 0.544044
0.592586 0.243368 0.550522
0.727550 0.254330 0.536245
0.862817 0.268987 0.514282
0.000000 0.341696 0.526818
0.053187 0.338527 0.527521
0.178057 0.351631 0.531326
0.321506 0.372301 0.548745
0.453285 0.377624 0.554860
0.584714 0.381240 0.549486
0.718721 0.390184 0.539822
0.857011 0.401614 0.529467
0.002702 0.495726 0.536398
0.062637 0.492018 0.533255
0.182295 0.492018 0.532561
0.317403 0.510496 0.547556
0.471340 0.536313 0.572711
0.581148 0.519689 0.551260
0.705040 0.529014 0.549264
0.843821 0.543040 0.541108
0.002033 0.619823 0.526974
0.060321 0.618941 0.526114
0.178385 0.621906 0.529311
0.310900 0.633101 0.542013
0.453142 0.648962 0.556613
0.581808 0.646724 0.550744
0.713407 0.658397 0.549338
0.850981 0.670515 0.537847
0.003036 0.731052 0.525957
0.060835 0.732226 0.526896
0.177892 0.736078 0.531017
0.308945 0.745998 0.541938
0.442373 0.751868 0.547034
0.576503 0.757477 0.548893
0.722570 0.770754 0.555884
0.862081 0.785676 0.535327
0.006008 0.851908 0.537314
0.064964 0.853575 0.538835
0.183583 0.857435 0.542541
0.311617 0.862100 0.546885
0.431483 0.873092 0.539897
0.567768 0.876204 0.535787
0.727080 0.888053 0.544719
0.875739 0.898094 0.544868
0.000682 0.047185 0.588725
0.011868 0.006171 0.676713
0.141827 0.017509 0.688734
0.300270 0.022211 0.664752
0.446886 0.042261 0.665677
0.606212 0.009766 0.698046
0.752626 0.001031 0.715247
0.890904 0.019591 0.710070
0.000000 0.098165 0.612066
0.045872 0.129617 0.581341
0.130805 0.103703 0.680938
0.295793 0.105416 0.662197
0.444926 0.114823 0.663360
0.598056 0.108513 0.674729
0.750566 0.105700 0.711184
0.888945 0.117767 0.703018
0.000000 0.201310 0.633876
0.046627 0.222128 0.625045
0.165369 0.228640 0.627049
0.287420 0.226428 0.663418
0.440025 0.229317 0.659220
0.587605 0.237659 0.674047
0.738868 0.245141 0.696360
0.874326 0.259135 0.683848
0.000000 0.339749 0.647370
0.044362 0.342302 0.650419
0.170871 0.353281 0.655340
0.309461 0.364513 0.662022
0.440319 0.366447 0.663708
0.583290 0.378833 0.683234
0.723732 0.392096 0.690169
0.864672 0.402337 0.679759
0.000000 0.479490 0.663650
0.052680 0.475783 0.662662
0.174743 0.484900 0.664288
0.313048 0.503815 0.673649
0.460720 0.525196 0.695161
0.597308 0.531271 0.702049
0.722181 0.526743 0.688789
0.873013 0.526596 0.681891
0.004363 0.634306 0.677279
0.065224 0.631045 0.674047
0.184705 0.628548 0.671254
0.314573 0.633310 0.674047
0.459876 0.655661 0.697123
0.611808 0.671695 0.715457
0.725666 0.658588 0.695870
0.879448 0.658636 0.677279
0.003701 0.750070 0.675127
0.064446 0.748905 0.673991
0.184865 0.749657 0.674389
0.313455 0.751905 0.678125
0.454212 0.763491 0.693739
0.599122 0.776526 0.705165
0.729216 0.773186 0.697938
0.879414 0.781877 0.652203
0.005023 0.864773 0.679871
0.066263 0.865010 0.680152
0.186298 0.865750 0.681275
0.317605 0.871251 0.687738
0.438773 0.880710 0.689728
0.517211 0.891110 0.625296
0.702864 0.891956 0.630661
0.876943 0.899125 0.660623
0.001021 0.064456 0.702641
0.004363 0.026972 0.774914
0.118221 0.018028 0.805050
0.282760 0.030511 0.795608
0.433877 0.042261 0.788176
0.584495 0.060132 0.790527
0.746552 0.014401 0.819913
0.893935 0.000000 0.834332
0.000000 0.109070 0.724184
0.043104 0.150794 0.683680
0.092034 0.104847 0.812689
0.277917 0.110456 0.794574
0.433877 0.113469 0.787287
0.583126 0.127100 0.789208
0.739833 0.112106 0.800143
0.894673 0.095175 0.828596
0.000000 0.202981 0.749079
0.045369 0.229317 0.733978
0.158831 0.241585 0.736620
0.269868 0.229824 0.795715
0.426201 0.232346 0.784068
0.579990 0.238317 0.786729
0.730452 0.244820 0.798818
0.883990 0.248817 0.821911
0.000000 0.336194 0.766185
0.046124 0.347833 0.765357
0.163621 0.358766 0.767050
0.297399 0.366334 0.769218
0.425517 0.369273 0.789392
0.578775 0.374528 0.789428
0.725880 0.386008 0.806736
0.870660 0.396937 0.815630
0.000000 0.488190 0.784596
0.043356 0.483161 0.784332
0.166064 0.488845 0.785871
0.305627 0.502794 0.791110
0.451425 0.514476 0.797308
0.584823 0.519989 0.802320
0.721577 0.527697 0.811284
0.876014 0.527844 0.820727
0.000000 0.621140 0.798328
0.054708 0.620756 0.798713
0.176902 0.618167 0.795181
0.310900 0.631785 0.799761
0.455138 0.647422 0.805996
0.603788 0.664996 0.823087
0.741676 0.669604 0.827512
0.883275 0.660868 0.821880
0.006662 0.758988 0.809173
0.068872 0.756479 0.807173
0.190703 0.756368 0.807340
0.321008 0.756775 0.807039
0.456274 0.764364 0.811284
0.605054 0.781737 0.826059
0.752873 0.791576 0.834507
0.881637 0.778962 0.818211
0.007315 0.878086 0.813145
0.070184 0.877045 0.812396
0.192411 0.877016 0.812233
0.322797 0.877624 0.812494
0.442446 0.884779 0.816335
0.547742 0.894739 0.810561
0.713495 0.894206 0.807307
0.877561 0.897201 0.810857
0.001359 0.083922 0.804371
0.004363 0.054568 0.849262
0.089169 0.019591 0.892630
0.257866 0.037506 0.898109
0.420775 0.043929 0.882662
0.571089 0.064812 0.882267
0.723991 0.078974 0.884259
0.887218 0.020637 0.910867
0.000000 0.122747 0.819788
0.043356 0.164886 0.789612
0.066263 0.132103 0.879318
0.250873 0.115630 0.895162
0.417223 0.118032 0.881335
0.569459 0.129116 0.880657
0.723087 0.140819 0.883635
0.882013 0.116434 0.897627
0.000000 0.211188 0.839083
0.045117 0.237824 0.824808
0.151900 0.257438 0.821600
0.247124 0.231844 0.892429
0.413327 0.237824 0.885203
0.567881 0.239792 0.879248
0.721059 0.248817 0.882522
0.871145 0.249927 0.890815
0.000000 0.336317 0.857791
0.046124 0.351159 0.854179
0.157390 0.368597 0.852881
0.289397 0.376190 0.854390
0.410815 0.371630 0.885799
0.565221 0.378943 0.882917
0.722483 0.381458 0.884904
0.865371 0.391353 0.894121
0.000000 0.482413 0.870683
0.045621 0.486878 0.871756
0.158651 0.495164 0.873477
0.298146 0.506549 0.876928
0.432308 0.510496 0.892138
0.573440 0.511725 0.900071
0.730665 0.514171 0.897781
0.876186 0.523271 0.908383
0.000000 0.628654 0.887057
0.041592 0.623051 0.888240
0.165891 0.625111 0.890275
0.303956 0.633101 0.890253
0.436258 0.645121 0.901847
0.579162 0.647472 0.916855
0.736679 0.644719 0.914829
0.883207 0.657488 0.915678
0.000000 0.751606 0.902128
0.057762 0.751457 0.902429
0.183744 0.748792 0.900440
0.315688 0.751382 0.899962
0.439731 0.763017 0.906475
0.570078 0.770898 0.917246
0.736342 0.777269 0.917473
0.885011 0.782890 0.919238
0.009592 0.883235 0.909627
0.073614 0.882003 0.908890
0.197011 0.881687 0.908911
0.328303 0.880537 0.907812
0.448476 0.885664 0.910636
0.556699 0.893026 0.914974
0.726437 0.897201 0.916958
0.894035 0.907823 0.924629
