StreetStamps/mlut_sterling.cube
TITLE "Sterling - Created by MotionVFX"
LUT_3D_SIZE 5
DOMAIN_MIN 0.000000 0.000000 0.000000
DOMAIN_MAX 0.903226 0.903226 0.903226
0.000000 0.044708 0.081299
0.084118 0.074735 0.112215
0.341082 0.110501 0.140868
0.602403 0.164962 0.184124
0.787791 0.245525 0.250952
0.057695 0.168987 0.123600
0.143955 0.180966 0.121062
0.395928 0.198835 0.141452
0.631957 0.235276 0.180596
0.807685 0.300781 0.247125
0.130999 0.399061 0.196391
0.220462 0.427346 0.209116
0.384019 0.424627 0.204018
0.667432 0.464803 0.269056
0.837904 0.477921 0.282269
0.257327 0.649428 0.312485
0.324056 0.661893 0.320774
0.497498 0.691147 0.339431
0.656058 0.684622 0.329013
0.862375 0.713808 0.410084
0.420997 0.850444 0.456268
0.470075 0.855636 0.460981
0.599878 0.870695 0.477061
0.752350 0.886134 0.518572
0.872793 0.891701 0.566689
0.019791 0.054401 0.096618
0.103678 0.083764 0.166638
0.372804 0.114647 0.218616
0.623990 0.165187 0.250045
0.805354 0.234546 0.294178
0.061710 0.192918 0.227986
0.185555 0.214255 0.249500
0.403613 0.215028 0.240260
0.628545 0.253597 0.265450
0.803563 0.315589 0.312785
0.134848 0.413333 0.274474
0.229716 0.422348 0.280132
0.434727 0.446841 0.289081
0.683407 0.445980 0.301836
0.845942 0.474533 0.331150
0.257657 0.654720 0.367835
0.332370 0.661785 0.373941
0.493010 0.682832 0.387076
0.676017 0.691657 0.386101
0.874665 0.707692 0.437315
0.418588 0.852396 0.495544
0.476334 0.854918 0.500398
0.600792 0.868034 0.512849
0.751816 0.884116 0.549704
0.878724 0.892580 0.600393
0.069991 0.088559 0.178213
0.129630 0.112169 0.259345
0.353375 0.145158 0.382667
0.638405 0.203654 0.421129
0.813221 0.268911 0.451288
0.118940 0.180110 0.379575
0.210262 0.201253 0.379450
0.384641 0.220388 0.406058
0.656343 0.273059 0.429799
0.826577 0.324250 0.451697
0.156446 0.452391 0.466715
0.237392 0.441648 0.454953
0.478233 0.496029 0.509734
0.687417 0.485678 0.489059
0.841288 0.509758 0.499862
0.270183 0.675655 0.517044
0.335709 0.678955 0.517554
0.525145 0.687677 0.528013
0.723905 0.709074 0.549240
0.895284 0.710237 0.557858
0.424641 0.859968 0.606669
0.474829 0.862549 0.606093
0.620801 0.869181 0.617893
0.759054 0.880952 0.638173
0.900146 0.893906 0.749600
0.134623 0.132036 0.322961
0.188485 0.146843 0.392754
0.331252 0.188774 0.496899
0.596120 0.247824 0.589054
0.820446 0.320456 0.628318
0.185751 0.195379 0.510689
0.270022 0.225856 0.500308
0.391178 0.250109 0.551551
0.582029 0.284927 0.591627
0.830585 0.376160 0.638002
0.251174 0.430494 0.638571
0.328162 0.440667 0.650864
0.485641 0.465316 0.641730
0.683407 0.485094 0.663427
0.856841 0.517324 0.656520
0.297400 0.700330 0.697470
0.361431 0.695868 0.692153
0.518736 0.699580 0.698507
0.734684 0.737619 0.736997
0.904701 0.720358 0.711065
0.439025 0.874521 0.744414
0.488372 0.874285 0.743389
0.618434 0.879866 0.746671
0.768101 0.885726 0.755777
0.910270 0.900619 0.828684
0.216484 0.180752 0.489612
0.259469 0.194561 0.526278
0.388846 0.239986 0.614990
0.551017 0.295670 0.682890
0.781924 0.367755 0.757649
0.265021 0.238905 0.600328
0.343404 0.267741 0.612871
0.453148 0.293482 0.668535
0.587582 0.343679 0.710462
0.750480 0.376160 0.747034
0.332928 0.422462 0.757402
0.415240 0.433840 0.796822
0.542797 0.474933 0.742950
0.676224 0.485775 0.774793
0.824094 0.533440 0.795103
0.418243 0.687487 0.829884
0.475130 0.691426 0.825242
0.592531 0.698247 0.846509
0.745894 0.707902 0.877695
0.897296 0.717583 0.866862
0.483778 0.886134 0.880600
0.531443 0.885241 0.879124
0.654974 0.883757 0.876105
0.788883 0.891425 0.887269
0.921194 0.919450 0.917859
