StreetStamps/mlut_sterling.cube
TITLE "Sterling - Created by MotionVFX"
LUT_3D_SIZE 32
0.000000 0.044708 0.081299
0.004023 0.046259 0.083067
0.009476 0.048192 0.085201
0.017407 0.050840 0.088045
0.030020 0.055595 0.092713
0.045097 0.061260 0.098886
0.062317 0.067745 0.105267
0.084118 0.074735 0.112215
0.109583 0.081663 0.118530
0.139098 0.087960 0.124553
0.172802 0.093945 0.129958
0.210446 0.099313 0.134296
0.252011 0.103691 0.137318
0.296191 0.107408 0.139398
0.341082 0.110501 0.140868
0.385882 0.113824 0.142324
0.428254 0.118446 0.145197
0.466396 0.125600 0.150801
0.501465 0.135066 0.158622
0.536182 0.144675 0.166891
0.569772 0.154651 0.175318
0.602403 0.164962 0.184124
0.633459 0.175578 0.192822
0.662952 0.186683 0.202079
0.690383 0.197822 0.211419
0.715834 0.209388 0.221039
0.740218 0.221147 0.230717
0.764270 0.233265 0.240823
0.787791 0.245525 0.250952
0.810992 0.258084 0.261452
0.833740 0.270907 0.271946
0.856196 0.283804 0.282597
0.009476 0.050335 0.086204
0.014578 0.052153 0.087242
0.023172 0.054695 0.090295
0.032137 0.057797 0.093346
0.044032 0.062196 0.097917
0.058008 0.067745 0.103045
0.076213 0.073828 0.109060
0.097142 0.079860 0.114424
0.121997 0.086162 0.120112
0.151115 0.092150 0.125189
0.184180 0.097831 0.129958
0.221360 0.102823 0.133377
0.261927 0.107124 0.136116
0.305179 0.110780 0.137915
0.348821 0.114098 0.139103
0.392279 0.117638 0.140868
0.433174 0.122712 0.144054
0.470279 0.130506 0.150525
0.505020 0.139792 0.158358
0.539251 0.149233 0.166638
0.572553 0.159049 0.175075
0.604907 0.169209 0.183657
0.635758 0.179681 0.192598
0.664985 0.190645 0.201862
0.692158 0.201655 0.211211
0.717405 0.213093 0.220838
0.741715 0.224732 0.230523
0.765662 0.236732 0.240635
0.789122 0.248880 0.250771
0.812236 0.261500 0.261277
0.834935 0.274048 0.271777
0.857401 0.287003 0.282597
0.018834 0.059693 0.091785
0.026474 0.063437 0.093666
0.031719 0.064056 0.093990
0.044743 0.067745 0.098564
0.058008 0.072010 0.103363
0.071425 0.075943 0.107165
0.088360 0.080461 0.111585
0.109096 0.085863 0.116318
0.134172 0.091552 0.120745
0.163366 0.097235 0.125189
0.196193 0.102533 0.129011
0.232698 0.107124 0.132143
0.272582 0.111336 0.134296
0.314135 0.114920 0.135512
0.357091 0.118446 0.137018
0.399066 0.122448 0.138807
0.438147 0.127936 0.142903
0.474024 0.136068 0.149972
0.508542 0.145158 0.158093
0.542713 0.154417 0.166384
0.575692 0.164060 0.174831
0.607733 0.174053 0.183423
0.638343 0.184366 0.192373
0.667324 0.195175 0.201646
0.694200 0.206038 0.211002
0.719264 0.217335 0.220637
0.743479 0.229023 0.230328
0.767302 0.240706 0.240448
0.790686 0.252902 0.250590
0.813729 0.265223 0.261101
0.836334 0.277817 0.271607
0.858658 0.290650 0.282433
0.030020 0.074433 0.099208
0.036963 0.078054 0.100812
0.044388 0.081062 0.101771
0.051579 0.081062 0.101132
0.067962 0.085263 0.106217
0.085983 0.089457 0.111269
0.104175 0.093048 0.115055
0.124097 0.096338 0.118214
0.148528 0.101076 0.121696
0.177033 0.105701 0.124871
0.209339 0.110221 0.127419
0.246121 0.114373 0.129643
0.285474 0.117908 0.131210
0.325902 0.121388 0.132452
0.367154 0.125077 0.133684
0.407051 0.129482 0.136418
0.444580 0.135818 0.141452
0.479428 0.143948 0.149139
0.513491 0.152778 0.157297
0.547305 0.161793 0.165622
0.579931 0.171200 0.174100
0.611684 0.181179 0.182954
0.641689 0.191060 0.191922
0.670333 0.201655 0.201212
0.697058 0.212511 0.210584
0.721697 0.223604 0.220234
0.745894 0.234911 0.230134
0.769586 0.246588 0.240072
0.792849 0.258598 0.250408
0.815688 0.270741 0.260751
0.838318 0.283161 0.271438
0.860549 0.295826 0.282269
0.038884 0.093945 0.106533
0.045449 0.097831 0.107165
0.053220 0.101660 0.108113
0.062922 0.104267 0.108113
0.071425 0.101951 0.106849
0.092529 0.106840 0.112215
0.116329 0.111336 0.117581
0.141314 0.114920 0.122013
0.164817 0.116283 0.123282
0.192550 0.119252 0.124871
0.224402 0.122448 0.126463
0.259469 0.125860 0.127738
0.297098 0.128968 0.128376
0.336540 0.132036 0.129011
0.377122 0.135568 0.130585
0.415704 0.140284 0.133990
0.451342 0.146843 0.140282
0.485837 0.154651 0.148022
0.519632 0.162929 0.156230
0.552818 0.171641 0.164600
0.585077 0.180752 0.173120
0.616379 0.190231 0.182014
0.646179 0.200046 0.191018
0.674401 0.210367 0.200343
0.700509 0.220768 0.209956
0.725024 0.231795 0.219628
0.748907 0.242855 0.229550
0.772463 0.254291 0.239696
0.795601 0.266064 0.249864
0.818419 0.277980 0.260400
0.840819 0.290334 0.271099
0.863037 0.302777 0.281941
0.045799 0.116555 0.112215
0.052239 0.120055 0.113162
0.059872 0.124291 0.113793
0.071139 0.128710 0.114108
0.083314 0.129995 0.113477
0.093045 0.126121 0.111585
0.119176 0.131272 0.116950
0.148961 0.136068 0.122648
0.179031 0.139051 0.126463
0.209708 0.141021 0.128376
0.238428 0.140530 0.126781
0.273060 0.142732 0.127100
0.309165 0.145158 0.127100
0.347068 0.148041 0.127738
0.384517 0.151365 0.129958
0.420997 0.156047 0.133684
0.456526 0.162021 0.140282
0.492144 0.168987 0.147741
0.525938 0.176446 0.155426
0.559046 0.184366 0.163574
0.591084 0.192506 0.171642
0.621977 0.201855 0.180833
0.651345 0.211343 0.189883
0.679057 0.221337 0.199470
0.704694 0.231427 0.208906
0.728971 0.242140 0.218819
0.752692 0.252902 0.228769
0.776060 0.264043 0.238943
0.799060 0.275527 0.249318
0.821718 0.287321 0.259873
0.844000 0.299239 0.270589
0.866109 0.311563 0.281449
0.051910 0.141756 0.117898
0.058321 0.144917 0.118530
0.065907 0.148757 0.119162
0.077046 0.153950 0.119479
0.091493 0.157898 0.119479
0.106399 0.158359 0.118530
0.117281 0.152308 0.116318
0.147878 0.157898 0.121379
0.182010 0.162929 0.127419
0.217754 0.166310 0.131210
0.253013 0.168542 0.133684
0.286093 0.167874 0.132143
0.318907 0.167205 0.129327
0.355237 0.169431 0.130585
0.391301 0.172520 0.133069
0.426225 0.176663 0.137915
0.461231 0.181819 0.143479
0.495976 0.187521 0.149417
0.529966 0.193535 0.155695
0.564373 0.201052 0.163574
0.597188 0.208603 0.171642
0.627908 0.216951 0.180359
0.656967 0.225482 0.188971
0.684256 0.234546 0.197935
0.709516 0.244282 0.207640
0.733476 0.254464 0.217600
0.757109 0.265055 0.227594
0.780319 0.276019 0.237999
0.803138 0.287162 0.248406
0.825568 0.298621 0.258992
0.847815 0.310362 0.269738
0.869696 0.322211 0.280626
0.057695 0.168987 0.123600
0.064124 0.172300 0.123918
0.071425 0.175796 0.124553
0.082776 0.180966 0.125189
0.097650 0.186263 0.125508
0.115135 0.189607 0.125189
0.132363 0.188983 0.123600
0.143955 0.180966 0.121062
0.178433 0.186892 0.126463
0.216303 0.192300 0.133069
0.254843 0.195788 0.137617
0.293155 0.198430 0.141160
0.330411 0.200046 0.144054
0.362347 0.198228 0.141160
0.395928 0.198835 0.141452
0.431391 0.202056 0.145197
0.466602 0.205642 0.149139
0.501183 0.210171 0.154078
0.535325 0.215798 0.160200
0.568683 0.221716 0.166384
0.600722 0.228095 0.173120
0.631957 0.235276 0.180596
0.661845 0.243391 0.189200
0.689512 0.251857 0.197935
0.714341 0.260649 0.207216
0.738357 0.270077 0.216784
0.761876 0.279606 0.226414
0.785008 0.290018 0.236481
0.807685 0.300781 0.247125
0.830041 0.311863 0.257933
0.852073 0.323232 0.268714
0.873837 0.334859 0.279802
0.063223 0.198430 0.129011
0.069703 0.201253 0.129643
0.077046 0.204451 0.130272
0.088097 0.209388 0.130898
0.103181 0.215028 0.131833
0.121763 0.220388 0.132452
0.141755 0.222472 0.132143
0.160655 0.220958 0.130272
0.173004 0.211343 0.127100
0.210262 0.217527 0.133377
0.250671 0.223604 0.141743
0.291782 0.228095 0.148581
0.331951 0.231242 0.154078
0.369345 0.233631 0.158622
0.404801 0.233631 0.159149
0.436716 0.231795 0.156230
0.471294 0.233631 0.157828
0.506414 0.237276 0.162024
0.540521 0.241244 0.166130
0.573705 0.246057 0.171395
0.605944 0.251857 0.177973
0.636500 0.258084 0.184590
0.665422 0.264886 0.191696
0.692445 0.271902 0.198813
0.718125 0.280255 0.207640
0.742814 0.288910 0.216988
0.766720 0.298001 0.226414
0.789803 0.307497 0.236481
0.812395 0.317365 0.246391
0.834786 0.327433 0.256691
0.856841 0.338101 0.267344
0.878513 0.349320 0.278478
0.069703 0.229394 0.135814
0.076213 0.231979 0.136418
0.083583 0.235093 0.137018
0.094589 0.239265 0.138213
0.109583 0.245348 0.139693
0.128256 0.250809 0.141160
0.150040 0.255847 0.142613
0.171584 0.256881 0.142324
0.191200 0.254117 0.140282
0.203944 0.243748 0.136116
0.243401 0.250284 0.144054
0.285319 0.256709 0.154078
0.328444 0.262180 0.162024
0.369345 0.265560 0.168152
0.408466 0.268410 0.173365
0.447383 0.271239 0.177973
0.479527 0.269078 0.175075
0.511391 0.267741 0.172382
0.545559 0.270907 0.175803
0.578877 0.274706 0.180122
0.610803 0.278956 0.184590
0.641447 0.283964 0.190111
0.670226 0.290176 0.196833
0.697012 0.296759 0.204018
0.721781 0.303695 0.211419
0.745972 0.310963 0.219021
0.769838 0.318987 0.227398
0.793724 0.327865 0.237051
0.817103 0.336976 0.246758
0.839615 0.346578 0.256869
0.861574 0.356632 0.267344
0.883286 0.366839 0.277980
0.078425 0.261500 0.144340
0.084653 0.263874 0.145197
0.092270 0.266568 0.146333
0.103181 0.270409 0.147741
0.117756 0.275855 0.149972
0.136420 0.282195 0.152447
0.157925 0.287799 0.154618
0.181218 0.291596 0.155426
0.203944 0.292226 0.154888
0.223688 0.288275 0.152720
0.237046 0.277490 0.148302
0.278130 0.284285 0.156230
0.321203 0.291281 0.167144
0.365341 0.297226 0.175803
0.407051 0.301089 0.182719
0.448564 0.304763 0.188743
0.486228 0.307648 0.193719
0.521598 0.308102 0.195059
0.552573 0.306132 0.192147
0.583743 0.305980 0.190338
0.615713 0.309761 0.194836
0.646239 0.313953 0.199470
0.674871 0.318545 0.204232
0.701418 0.323668 0.209746
0.726098 0.330162 0.216988
0.750365 0.336976 0.224634
0.773999 0.344095 0.232266
0.797302 0.351636 0.240260
0.820166 0.359441 0.248406
0.843186 0.368277 0.257933
0.865835 0.377566 0.268030
0.888204 0.387023 0.278312
0.089931 0.294421 0.156230
0.096124 0.296448 0.157031
0.103181 0.298930 0.158093
0.113697 0.302624 0.159675
0.127796 0.307497 0.161764
0.145704 0.313953 0.164344
0.166469 0.320016 0.166638
0.190813 0.326133 0.168905
0.214846 0.328871 0.169405
0.238083 0.328728 0.168403
0.257987 0.323668 0.165622
0.271784 0.312611 0.161244
0.314281 0.319869 0.169155
0.358015 0.327000 0.180833
0.402779 0.333441 0.190338
0.445768 0.338101 0.198155
0.487204 0.342014 0.204446
0.524968 0.345062 0.210166
0.562157 0.348362 0.215556
0.592820 0.346578 0.213289
0.621781 0.345200 0.210166
0.650705 0.346303 0.210375
0.679312 0.350275 0.215145
0.705669 0.354749 0.220032
0.730439 0.359574 0.225228
0.754625 0.364871 0.230717
0.778425 0.371656 0.238377
0.801763 0.378585 0.246207
0.824555 0.385900 0.254194
0.847125 0.393455 0.262500
0.869344 0.401475 0.270759
0.891455 0.409930 0.279802
0.102682 0.328296 0.168905
0.108607 0.330305 0.169904
0.115374 0.332730 0.170899
0.125257 0.335989 0.172136
0.138876 0.340621 0.174344
0.155598 0.346440 0.176770
0.176431 0.353263 0.179408
0.199425 0.359174 0.181778
0.225292 0.364871 0.183657
0.250336 0.367101 0.183890
0.274015 0.366315 0.182719
0.293764 0.360240 0.179408
0.307840 0.349046 0.174588
0.351371 0.356363 0.182719
0.395686 0.363817 0.195059
0.440666 0.370489 0.205302
0.485054 0.376416 0.214115
0.524791 0.379729 0.220838
0.563346 0.383392 0.227004
0.598465 0.386524 0.232651
0.631076 0.388019 0.235337
0.658492 0.386150 0.232266
0.684156 0.385274 0.229160
0.709820 0.387895 0.231492
0.734643 0.392103 0.236481
0.758979 0.396755 0.241571
0.782759 0.401836 0.247125
0.806133 0.407210 0.252757
0.829072 0.414034 0.260751
0.851703 0.421203 0.268714
0.873917 0.428585 0.276982
0.895863 0.436165 0.285531
0.116329 0.363289 0.182484
0.121997 0.365134 0.183188
0.128485 0.367232 0.184124
0.137985 0.370489 0.185519
0.150900 0.374621 0.187367
0.166881 0.379855 0.189656
0.186729 0.386524 0.192373
0.209339 0.392963 0.195059
0.234791 0.399182 0.197495
0.261273 0.403874 0.198813
0.287175 0.405546 0.198813
0.311365 0.404472 0.197495
0.330832 0.397606 0.193719
0.345443 0.386524 0.188971
0.389707 0.393945 0.197054
0.433951 0.401354 0.209956
0.478930 0.408395 0.221039
0.522488 0.414384 0.230328
0.561680 0.418212 0.237620
0.600582 0.422576 0.244731
0.633584 0.425535 0.250590
0.665967 0.429035 0.256514
0.692349 0.428248 0.255267
0.715834 0.426894 0.252217
0.738952 0.426781 0.249864
0.763093 0.430270 0.253656
0.787037 0.434838 0.258816
0.810544 0.439683 0.264412
0.833561 0.444902 0.270079
0.856252 0.450372 0.275814
0.878513 0.457131 0.283904
0.900519 0.464289 0.292117
0.130999 0.399061 0.196391
0.136420 0.400752 0.197054
0.142417 0.402796 0.197935
0.151545 0.405546 0.199251
0.163781 0.409458 0.200995
0.179430 0.414384 0.203373
0.198097 0.420285 0.205942
0.220462 0.427346 0.209116
0.244763 0.433284 0.211419
0.272103 0.439683 0.213909
0.298756 0.443061 0.214734
0.325051 0.444145 0.214528
0.349897 0.442953 0.212875
0.368831 0.435391 0.208906
0.384019 0.424627 0.204018
0.428479 0.431947 0.211836
0.472611 0.439573 0.225426
0.516845 0.446626 0.237241
0.559286 0.452709 0.247125
0.598253 0.457236 0.255267
0.634829 0.461297 0.262500
0.667432 0.464803 0.269056
0.696406 0.468074 0.275145
0.723157 0.470306 0.279140
0.746049 0.468887 0.275981
0.768500 0.468175 0.272959
0.791330 0.468785 0.271438
0.814773 0.473230 0.276816
0.837904 0.477921 0.282269
0.860688 0.482849 0.287955
0.883077 0.488196 0.293704
0.905193 0.493753 0.299821
0.146358 0.435391 0.211002
0.151545 0.437048 0.211836
0.157503 0.438806 0.212667
0.166057 0.441321 0.213702
0.177834 0.444902 0.215556
0.192743 0.449306 0.217600
0.210630 0.454821 0.220032
0.231998 0.461297 0.223042
0.256004 0.467768 0.226019
0.282364 0.473932 0.228574
0.310486 0.479603 0.230717
0.337645 0.482261 0.231105
0.364041 0.482849 0.230523
0.389215 0.481574 0.228965
0.407759 0.473732 0.224634
0.423392 0.463363 0.219830
0.467729 0.470509 0.227398
0.511208 0.478020 0.241571
0.554202 0.484997 0.253835
0.595406 0.491176 0.264412
0.634269 0.496784 0.273633
0.667324 0.499977 0.280955
0.698723 0.504069 0.287955
0.725024 0.507108 0.294336
0.751702 0.510667 0.300598
0.775528 0.510758 0.300598
0.797767 0.509940 0.297638
0.819668 0.509758 0.294810
0.842194 0.511845 0.295283
0.865069 0.516253 0.300753
0.887534 0.520960 0.306441
0.909736 0.526040 0.312335
0.162742 0.471922 0.226414
0.167703 0.473431 0.227004
0.173409 0.475033 0.227790
0.181614 0.477524 0.228965
0.192743 0.480590 0.230523
0.207115 0.484607 0.232458
0.224402 0.489641 0.234955
0.244763 0.495556 0.237809
0.268415 0.502308 0.241010
0.293612 0.508024 0.243434
0.321489 0.514101 0.246207
0.349897 0.518836 0.247858
0.377375 0.521137 0.248224
0.403613 0.521225 0.247308
0.429041 0.519988 0.245654
0.447168 0.511755 0.241010
0.463098 0.502122 0.236291
0.506692 0.509028 0.243805
0.549455 0.516432 0.258286
0.590939 0.523247 0.271099
0.630130 0.529329 0.282269
0.666782 0.534884 0.291958
0.697522 0.538258 0.299821
0.726962 0.542429 0.307354
0.753375 0.545647 0.313980
0.778882 0.548916 0.320335
0.804281 0.551912 0.325712
0.826332 0.550943 0.322816
0.848045 0.550701 0.319895
0.869561 0.551105 0.317246
0.891862 0.554240 0.319895
0.914226 0.558770 0.325567
0.179828 0.508663 0.242318
0.184770 0.510031 0.243063
0.190232 0.511483 0.243620
0.198097 0.513651 0.244731
0.208784 0.516432 0.246207
0.222436 0.520077 0.248041
0.239117 0.524559 0.250408
0.258646 0.529846 0.253117
0.281113 0.535984 0.256158
0.306216 0.542180 0.259169
0.332789 0.547776 0.261801
0.361954 0.553760 0.264412
0.389952 0.557188 0.265450
0.417898 0.559322 0.265795
0.443713 0.559007 0.264585
0.468853 0.557663 0.262848
0.486716 0.549647 0.258109
0.503153 0.540767 0.253656
0.545475 0.547286 0.260751
0.587068 0.554400 0.275647
0.626373 0.560972 0.288920
0.663393 0.566951 0.300598
0.697105 0.572366 0.310834
0.726056 0.576050 0.319161
0.754360 0.579911 0.326864
0.781437 0.583505 0.334119
0.805938 0.586481 0.340539
0.831128 0.589926 0.347253
0.854281 0.590924 0.348608
0.875916 0.590639 0.345757
0.897246 0.590853 0.343020
0.918806 0.591989 0.341230
0.198097 0.545154 0.258992
0.202631 0.546304 0.259521
0.207858 0.547613 0.260224
0.215393 0.549485 0.261101
0.225648 0.552073 0.262500
0.238773 0.555279 0.264412
0.254843 0.559243 0.266484
0.273538 0.564015 0.269056
0.294980 0.569480 0.271946
0.319626 0.575676 0.275312
0.345307 0.580942 0.277814
0.373314 0.586408 0.280461
0.402540 0.591563 0.282924
0.430609 0.594459 0.283578
0.458101 0.596001 0.283578
0.483876 0.595791 0.282269
0.508357 0.594107 0.280461
0.526202 0.586697 0.275647
0.542797 0.578728 0.271438
0.583817 0.584888 0.278146
0.623407 0.591634 0.293545
0.660398 0.597882 0.307354
0.694719 0.603658 0.319455
0.725437 0.608716 0.330012
0.754738 0.613159 0.339292
0.781576 0.616167 0.346982
0.808716 0.619785 0.354511
0.833202 0.622784 0.361364
0.857233 0.625874 0.368091
0.881693 0.629176 0.374823
0.903197 0.628866 0.372171
0.924527 0.629052 0.369626
0.217029 0.581016 0.276315
0.221360 0.581970 0.276816
0.226358 0.583141 0.277315
0.233746 0.584888 0.278312
0.243572 0.587130 0.279471
0.256170 0.589998 0.281284
0.271464 0.593473 0.283251
0.289485 0.597605 0.285693
0.310046 0.602430 0.288438
0.333486 0.607980 0.291480
0.359200 0.613685 0.294810
0.385758 0.618499 0.297168
0.414660 0.623671 0.299821
0.443713 0.627935 0.301836
0.471396 0.630226 0.302300
0.498352 0.631333 0.301991
0.523819 0.631210 0.300598
0.547222 0.629238 0.298420
0.565082 0.622721 0.294020
0.581955 0.615777 0.290043
0.620997 0.621448 0.296384
0.658323 0.627748 0.312036
0.692254 0.633593 0.326144
0.723531 0.638888 0.338737
0.753262 0.643663 0.349689
0.782342 0.648058 0.359532
0.808394 0.650848 0.367450
0.835114 0.654274 0.375326
0.860077 0.657320 0.382544
0.883364 0.660162 0.389382
0.907300 0.663289 0.396333
0.930003 0.664942 0.399054
0.236700 0.615842 0.294020
0.241007 0.616752 0.294494
0.245782 0.617789 0.295125
0.252846 0.619207 0.295913
0.262253 0.621257 0.297168
0.274333 0.623734 0.298732
0.289024 0.626813 0.300598
0.306363 0.630349 0.302916
0.326043 0.634564 0.305525
0.348417 0.639364 0.308417
0.373314 0.644711 0.311736
0.399306 0.649314 0.314278
0.427015 0.653996 0.316950
0.456421 0.658800 0.319602
0.484465 0.661947 0.320920
0.511940 0.663983 0.321358
0.538146 0.664782 0.320774
0.563029 0.664729 0.319455
0.585373 0.662699 0.317098
0.603101 0.657100 0.312934
0.619752 0.651187 0.309174
0.656570 0.656383 0.315171
0.690912 0.662108 0.331150
0.721864 0.667371 0.345621
0.751855 0.672248 0.358480
0.780948 0.676610 0.369754
0.809262 0.680682 0.379947
0.835174 0.683414 0.388413
0.861214 0.686537 0.396570
0.886632 0.689561 0.404087
0.909663 0.692166 0.411112
0.932690 0.694870 0.418119
0.257327 0.649428 0.312485
0.261273 0.650168 0.312934
0.265993 0.651017 0.313532
0.272742 0.652315 0.314278
0.281739 0.653996 0.315320
0.293308 0.656162 0.316802
0.307398 0.658800 0.318573
0.324056 0.661893 0.320774
0.343131 0.665472 0.323106
0.364432 0.669564 0.325856
0.388230 0.674136 0.328870
0.414196 0.679004 0.332284
0.440448 0.682929 0.334542
0.468649 0.687108 0.337204
0.497498 0.691147 0.339431
0.524880 0.693592 0.340401
0.551919 0.695415 0.340816
0.577061 0.696003 0.340124
0.601214 0.696093 0.338876
0.622237 0.693958 0.336366
0.639687 0.689467 0.332426
0.656058 0.684622 0.329013
0.689900 0.689186 0.334401
0.721195 0.694278 0.350766
0.750824 0.699004 0.365519
0.780004 0.703298 0.378704
0.808330 0.707186 0.390348
0.836037 0.710816 0.400817
0.862375 0.713808 0.410084
0.887199 0.716208 0.418119
0.912349 0.719034 0.426092
0.935791 0.721557 0.433361
0.278603 0.681075 0.331434
0.282520 0.681711 0.331859
0.287021 0.682492 0.332426
0.293460 0.683511 0.333132
0.302054 0.685006 0.334119
0.313116 0.686823 0.335385
0.326609 0.688998 0.337065
0.342586 0.691611 0.339015
0.361038 0.694642 0.341368
0.381398 0.698114 0.343981
0.404088 0.701952 0.346710
0.429041 0.706127 0.349958
0.454840 0.709906 0.352643
0.481905 0.713563 0.355175
0.510107 0.717301 0.357690
0.538146 0.720598 0.359663
0.564610 0.722593 0.360318
0.590721 0.724181 0.360580
0.614645 0.724616 0.359794
0.637853 0.724893 0.358612
0.657476 0.722871 0.356104
0.674296 0.719194 0.352509
0.690045 0.715397 0.349554
0.720860 0.719435 0.354511
0.750748 0.723983 0.370901
0.779584 0.728236 0.385979
0.807911 0.732244 0.399525
0.835620 0.735900 0.411568
0.862596 0.739367 0.422238
0.889077 0.742612 0.432070
0.913024 0.744784 0.440279
0.937829 0.747535 0.448412
0.300558 0.710485 0.350900
0.304288 0.710980 0.351303
0.308577 0.711597 0.351840
0.314862 0.712541 0.352509
0.323060 0.713686 0.353311
0.333764 0.715234 0.354644
0.346662 0.717058 0.356104
0.361954 0.719275 0.357954
0.379642 0.721836 0.360187
0.399306 0.724853 0.362668
0.420997 0.728197 0.365260
0.444796 0.731896 0.368220
0.470279 0.735824 0.371409
0.495976 0.739102 0.373689
0.523109 0.742687 0.376205
0.551017 0.746311 0.378704
0.577592 0.749013 0.380071
0.603171 0.750889 0.380691
0.627780 0.752280 0.380815
0.650647 0.752901 0.380071
0.672456 0.753266 0.379077
0.690575 0.751329 0.376455
0.706374 0.748238 0.373310
0.721446 0.745119 0.370646
0.750977 0.748939 0.375075
0.780109 0.753229 0.391794
0.808072 0.757251 0.407098
0.835680 0.761085 0.420907
0.862899 0.764667 0.433254
0.889128 0.767968 0.444159
0.915017 0.771101 0.454142
0.938912 0.773346 0.462870
0.323345 0.738380 0.370901
0.326892 0.738874 0.371282
0.330972 0.739443 0.371790
0.336954 0.740276 0.372424
0.344900 0.741333 0.373183
0.355104 0.742725 0.374319
0.367541 0.744410 0.375828
0.382149 0.746385 0.377456
0.399066 0.748681 0.379575
0.418013 0.751329 0.381804
0.438696 0.754357 0.384266
0.461439 0.757755 0.387076
0.485837 0.761370 0.390107
0.511116 0.764879 0.392754
0.536867 0.768073 0.395144
0.563662 0.771517 0.397518
0.590430 0.774790 0.399878
0.615713 0.777149 0.400935
0.640052 0.778984 0.401403
0.663062 0.780203 0.401520
0.684256 0.780912 0.400700
0.704472 0.781451 0.399878
0.721028 0.779662 0.397281
0.736725 0.777217 0.394667
0.752159 0.774790 0.392514
0.780948 0.778441 0.396333
0.809230 0.782459 0.413274
0.836452 0.786267 0.428713
0.863284 0.789904 0.442696
0.889845 0.793309 0.455358
0.915304 0.796488 0.468184
0.939790 0.799737 0.484233
0.346662 0.766392 0.391433
0.350165 0.766848 0.391794
0.354174 0.767339 0.392274
0.359858 0.768108 0.392874
0.367541 0.769050 0.393592
0.377248 0.770303 0.394667
0.389092 0.771793 0.395977
0.403136 0.773587 0.397637
0.419278 0.775681 0.399407
0.437487 0.778034 0.401637
0.457262 0.780777 0.403971
0.478930 0.783833 0.406521
0.502123 0.787097 0.409282
0.526905 0.790659 0.412365
0.551427 0.793667 0.414519
0.577061 0.796843 0.416885
0.603031 0.800121 0.419348
0.628290 0.803052 0.421240
0.651982 0.805108 0.422016
0.674767 0.806903 0.422680
0.695846 0.808062 0.422680
0.715281 0.808938 0.421905
0.734483 0.809624 0.421351
0.750900 0.808094 0.418902
0.766793 0.806305 0.416661
0.782620 0.804572 0.415084
0.810608 0.807969 0.418343
0.838229 0.811769 0.435397
0.864576 0.815346 0.452412
0.890255 0.818798 0.471587
0.914993 0.822188 0.492909
0.934950 0.826084 0.538077
0.370758 0.794350 0.412592
0.374206 0.794772 0.412820
0.378006 0.795226 0.413274
0.383397 0.795906 0.413840
0.390688 0.796747 0.414519
0.400027 0.797875 0.415422
0.411399 0.799256 0.416661
0.424754 0.800856 0.418231
0.440229 0.802734 0.419906
0.457576 0.804856 0.421905
0.476635 0.807279 0.424115
0.497213 0.810029 0.426530
0.519364 0.813006 0.429039
0.542881 0.816266 0.431962
0.567044 0.819406 0.434648
0.591156 0.822278 0.436783
0.615847 0.825338 0.439117
0.640720 0.828462 0.441437
0.664053 0.831002 0.442905
0.685893 0.832880 0.443637
0.706769 0.834662 0.444263
0.726098 0.835768 0.444159
0.745117 0.836813 0.443637
0.764050 0.837623 0.443428
0.780424 0.836494 0.441752
0.796669 0.835332 0.440595
0.812808 0.834283 0.440489
0.839997 0.837421 0.447896
0.866327 0.840877 0.472939
0.891047 0.844273 0.499593
0.914610 0.847695 0.527600
0.929242 0.851923 0.610230
0.395686 0.822429 0.434219
0.398825 0.822790 0.434434
0.402421 0.823211 0.434862
0.407641 0.823781 0.435290
0.414660 0.824591 0.436037
0.423505 0.825577 0.436889
0.434284 0.826770 0.437952
0.447168 0.828225 0.439329
0.461854 0.829941 0.441016
0.478432 0.831854 0.442800
0.496833 0.834021 0.444889
0.516303 0.836465 0.447069
0.537293 0.839153 0.449442
0.559606 0.842050 0.452106
0.582925 0.845181 0.454953
0.605944 0.847892 0.457175
0.629370 0.850668 0.459284
0.652907 0.853590 0.461579
0.676017 0.856379 0.464255
0.697522 0.858575 0.466813
0.717744 0.860322 0.469646
0.737801 0.861899 0.473036
