StreetStamps/mlut_cold_snap.cube
TITLE "Cold Snap - Created by MotionVFX"
LUT_3D_SIZE 5
DOMAIN_MIN 0.000000 0.000000 0.000000
DOMAIN_MAX 0.903226 0.903226 0.903226
0.000000 0.000000 0.000000
0.142217 0.017509 0.009596
0.359324 0.062666 0.040999
0.584386 0.122747 0.086431
0.811956 0.189910 0.131747
0.000341 0.153501 0.009596
0.159726 0.192613 0.000872
0.380678 0.208115 0.040999
0.601460 0.242721 0.100070
0.820598 0.292906 0.148488
0.001696 0.361191 0.036637
0.130392 0.397564 0.006979
0.392212 0.449913 0.002617
0.635593 0.457643 0.016574
0.847732 0.489090 0.146831
0.004693 0.601373 0.084256
0.117336 0.620207 0.015702
0.369756 0.663690 0.019191
0.637137 0.691794 0.006106
0.886132 0.697178 0.008723
0.009917 0.834275 0.141055
0.108228 0.843831 0.030531
0.364664 0.863349 0.038382
0.629930 0.890234 0.035765
0.889790 0.902122 0.012212
0.000000 0.006171 0.206238
0.163446 0.001031 0.244222
0.390727 0.023264 0.215636
0.630081 0.054190 0.193863
0.871249 0.093963 0.164442
0.000341 0.180431 0.233004
0.164672 0.198692 0.250193
0.362981 0.208115 0.237883
0.581643 0.248817 0.252274
0.807499 0.298017 0.273141
0.001359 0.377734 0.209729
0.136294 0.398919 0.223967
0.375298 0.435659 0.236472
0.618481 0.469892 0.258770
0.844109 0.495245 0.284901
0.003701 0.607230 0.224611
0.135692 0.621250 0.235050
0.361113 0.653236 0.234234
0.629981 0.687210 0.246359
0.876289 0.700602 0.260048
0.008292 0.836094 0.263121
0.149475 0.842441 0.270197
0.361915 0.861117 0.242851
0.625531 0.885806 0.251708
0.887523 0.900820 0.252650
0.000341 0.024321 0.418706
0.139869 0.009766 0.472981
0.397858 0.004631 0.488499
0.644843 0.012338 0.492006
0.869410 0.096078 0.427837
0.000000 0.171636 0.450205
0.144729 0.186984 0.452575
0.382455 0.196807 0.475478
0.624413 0.214939 0.469024
0.862922 0.238810 0.431063
0.002033 0.423287 0.467393
0.150037 0.419662 0.463743
0.401740 0.461888 0.501099
0.602784 0.453078 0.478576
0.820710 0.490557 0.482349
0.002033 0.636026 0.451344
0.143187 0.641530 0.456429
0.370018 0.657823 0.471637
0.613212 0.676948 0.481125
0.850375 0.702450 0.486949
0.007641 0.846844 0.468481
0.150784 0.851361 0.472085
0.378040 0.864506 0.487638
0.616678 0.878260 0.487897
0.877183 0.897509 0.495314
0.000682 0.051125 0.617389
0.096863 0.013885 0.718283
0.369320 0.032921 0.697231
0.641349 0.010794 0.732620
0.892253 0.011823 0.746638
0.000000 0.171428 0.658575
0.130599 0.203720 0.645929
0.362093 0.196238 0.691985
0.626190 0.206657 0.707783
0.882422 0.216885 0.732035
0.000000 0.415704 0.689949
0.135893 0.416101 0.691050
0.383045 0.440254 0.704683
0.617297 0.452177 0.720766
0.858740 0.471352 0.719735
0.004693 0.666341 0.713193
0.155394 0.663034 0.709964
0.383719 0.671559 0.715982
0.647095 0.702157 0.749483
0.879825 0.688772 0.716821
0.004363 0.868611 0.716926
0.156304 0.868963 0.717553
0.387155 0.876465 0.726950
0.568783 0.891730 0.676600
0.876874 0.898819 0.703072
0.001359 0.083922 0.804371
0.051922 0.015953 0.889215
0.342364 0.041839 0.888422
0.609775 0.070778 0.883288
0.887218 0.020637 0.910867
0.000000 0.185213 0.834303
0.119541 0.232514 0.811218
0.331604 0.203720 0.887581
0.606370 0.212623 0.880164
0.874946 0.213516 0.891870
0.000000 0.407761 0.864408
0.124087 0.428516 0.863400
0.362093 0.442854 0.866536
0.601831 0.450004 0.883866
0.866104 0.464517 0.899832
0.000000 0.659398 0.891130
0.135088 0.654402 0.893365
0.377014 0.669147 0.894365
0.618326 0.679793 0.916731
0.882866 0.687731 0.916360
0.009592 0.883235 0.909627
0.165195 0.881543 0.908721
0.397207 0.882576 0.909058
0.599601 0.893897 0.915326
0.894035 0.907823 0.924629
