StreetStamps/mlut_cold_snap.cube
TITLE "Cold Snap - Created by MotionVFX"
LUT_3D_SIZE 32
0.000000 0.000000 0.000000
0.011543 0.001031 0.000872
0.023777 0.002060 0.000872
0.038053 0.004117 0.002617
0.057762 0.006171 0.003489
0.083276 0.009252 0.005234
0.112157 0.012853 0.006979
0.142217 0.017509 0.009596
0.173067 0.022737 0.013085
0.203457 0.028515 0.016574
0.234126 0.034790 0.020063
0.265053 0.041415 0.024425
0.296329 0.048381 0.029659
0.327912 0.055322 0.034893
0.359324 0.062666 0.040999
0.391222 0.070431 0.047031
0.423152 0.078638 0.054187
0.455066 0.087130 0.060061
0.487192 0.095777 0.066885
0.519636 0.104562 0.073233
0.551891 0.113469 0.079762
0.584386 0.122747 0.086431
0.616833 0.131856 0.092703
0.649388 0.141293 0.099115
0.681768 0.150794 0.105641
0.714413 0.160353 0.112257
0.746843 0.170175 0.118538
0.779421 0.180028 0.124917
0.811956 0.189910 0.131747
0.844576 0.200004 0.137901
0.877115 0.210107 0.144480
0.909662 0.220391 0.151102
0.000000 0.015953 0.000872
0.013173 0.020637 0.000000
0.027108 0.020637 0.000000
0.041844 0.022211 0.001745
0.060321 0.025913 0.005234
0.087849 0.028005 0.006979
0.116446 0.031968 0.009596
0.145305 0.036160 0.012212
0.174910 0.040562 0.015702
0.205226 0.045570 0.019191
0.235833 0.050737 0.022680
0.266588 0.056445 0.027042
0.297826 0.062307 0.032276
0.329277 0.069039 0.037510
0.360666 0.075928 0.043616
0.392459 0.083271 0.049489
0.424298 0.090894 0.055694
0.456345 0.098756 0.062164
0.488385 0.106830 0.068835
0.520566 0.114823 0.075057
0.552763 0.123522 0.081471
0.585206 0.132103 0.087503
0.617606 0.140819 0.094216
0.650117 0.149884 0.100545
0.682505 0.159042 0.106993
0.715068 0.168284 0.113538
0.747465 0.177803 0.119758
0.780013 0.187376 0.126080
0.812520 0.196996 0.132485
0.845115 0.206840 0.138960
0.877630 0.216709 0.145492
0.910287 0.226769 0.152070
0.000000 0.034790 0.001745
0.012520 0.040562 0.000000
0.027108 0.042681 0.000000
0.044614 0.042681 0.000000
0.066523 0.043929 0.001745
0.091776 0.046784 0.005234
0.117779 0.050737 0.011340
0.148535 0.053049 0.013085
0.179369 0.056445 0.015702
0.208729 0.061223 0.020063
0.238310 0.066583 0.025297
0.268466 0.072161 0.029659
0.299528 0.077625 0.034893
0.330540 0.083597 0.040127
0.362182 0.089962 0.046194
0.393857 0.096677 0.052651
0.425364 0.103703 0.058631
0.457407 0.111008 0.064218
0.489376 0.118297 0.070745
0.521741 0.126338 0.076848
0.553866 0.134316 0.083151
0.586243 0.142474 0.089613
0.618584 0.150794 0.095708
0.651040 0.159480 0.101957
0.683379 0.168284 0.108331
0.715896 0.177193 0.114807
0.748293 0.186395 0.120967
0.780802 0.195669 0.127614
0.813272 0.205009 0.133950
0.845797 0.214584 0.140360
0.878282 0.224200 0.146497
0.910813 0.234017 0.153033
0.000000 0.056445 0.002617
0.011217 0.061223 0.000872
0.026013 0.065522 0.000000
0.044362 0.067639 0.000000
0.067566 0.067990 0.000000
0.096863 0.068340 0.000872
0.126213 0.070778 0.004362
0.153009 0.074222 0.011340
0.179859 0.079643 0.019191
0.210750 0.082945 0.022680
0.243198 0.085535 0.025297
0.273228 0.090584 0.030531
0.303327 0.096377 0.036637
0.333436 0.102263 0.043616
0.364222 0.108792 0.050291
0.395413 0.114823 0.055694
0.427111 0.120927 0.061469
0.459102 0.127606 0.067540
0.490958 0.134560 0.073845
0.523221 0.141766 0.079762
0.555313 0.149200 0.085892
0.587659 0.156842 0.091683
0.619713 0.164672 0.098152
0.652107 0.172674 0.104273
0.684572 0.181033 0.110527
0.716897 0.189522 0.116893
0.749369 0.198316 0.122957
0.781826 0.207205 0.129131
0.814248 0.216179 0.135400
0.846622 0.225402 0.141746
0.879208 0.234682 0.148158
0.911667 0.244176 0.154624
0.000341 0.080310 0.003489
0.010242 0.084891 0.000872
0.024343 0.089337 0.000872
0.042852 0.093963 0.000872
0.066783 0.096078 0.000000
0.097861 0.096975 0.000000
0.129356 0.097274 0.000872
0.160083 0.099051 0.003489
0.188511 0.101684 0.009596
0.215593 0.106266 0.019191
0.243070 0.112106 0.029659
0.273918 0.116167 0.035765
0.307083 0.118826 0.038382
0.338781 0.123006 0.043616
0.368970 0.128614 0.050291
0.399642 0.134804 0.057175
0.430357 0.141293 0.064218
0.461492 0.148054 0.071373
0.492929 0.154620 0.077438
0.524881 0.161006 0.083151
0.556930 0.167862 0.089089
0.589180 0.174944 0.095213
0.621404 0.182234 0.101017
0.653704 0.189716 0.106993
0.685946 0.197562 0.113113
0.718331 0.205559 0.119353
0.750608 0.213694 0.125306
0.783044 0.222128 0.131747
0.815411 0.230667 0.137901
0.847875 0.239465 0.144141
0.880270 0.248340 0.150127
0.912814 0.257438 0.156512
0.000341 0.103416 0.005234
0.009267 0.108234 0.000872
0.022341 0.112652 0.000872
0.040078 0.119090 0.000872
0.064446 0.124037 0.000872
0.096362 0.126846 0.000000
0.129979 0.128110 0.000000
0.161859 0.128362 0.000000
0.193184 0.129116 0.002617
0.223654 0.132103 0.008723
0.251493 0.135535 0.017446
0.279502 0.140819 0.029659
0.307187 0.146903 0.043616
0.338213 0.151474 0.051872
0.371496 0.154173 0.054187
0.405026 0.157283 0.057175
0.435664 0.162954 0.064218
0.466581 0.169126 0.071373
0.497429 0.175559 0.078607
0.528429 0.182434 0.085892
0.559517 0.189716 0.092703
0.591129 0.196617 0.099115
0.623242 0.203350 0.105186
0.655537 0.210287 0.110962
0.687682 0.217590 0.116893
0.720021 0.225059 0.122561
0.752256 0.232681 0.128754
0.784574 0.240445 0.134677
0.816907 0.248499 0.140708
0.849305 0.256819 0.146831
0.881671 0.265233 0.153033
0.914157 0.273879 0.158995
0.000341 0.127858 0.006979
0.008292 0.132350 0.000872
0.020567 0.136989 0.000872
0.037290 0.143179 0.001745
0.060835 0.150794 0.001745
0.093319 0.155955 0.000872
0.127896 0.159042 0.000872
0.162213 0.160789 0.000000
0.194415 0.160789 0.000000
0.226378 0.161440 0.001745
0.258230 0.163814 0.006979
0.287971 0.166803 0.015702
0.315587 0.171011 0.027914
0.343769 0.176786 0.043616
0.372277 0.183430 0.058631
0.402945 0.188353 0.067540
0.436628 0.191265 0.070745
0.470653 0.194336 0.073233
0.502788 0.199068 0.078607
0.533884 0.205192 0.085892
0.564881 0.211727 0.092703
0.596078 0.218468 0.100070
0.627254 0.225573 0.106993
0.658372 0.233016 0.113963
0.690004 0.240445 0.120565
0.721880 0.247384 0.126465
0.754187 0.254486 0.132485
0.786453 0.261893 0.138255
0.818736 0.269286 0.144141
0.850945 0.276955 0.150127
0.883343 0.284881 0.156199
0.915693 0.292906 0.162044
0.000341 0.153501 0.009596
0.007315 0.157945 0.001745
0.019349 0.162306 0.001745
0.035249 0.168073 0.001745
0.056997 0.175969 0.001745
0.089432 0.184620 0.001745
0.124940 0.189716 0.001745
0.159726 0.192613 0.000872
0.194415 0.194527 0.000000
0.227595 0.195099 0.000000
0.259800 0.195289 0.001745
0.292231 0.196617 0.004362
0.323687 0.200191 0.013957
0.353089 0.203350 0.025297
0.380678 0.208115 0.040999
0.409237 0.214406 0.058631
0.437887 0.221261 0.073845
0.468863 0.226769 0.083151
0.502274 0.229993 0.086968
0.536530 0.233183 0.089613
0.570302 0.236505 0.092703
0.601460 0.242721 0.100070
0.632543 0.249134 0.106993
0.663762 0.255888 0.113963
0.694892 0.262807 0.120967
0.726180 0.270329 0.128375
0.757379 0.277829 0.135400
0.788910 0.285451 0.142091
0.820598 0.292906 0.148488
0.852902 0.300068 0.153990
0.885113 0.307352 0.159915
0.917421 0.314882 0.165923
0.000682 0.180028 0.012212
0.006335 0.184224 0.001745
0.017777 0.188353 0.001745
0.033190 0.194145 0.001745
0.053693 0.201310 0.002617
0.084092 0.210648 0.002617
0.120852 0.219169 0.001745
0.157029 0.224544 0.001745
0.191947 0.227451 0.000872
0.226649 0.229148 0.000000
0.260642 0.230162 0.000000
0.293531 0.230499 0.000872
0.325855 0.231172 0.004362
0.358517 0.234183 0.011340
0.389401 0.237659 0.023553
0.418152 0.241260 0.038382
0.446596 0.246585 0.056438
0.475099 0.253235 0.073845
0.503942 0.260364 0.088563
0.535149 0.266138 0.098152
0.568389 0.269733 0.102889
0.602573 0.272847 0.105641
0.636789 0.276079 0.108773
0.669151 0.281158 0.113963
0.700322 0.287436 0.120967
0.731430 0.294156 0.127995
0.762666 0.301156 0.135400
0.793914 0.308419 0.142434
0.825046 0.315796 0.149473
0.856375 0.323661 0.156512
0.887862 0.331358 0.163547
0.919503 0.339016 0.170000
0.000682 0.207751 0.014829
0.005023 0.212085 0.001745
0.016468 0.215825 0.002617
0.031630 0.221261 0.002617
0.051164 0.228131 0.002617
0.079220 0.236670 0.002617
0.115776 0.247064 0.002617
0.152825 0.254954 0.002617
0.189296 0.260364 0.001745
0.224611 0.263415 0.000872
0.259317 0.264779 0.000000
0.294286 0.266439 0.000000
0.327424 0.266740 0.000872
0.360309 0.267341 0.003489
0.393282 0.268987 0.008723
0.425669 0.272995 0.020936
0.455564 0.276225 0.034893
0.483931 0.280437 0.053422
0.513205 0.286019 0.070745
0.541425 0.293045 0.088563
0.570415 0.300340 0.103813
0.601778 0.306417 0.113963
0.634545 0.310410 0.119353
0.668869 0.313441 0.122164
0.703086 0.316707 0.124917
0.737016 0.320458 0.128375
0.768070 0.326709 0.135400
0.799266 0.333225 0.142434
0.830419 0.340115 0.149473
0.861660 0.347236 0.156512
0.892859 0.354572 0.163547
0.924103 0.362110 0.170861
0.001021 0.236505 0.018319
0.004032 0.240608 0.002617
0.015143 0.244176 0.002617
0.030054 0.249134 0.003489
0.048893 0.255888 0.003489
0.075473 0.263871 0.003489
0.110319 0.273437 0.003489
0.147968 0.283883 0.003489
0.185184 0.291512 0.003489
0.222144 0.297056 0.002617
0.257624 0.299931 0.000872
0.292122 0.301156 0.000000
0.328108 0.303459 0.000000
0.361647 0.303729 0.000872
0.394677 0.304133 0.002617
0.427490 0.304941 0.006979
0.460860 0.308552 0.017446
0.492338 0.312126 0.033148
0.522235 0.315404 0.049489
0.550317 0.320458 0.069476
0.580045 0.326203 0.085892
0.608101 0.333598 0.103813
0.637187 0.340845 0.118946
0.668492 0.347116 0.129131
0.700814 0.351513 0.135400
0.735202 0.354572 0.138255
0.769435 0.357838 0.141055
0.803738 0.361191 0.143801
0.835934 0.366447 0.149473
0.867150 0.372859 0.156512
0.898256 0.379601 0.163547
0.929445 0.386439 0.170574
0.001021 0.266288 0.021808
0.003036 0.270329 0.002617
0.013828 0.273437 0.003489
0.028725 0.278265 0.003489
0.047130 0.284596 0.003489
0.072291 0.291931 0.004362
0.105874 0.301021 0.004362
0.142605 0.311731 0.004362
0.180511 0.321871 0.004362
0.217842 0.328726 0.003489
0.255064 0.334342 0.002617
0.290817 0.337178 0.001745
0.325560 0.338282 0.000872
0.362182 0.341089 0.000000
0.395985 0.341332 0.000000
0.429378 0.341574 0.002617
0.462472 0.342302 0.006106
0.496194 0.344597 0.013957
0.528855 0.348548 0.029659
0.559345 0.351868 0.047031
0.588909 0.355742 0.065561
0.616936 0.360961 0.084804
0.646802 0.367014 0.101017
0.674865 0.374417 0.118946
0.704020 0.381785 0.133950
0.735160 0.388262 0.144480
0.767146 0.392942 0.151748
0.801524 0.395995 0.154624
0.835679 0.399127 0.157448
0.870035 0.402440 0.160221
0.903749 0.406336 0.163846
0.935005 0.412607 0.170861
0.001359 0.297056 0.026170
0.001696 0.301021 0.003489
0.012194 0.303999 0.003489
0.027379 0.308152 0.004362
0.045369 0.314097 0.004362
0.069659 0.321230 0.005234
0.102280 0.329355 0.005234
0.137692 0.339261 0.005234
0.175409 0.350685 0.005234
0.213752 0.360384 0.005234
0.250997 0.366561 0.004362
0.288739 0.372301 0.003489
0.324280 0.374639 0.001745
0.359324 0.375858 0.000872
0.396556 0.378943 0.000000
0.430582 0.379053 0.000000
0.464287 0.379382 0.001745
0.497624 0.379929 0.005234
0.530921 0.381131 0.011340
0.564483 0.384822 0.025297
0.596453 0.388690 0.044488
0.626748 0.391884 0.062164
0.655585 0.396309 0.081471
0.684251 0.401718 0.099594
0.713714 0.407964 0.116479
0.741802 0.415405 0.134314
0.770836 0.422702 0.149146
0.801983 0.429284 0.159915
0.833638 0.434052 0.167683
0.867811 0.437259 0.170861
0.902088 0.440347 0.173698
0.936405 0.443594 0.176489
0.001359 0.328726 0.031403
0.001696 0.332355 0.007851
0.010892 0.335207 0.004362
0.026013 0.339261 0.004362
0.043607 0.344597 0.005234
0.067305 0.351513 0.005234
0.099101 0.358882 0.006106
0.133671 0.368032 0.006106
0.170190 0.378394 0.006106
0.208729 0.389651 0.006106
0.246998 0.398503 0.006106
0.284543 0.404495 0.005234
0.322499 0.410293 0.003489
0.358157 0.412306 0.001745
0.393446 0.413709 0.000872
0.431033 0.416796 0.000000
0.465123 0.416995 0.000000
0.499244 0.417292 0.001745
0.532798 0.417787 0.005234
0.566185 0.418677 0.010468
0.600186 0.421234 0.020936
0.632994 0.425135 0.040127
0.663952 0.428612 0.059349
0.694080 0.431962 0.076848
0.722397 0.436884 0.096692
0.751473 0.442391 0.114386
0.780723 0.448731 0.131747
0.808711 0.456217 0.149473
0.837787 0.463380 0.164144
0.868855 0.469892 0.175099
0.900458 0.474680 0.183006
0.934113 0.478146 0.186960
0.001696 0.361191 0.036637
0.002033 0.364627 0.013085
0.009267 0.367467 0.005234
0.024343 0.371070 0.005234
0.042096 0.375969 0.006106
0.065224 0.382220 0.006106
0.096362 0.389331 0.006979
0.130392 0.397564 0.006979
0.166064 0.407151 0.007851
0.203605 0.418084 0.007851
0.242176 0.428612 0.006979
0.280517 0.436601 0.006979
0.318408 0.442484 0.006106
0.356355 0.447818 0.004362
0.392212 0.449913 0.002617
0.427717 0.451273 0.000872
0.465748 0.454606 0.000000
0.500084 0.454785 0.000000
0.534246 0.454964 0.000872
0.568219 0.455502 0.004362
0.601778 0.456127 0.009596
0.635593 0.457643 0.016574
0.668822 0.461272 0.034893
0.701081 0.465128 0.056438
0.731473 0.468339 0.075057
0.761165 0.472037 0.092703
0.789260 0.477135 0.112686
0.818886 0.482663 0.129508
0.847732 0.489090 0.146831
0.875670 0.496447 0.164442
0.904710 0.503423 0.179234
0.935674 0.509726 0.190317
0.002033 0.394419 0.042744
0.002033 0.397564 0.019191
0.007641 0.400476 0.006106
0.022920 0.403674 0.006106
0.040583 0.408167 0.006979
0.063411 0.413809 0.006979
0.094085 0.420842 0.007851
0.127686 0.428131 0.007851
0.162566 0.436978 0.008723
0.199128 0.446904 0.008723
0.237400 0.457909 0.008723
0.276209 0.467474 0.008723
0.314472 0.474595 0.007851
0.352541 0.480244 0.006106
0.390561 0.485313 0.005234
0.426656 0.487289 0.002617
0.462262 0.488681 0.001745
0.500084 0.491532 0.000000
0.535029 0.492180 0.000000
0.569571 0.492423 0.000872
0.603630 0.492828 0.003489
0.637386 0.493474 0.008723
0.670655 0.494360 0.015702
0.704863 0.497167 0.028787
0.737438 0.500902 0.051872
0.768753 0.504363 0.071997
0.799074 0.507559 0.089613
0.828216 0.511802 0.108773
0.856269 0.516828 0.127995
0.886302 0.522304 0.144480
0.914778 0.528795 0.162044
0.942673 0.535883 0.179778
0.002368 0.428227 0.049489
0.002368 0.431103 0.026170
0.005680 0.433957 0.006979
0.021165 0.436978 0.006979
0.039066 0.440905 0.007851
0.061606 0.446079 0.007851
0.092034 0.452447 0.008723
0.125365 0.459417 0.009596
0.159726 0.467301 0.009596
0.195487 0.476290 0.009596
0.232806 0.486385 0.010468
0.271842 0.497247 0.010468
0.310592 0.505926 0.009596
0.348873 0.512109 0.008723
0.386988 0.517507 0.006979
0.425060 0.522081 0.006106
0.461141 0.523938 0.003489
0.497169 0.525491 0.001745
0.534547 0.527844 0.000000
0.570302 0.528941 0.000000
0.604791 0.529160 0.000000
0.639073 0.529525 0.002617
0.672904 0.530035 0.007851
0.706502 0.530835 0.014829
0.740588 0.532502 0.023553
0.773591 0.536027 0.046194
0.805982 0.539657 0.068190
0.836480 0.542759 0.087503
0.866731 0.546042 0.104273
0.895244 0.550530 0.124527
0.923618 0.555568 0.143119
0.953726 0.560864 0.159302
0.002702 0.462591 0.055694
0.002702 0.465215 0.033148
0.003701 0.468080 0.007851
0.019349 0.470751 0.007851
0.037545 0.474340 0.008723
0.060065 0.478987 0.008723
0.089956 0.484735 0.009596
0.123659 0.491613 0.010468
0.157390 0.498443 0.010468
0.192721 0.506549 0.011340
0.229075 0.515616 0.011340
0.267176 0.525638 0.012212
0.306148 0.535310 0.011340
0.345354 0.543600 0.010468
0.383466 0.548949 0.009596
0.421774 0.554078 0.007851
0.459735 0.558193 0.006106
0.495999 0.559998 0.003489
0.532072 0.561462 0.002617
0.569178 0.563447 0.000872
0.605528 0.564961 0.000000
0.640212 0.565158 0.000000
0.674538 0.565486 0.002617
0.708621 0.565945 0.006979
0.742345 0.566599 0.013085
0.775699 0.567578 0.021808
0.809769 0.570433 0.039254
0.842308 0.573903 0.063539
0.873842 0.577209 0.084256
0.904312 0.580168 0.102424
0.934177 0.583659 0.120162
0.962446 0.588335 0.140360
0.003036 0.497247 0.062854
0.003369 0.499635 0.041871
0.003369 0.502322 0.013085
0.017455 0.504833 0.008723
0.036016 0.508102 0.009596
0.058528 0.512262 0.010468
0.088114 0.517356 0.010468
0.121720 0.523568 0.011340
0.155576 0.529962 0.012212
0.190391 0.537241 0.012212
0.226242 0.545416 0.013085
0.263392 0.554349 0.013085
0.302066 0.564041 0.013085
0.341236 0.572686 0.013085
0.380168 0.579792 0.011340
0.418462 0.584896 0.010468
0.456770 0.589616 0.009596
0.494695 0.593244 0.006979
0.530982 0.594983 0.004362
0.567203 0.596414 0.002617
0.603947 0.597958 0.000872
0.641003 0.599788 0.000000
0.675656 0.600023 0.000000
0.710162 0.600317 0.001745
0.744348 0.600670 0.006106
0.778275 0.601314 0.012212
0.811730 0.602133 0.020936
0.846120 0.603880 0.031403
0.878728 0.607115 0.057906
0.911306 0.610315 0.079186
0.941758 0.613312 0.099594
0.972166 0.616279 0.117307
0.003701 0.532140 0.070113
0.003701 0.534161 0.050291
0.003701 0.536599 0.021808
0.015143 0.539232 0.010468
0.034479 0.542057 0.010468
0.056742 0.545764 0.011340
0.086518 0.550324 0.012212
0.119979 0.555770 0.013085
0.154113 0.562059 0.013085
0.188511 0.568294 0.013957
0.223928 0.575560 0.013957
0.260522 0.583597 0.014829
0.298252 0.592281 0.015702
0.337548 0.601431 0.014829
0.376500 0.608948 0.013957
0.415357 0.614995 0.013085
0.453713 0.619602 0.012212
0.492076 0.623920 0.010468
0.529829 0.627210 0.007851
0.566241 0.628761 0.005234
0.602520 0.630144 0.003489
0.639024 0.631309 0.000872
0.676493 0.633415 0.000000
0.711129 0.633573 0.000000
0.745804 0.633835 0.001745
0.780131 0.634201 0.005234
0.814098 0.634776 0.011340
0.847911 0.635505 0.019191
0.881501 0.636597 0.029659
0.915236 0.639126 0.051085
0.947577 0.642242 0.075658
0.979274 0.645272 0.096692
0.004032 0.566861 0.076848
0.004032 0.568749 0.058631
0.004363 0.570949 0.031403
0.012846 0.573391 0.011340
0.032671 0.576005 0.012212
0.055216 0.579227 0.013085
0.084905 0.583287 0.013085
0.118663 0.588030 0.013957
0.152640 0.593665 0.014829
0.187091 0.599376 0.015702
0.222144 0.605791 0.015702
0.258230 0.612862 0.016574
0.295363 0.620537 0.017446
0.333821 0.628761 0.017446
0.373056 0.636959 0.016574
0.412230 0.643660 0.015702
0.450851 0.648714 0.014829
0.489244 0.652846 0.013085
0.527514 0.656768 0.011340
0.565221 0.659588 0.008723
0.601566 0.660963 0.005234
0.637932 0.662330 0.003489
0.674072 0.663128 0.001745
0.712050 0.665368 0.000000
0.746718 0.665553 0.000000
0.781550 0.665739 0.000872
0.815935 0.666110 0.004362
0.850054 0.666572 0.010468
0.884025 0.667172 0.017446
0.917552 0.668047 0.028787
0.951827 0.669741 0.042744
0.984258 0.672508 0.069476
0.004693 0.601373 0.084256
0.004693 0.603008 0.067540
0.004693 0.604924 0.041871
0.010242 0.607402 0.013085
0.030581 0.609632 0.013957
0.053440 0.612467 0.013957
0.083004 0.616001 0.014829
0.117336 0.620207 0.015702
0.151529 0.625057 0.016574
0.185980 0.630515 0.017446
0.220902 0.635922 0.017446
0.256651 0.642140 0.018319
0.293206 0.648913 0.019191
0.330927 0.656046 0.019191
0.369756 0.663690 0.019191
0.408921 0.670561 0.018319
0.448260 0.676681 0.017446
0.486595 0.680766 0.015702
0.524943 0.684548 0.013957
0.563175 0.688035 0.012212
0.600717 0.690545 0.009596
0.637137 0.691794 0.006106
0.673465 0.693082 0.004362
0.709326 0.693639 0.001745
0.747630 0.696030 0.000000
0.782416 0.696200 0.000000
0.817281 0.696455 0.000000
0.851835 0.696753 0.003489
0.886132 0.697178 0.008723
0.920120 0.697771 0.016574
0.953881 0.698534 0.027042
0.987782 0.699675 0.039254
0.005023 0.635141 0.091683
0.005351 0.636648 0.075658
0.005351 0.638354 0.052651
0.007315 0.640714 0.014829
0.028457 0.642698 0.014829
0.051669 0.645171 0.015702
0.081378 0.648119 0.016574
0.116000 0.651770 0.017446
0.150411 0.656046 0.018319
0.185184 0.660868 0.019191
0.219932 0.665646 0.020063
0.255431 0.670970 0.020063
0.291688 0.676815 0.020936
0.328888 0.683145 0.021808
0.366955 0.689854 0.021808
0.406143 0.697008 0.021808
0.445217 0.703037 0.020936
0.484332 0.708401 0.019191
0.522605 0.712063 0.017446
0.560949 0.715653 0.015702
0.599069 0.718850 0.013957
0.636441 0.721061 0.010468
0.672764 0.722263 0.006979
0.709194 0.723541 0.005234
0.744723 0.723820 0.002617
0.783319 0.726323 0.000000
0.818214 0.726521 0.000000
0.853115 0.726719 0.000000
0.887727 0.727036 0.002617
0.922260 0.727431 0.007851
0.956271 0.728024 0.015702
0.990252 0.728655 0.025297
0.005680 0.668139 0.099594
0.006008 0.669376 0.084256
0.006008 0.670879 0.063539
0.006335 0.673049 0.021808
0.026288 0.674847 0.016574
0.049902 0.676948 0.017446
0.079758 0.679571 0.018319
0.114878 0.682706 0.019191
0.149662 0.686383 0.020063
0.184385 0.690674 0.020936
0.219376 0.695263 0.021808
0.254697 0.699843 0.022680
0.290817 0.705082 0.022680
0.327521 0.710750 0.023553
0.365017 0.716870 0.024425
0.403587 0.723262 0.024425
0.442885 0.729914 0.023553
0.481789 0.735225 0.022680
0.520628 0.739858 0.020936
0.558943 0.743301 0.018319
0.597041 0.746528 0.017446
0.635144 0.749507 0.014829
0.672249 0.751457 0.012212
0.708577 0.752540 0.007851
0.744972 0.753807 0.005234
0.780329 0.753882 0.002617
0.818662 0.756183 0.000000
0.854109 0.756664 0.000000
0.888979 0.756886 0.000000
0.923812 0.757181 0.002617
0.958314 0.757551 0.006979
0.992537 0.758067 0.013957
0.006335 0.700391 0.107441
0.006662 0.701569 0.093209
0.006662 0.702953 0.073845
0.006989 0.704957 0.034893
0.023493 0.706745 0.019191
0.047634 0.708649 0.019191
0.077878 0.710997 0.020063
0.113750 0.713780 0.020936
0.148723 0.717072 0.021808
0.183744 0.720821 0.022680
0.218959 0.725133 0.023553
0.254329 0.729285 0.024425
0.290272 0.733942 0.025297
0.326738 0.739051 0.025297
0.363868 0.744519 0.026170
0.401820 0.750333 0.027042
0.440540 0.756442 0.027042
0.479772 0.762250 0.026170
0.518643 0.767191 0.024425
0.557218 0.771077 0.022680
0.595382 0.774219 0.020063
0.633395 0.777198 0.018319
0.671265 0.779877 0.015702
0.708224 0.781596 0.013085
0.744514 0.782611 0.008723
0.780841 0.783763 0.006106
0.816346 0.783902 0.003489
0.854251 0.785815 0.000872
0.889993 0.786474 0.000000
0.924974 0.786716 0.000000
0.959858 0.786994 0.001745
0.994549 0.787374 0.006106
0.007315 0.733124 0.115646
0.007315 0.734253 0.101957
0.007641 0.735496 0.083705
0.007641 0.737316 0.049489
0.020567 0.739128 0.020936
0.045369 0.740855 0.021808
0.076006 0.742958 0.022680
0.112386 0.745430 0.023553
0.148157 0.748340 0.024425
0.183422 0.751718 0.025297
0.218680 0.755516 0.026170
0.254329 0.759539 0.027042
0.290053 0.763563 0.027914
0.326542 0.768166 0.027914
0.363336 0.773043 0.028787
0.400853 0.778257 0.029659
0.439068 0.783728 0.029659
0.478016 0.789445 0.029659
0.516837 0.794447 0.027914
0.555776 0.798992 0.026170
0.593986 0.802255 0.024425
0.632042 0.805063 0.022680
0.669857 0.807755 0.020063
0.707651 0.810268 0.017446
0.744306 0.811684 0.013957
0.780644 0.812637 0.009596
0.816795 0.813588 0.006979
0.852511 0.813850 0.003489
0.889925 0.815451 0.000872
0.926070 0.816233 0.000000
0.960999 0.816494 0.000000
0.996055 0.816754 0.000872
0.007966 0.766287 0.123744
0.008292 0.767299 0.110962
0.008292 0.768454 0.093714
0.008617 0.770144 0.062854
0.016801 0.772007 0.022680
0.043104 0.773506 0.023553
0.073879 0.775391 0.024425
0.111241 0.777622 0.025297
0.147400 0.780193 0.027042
0.183101 0.783170 0.027914
0.218680 0.786543 0.028787
0.254574 0.790340 0.029659
0.290272 0.793901 0.030531
0.326640 0.797978 0.031403
0.363336 0.802289 0.031403
0.400611 0.806959 0.032276
0.438330 0.811881 0.033148
0.476797 0.816982 0.033148
0.515712 0.822224 0.032276
0.554329 0.826422 0.030531
0.593017 0.830491 0.028787
0.631037 0.833206 0.026170
0.668869 0.835781 0.024425
0.706502 0.838188 0.021808
0.744098 0.840490 0.018319
0.780644 0.841637 0.015702
0.816833 0.842472 0.010468
0.853009 0.843306 0.006979
0.888742 0.843677 0.004362
0.925877 0.844940 0.000872
0.962138 0.845801 0.000000
0.997205 0.846077 0.000000
0.008942 0.800037 0.132485
0.008942 0.800979 0.119758
0.009267 0.802020 0.103813
0.009592 0.803527 0.075057
0.012846 0.805496 0.025297
0.040331 0.806826 0.026170
0.071499 0.808451 0.027042
0.109857 0.810400 0.027914
0.146641 0.812735 0.028787
0.182940 0.815386 0.030531
0.218819 0.818346 0.031403
0.254820 0.821676 0.032276
0.290817 0.825080 0.033148
0.327130 0.828556 0.034020
0.363868 0.832450 0.034893
0.400934 0.836595 0.034893
0.438256 0.840893 0.035765
0.476322 0.845432 0.035765
0.514774 0.850114 0.035765
0.553634 0.854694 0.034893
0.591993 0.858395 0.033148
0.630434 0.861802 0.030531
